P3
300 100
255
255 255 255 0 0 0 255 255 255 0 0 0 255 255 255 0 0 0 255 255 255 0 0
0 255 255 255 0 0 0 255 255 255 0 0 0 255 255 255 0 0 0 255 255 255 0
0 0 255 255 255 0 0 0 255 255 255 0 0 0 255 255 255 0 0 0 255 255 255
0 0 0 255 255 255 0 0 0 255 255 255 0 0 0 255 255 255 0 0 0 255 255
255 0 0 0 255 255 255 0 0 0 255 255 255 0 0 0 255 255 255 0 0 0 255
255 255 0 0 0 255 255 255 0 0 0 255 255 255 0 0 0 255 255 255 0 0 0
255 255 255 0 0 0 255 255 255 0 0 0 255 255 255 0 0 0 255 255 255 0 0
0 255 255 255 0 0 0 255 255 255 0 0 0 255 255 255 0 0 0 255 255 255 0
0 0 255 255 255 0 0 0 255 255 255 0 0 0 255 255 255 0 0 0 255 255 255
0 0 0 255 255 255 0 0 0 255 255 255 0 0 0 255 255 255 0 0 0 255 255
255 0 0 0 255 255 255 0 0 0 255 255 255 0 0 0 255 255 255 0 0 0 255
255 255 0 0 0 255 255 255 0 0 0 255 255 255 0 0 0 255 255 255 0 0 0
255 255 255 0 0 0 255 255 255 0 0 0 255 255 255 0 0 0 255 255 255 0 0
0 128 128 128 128 128 128 128 128 128 128 128 128 128 128 128 128 128
128 128 128 128 128 128 128 128 128 128 128 128 128 128 128 128 128
128 128 128 128 128 128 128 128 128 128 128 128 128 128 128 128 128
128 128 128 128 128 128 128 128 128 128 128 128 128 128 128 128 128
128 128 128 128 128 128 128 128 128 128 128 128 128 128 128 128 128
128 128 128 128 128 128 128 128 128 128 128 128 128 128 128 128 128
128 128 128 128 128 128 128 128 128 128 128 128 128 128 128 128 128
128 128 128 128 128 128 128 128 128 128 128 128 128 128 128 128 128
128 128 128 128 128 128 128 128 128 128 128 128 128 128 128 128 128
128 128 128 128 128 128 128 128 128 128 128 128 128 128 128 128 128
128 128 128 128 128 128 128 128 128 128 128 128 128 128 128 128 128
128 128 128 128 128 128 128 128 128 128 128 128 128 128 128 128 128
128 128 128 128 128 128 128 128 128 128 128 128 128 128 128 128 128
128 128 128 128 128 128 128 128 128 128 128 128 128 128 128 128 128
128 128 128 128 128 128 128 128 128 128 128 128 128 128 128 128 128
128 128 128 128 128 128 128 128 128 128 128 128 128 128 128 128 128
128 128 128 128 128 128 128 128 128 128 128 128 128 128 128 128 128
128 128 128 128 128 128 128 128 128 128 128 188 188 188 188 188 188
188 188 188 188 188 188 188 188 188 188 188 188 188 188 188 188 188
188 188 188 188 188 188 188 188 188 188 188 188 188 188 188 188 188
188 188 188 188 188 188 188 188 188 188 188 188 188 188 188 188 188
188 188 188 188 188 188 188 188 188 188 188 188 188 188 188 188 188
188 188 188 188 188 188 188 188 188 188 188 188 188 188 188 188 188
188 188 188 188 188 188 188 188 188 188 188 188 188 188 188 188 188
188 188 188 188 188 188 188 188 188 188 188 188 188 188 188 188 188
188 188 188 188 188 188 188 188 188 188 188 188 188 188 188 188 188
188 188 188 188 188 188 188 188 188 188 188 188 188 188 188 188 188
188 188 188 188 188 188 188 188 188 188 188 188 188 188 188 188 188
188 188 188 188 188 188 188 188 188 188 188 188 188 188 188 188 188
188 188 188 188 188 188 188 188 188 188 188 188 188 188 188 188 188
188 188 188 188 188 188 188 188 188 188 188 188 188 188 188 188 188
188 188 188 188 188 188 188 188 188 188 188 188 188 188 188 188 188
188 188 188 188 188 188 188 188 188 188 188 188 188 188 188 188 188
188 188 188 188 188 188 188 188 188 188 188 188 188 188 188 188 188
188 188 188 188 188 188 188 188 188 188 188 188 188 188 188 188 188
188 188 188 188 188
0 0 0 255 255 255 0 0 0 255 255 255 0 0 0 255 255 255 0 0 0 255 255
255 0 0 0 255 255 255 0 0 0 255 255 255 0 0 0 255 255 255 0 0 0 255
255 255 0 0 0 255 255 255 0 0 0 255 255 255 0 0 0 255 255 255 0 0 0
255 255 255 0 0 0 255 255 255 0 0 0 255 255 255 0 0 0 255 255 255 0 0
0 255 255 255 0 0 0 255 255 255 0 0 0 255 255 255 0 0 0 255 255 255 0
0 0 255 255 255 0 0 0 255 255 255 0 0 0 255 255 255 0 0 0 255 255 255
0 0 0 255 255 255 0 0 0 255 255 255 0 0 0 255 255 255 0 0 0 255 255
255 0 0 0 255 255 255 0 0 0 255 255 255 0 0 0 255 255 255 0 0 0 255
255 255 0 0 0 255 255 255 0 0 0 255 255 255 0 0 0 255 255 255 0 0 0
255 255 255 0 0 0 255 255 255 0 0 0 255 255 255 0 0 0 255 255 255 0 0
0 255 255 255 0 0 0 255 255 255 0 0 0 255 255 255 0 0 0 255 255 255 0
0 0 255 255 255 0 0 0 255 255 255 0 0 0 255 255 255 0 0 0 255 255 255
0 0 0 255 255 255 0 0 0 255 255 255 0 0 0 255 255 255 0 0 0 255 255
255 128 128 128 128 128 128 128 128 128 128 128 128 128 128 128 128
128 128 128 128 128 128 128 128 128 128 128 128 128 128 128 128 128
128 128 128 128 128 128 128 128 128 128 128 128 128 128 128 128 128
128 128 128 128 128 128 128 128 128 128 128 128 128 128 128 128 128
128 128 128 128 128 128 128 128 128 128 128 128 128 128 128 128 128
128 128 128 128 128 128 128 128 128 128 128 128 128 128 128 128 128
128 128 128 128 128 128 128 128 128 128 128 128 128 128 128 128 128
128 128 128 128 128 128 128 128 128 128 128 128 128 128 128 128 128
128 128 128 128 128 128 128 128 128 128 128 128 128 128 128 128 128
128 128 128 128 128 128 128 128 128 128 128 128 128 128 128 128 128
128 128 128 128 128 128 128 128 128 128 128 128 128 128 128 128 128
128 128 128 128 128 128 128 128 128 128 128 128 128 128 128 128 128
128 128 128 128 128 128 128 128 128 128 128 128 128 128 128 128 128
128 128 128 128 128 128 128 128 128 128 128 128 128 128 128 128 128
128 128 128 128 128 128 128 128 128 128 128 128 128 128 128 128 128
128 128 128 128 128 128 128 128 128 128 128 128 128 128 128 128 128
128 128 128 128 128 128 128 128 128 128 128 128 128 128 128 128 128
128 128 128 128 128 128 128 128 128 128 128 128 188 188 188 188 188
188 188 188 188 188 188 188 188 188 188 188 188 188 188 188 188 188
188 188 188 188 188 188 188 188 188 188 188 188 188 188 188 188 188
188 188 188 188 188 188 188 188 188 188 188 188 188 188 188 188 188
188 188 188 188 188 188 188 188 188 188 188 188 188 188 188 188 188
188 188 188 188 188 188 188 188 188 188 188 188 188 188 188 188 188
188 188 188 188 188 188 188 188 188 188 188 188 188 188 188 188 188
188 188 188 188 188 188 188 188 188 188 188 188 188 188 188 188 188
188 188 188 188 188 188 188 188 188 188 188 188 188 188 188 188 188
188 188 188 188 188 188 188 188 188 188 188 188 188 188 188 188 188
188 188 188 188 188 188 188 188 188 188 188 188 188 188 188 188 188
188 188 188 188 188 188 188 188 188 188 188 188 188 188 188 188 188
188 188 188 188 188 188 188 188 188 188 188 188 188 188 188 188 188
188 188 188 188 188 188 188 188 188 188 188 188 188 188 188 188 188
188 188 188 188 188 188 188 188 188 188 188 188 188 188 188 188 188
188 188 188 188 188 188 188 188 188 188 188 188 188 188 188 188 188
188 188 188 188 188 188 188 188 188 188 188 188 188 188 188 188 188
188 188 188 188 188 188 188 188 188 188 188 188 188 188 188 188 188
188 188 188 188 188 188
255 255 255 0 0 0 255 255 255 0 0 0 255 255 255 0 0 0 255 255 255 0 0
0 255 255 255 0 0 0 255 255 255 0 0 0 255 255 255 0 0 0 255 255 255 0
0 0 255 255 255 0 0 0 255 255 255 0 0 0 255 255 255 0 0 0 255 255 255
0 0 0 255 255 255 0 0 0 255 255 255 0 0 0 255 255 255 0 0 0 255 255
255 0 0 0 255 255 255 0 0 0 255 255 255 0 0 0 255 255 255 0 0 0 255
255 255 0 0 0 255 255 255 0 0 0 255 255 255 0 0 0 255 255 255 0 0 0
255 255 255 0 0 0 255 255 255 0 0 0 255 255 255 0 0 0 255 255 255 0 0
0 255 255 255 0 0 0 255 255 255 0 0 0 255 255 255 0 0 0 255 255 255 0
0 0 255 255 255 0 0 0 255 255 255 0 0 0 255 255 255 0 0 0 255 255 255
0 0 0 255 255 255 0 0 0 255 255 255 0 0 0 255 255 255 0 0 0 255 255
255 0 0 0 255 255 255 0 0 0 255 255 255 0 0 0 255 255 255 0 0 0 255
255 255 0 0 0 255 255 255 0 0 0 255 255 255 0 0 0 255 255 255 0 0 0
255 255 255 0 0 0 255 255 255 0 0 0 255 255 255 0 0 0 255 255 255 0 0
0 128 128 128 128 128 128 128 128 128 128 128 128 128 128 128 128 128
128 128 128 128 128 128 128 128 128 128 128 128 128 128 128 128 128
128 128 128 128 128 128 128 128 128 128 128 128 128 128 128 128 128
128 128 128 128 128 128 128 128 128 128 128 128 128 128 128 128 128
128 128 128 128 128 128 128 128 128 128 128 128 128 128 128 128 128
128 128 128 128 128 128 128 128 128 128 128 128 128 128 128 128 128
128 128 128 128 128 128 128 128 128 128 128 128 128 128 128 128 128
128 128 128 128 128 128 128 128 128 128 128 128 128 128 128 128 128
128 128 128 128 128 128 128 128 128 128 128 128 128 128 128 128 128
128 128 128 128 128 128 128 128 128 128 128 128 128 128 128 128 128
128 128 128 128 128 128 128 128 128 128 128 128 128 128 128 128 128
128 128 128 128 128 128 128 128 128 128 128 128 128 128 128 128 128
128 128 128 128 128 128 128 128 128 128 128 128 128 128 128 128 128
128 128 128 128 128 128 128 128 128 128 128 128 128 128 128 128 128
128 128 128 128 128 128 128 128 128 128 128 128 128 128 128 128 128
128 128 128 128 128 128 128 128 128 128 128 128 128 128 128 128 128
128 128 128 128 128 128 128 128 128 128 128 128 128 128 128 128 128
128 128 128 128 128 128 128 128 128 128 128 188 188 188 188 188 188
188 188 188 188 188 188 188 188 188 188 188 188 188 188 188 188 188
188 188 188 188 188 188 188 188 188 188 188 188 188 188 188 188 188
188 188 188 188 188 188 188 188 188 188 188 188 188 188 188 188 188
188 188 188 188 188 188 188 188 188 188 188 188 188 188 188 188 188
188 188 188 188 188 188 188 188 188 188 188 188 188 188 188 188 188
188 188 188 188 188 188 188 188 188 188 188 188 188 188 188 188 188
188 188 188 188 188 188 188 188 188 188 188 188 188 188 188 188 188
188 188 188 188 188 188 188 188 188 188 188 188 188 188 188 188 188
188 188 188 188 188 188 188 188 188 188 188 188 188 188 188 188 188
188 188 188 188 188 188 188 188 188 188 188 188 188 188 188 188 188
188 188 188 188 188 188 188 188 188 188 188 188 188 188 188 188 188
188 188 188 188 188 188 188 188 188 188 188 188 188 188 188 188 188
188 188 188 188 188 188 188 188 188 188 188 188 188 188 188 188 188
188 188 188 188 188 188 188 188 188 188 188 188 188 188 188 188 188
188 188 188 188 188 188 188 188 188 188 188 188 188 188 188 188 188
188 188 188 188 188 188 188 188 188 188 188 188 188 188 188 188 188
188 188 188 188 188 188 188 188 188 188 188 188 188 188 188 188 188
188 188 188 188 188
0 0 0 255 255 255 0 0 0 255 255 255 0 0 0 255 255 255 0 0 0 255 255
255 0 0 0 255 255 255 0 0 0 255 255 255 0 0 0 255 255 255 0 0 0 255
255 255 0 0 0 255 255 255 0 0 0 255 255 255 0 0 0 255 255 255 0 0 0
255 255 255 0 0 0 255 255 255 0 0 0 255 255 255 0 0 0 255 255 255 0 0
0 255 255 255 0 0 0 255 255 255 0 0 0 255 255 255 0 0 0 255 255 255 0
0 0 255 255 255 0 0 0 255 255 255 0 0 0 255 255 255 0 0 0 255 255 255
0 0 0 255 255 255 0 0 0 255 255 255 0 0 0 255 255 255 0 0 0 255 255
255 0 0 0 255 255 255 0 0 0 255 255 255 0 0 0 255 255 255 0 0 0 255
255 255 0 0 0 255 255 255 0 0 0 255 255 255 0 0 0 255 255 255 0 0 0
255 255 255 0 0 0 255 255 255 0 0 0 255 255 255 0 0 0 255 255 255 0 0
0 255 255 255 0 0 0 255 255 255 0 0 0 255 255 255 0 0 0 255 255 255 0
0 0 255 255 255 0 0 0 255 255 255 0 0 0 255 255 255 0 0 0 255 255 255
0 0 0 255 255 255 0 0 0 255 255 255 0 0 0 255 255 255 0 0 0 255 255
255 128 128 128 128 128 128 128 128 128 128 128 128 128 128 128 128
128 128 128 128 128 128 128 128 128 128 128 128 128 128 128 128 128
128 128 128 128 128 128 128 128 128 128 128 128 128 128 128 128 128
128 128 128 128 128 128 128 128 128 128 128 128 128 128 128 128 128
128 128 128 128 128 128 128 128 128 128 128 128 128 128 128 128 128
128 128 128 128 128 128 128 128 128 128 128 128 128 128 128 128 128
128 128 128 128 128 128 128 128 128 128 128 128 128 128 128 128 128
128 128 128 128 128 128 128 128 128 128 128 128 128 128 128 128 128
128 128 128 128 128 128 128 128 128 128 128 128 128 128 128 128 128
128 128 128 128 128 128 128 128 128 128 128 128 128 128 128 128 128
128 128 128 128 128 128 128 128 128 128 128 128 128 128 128 128 128
128 128 128 128 128 128 128 128 128 128 128 128 128 128 128 128 128
128 128 128 128 128 128 128 128 128 128 128 128 128 128 128 128 128
128 128 128 128 128 128 128 128 128 128 128 128 128 128 128 128 128
128 128 128 128 128 128 128 128 128 128 128 128 128 128 128 128 128
128 128 128 128 128 128 128 128 128 128 128 128 128 128 128 128 128
128 128 128 128 128 128 128 128 128 128 128 128 128 128 128 128 128
128 128 128 128 128 128 128 128 128 128 128 128 188 188 188 188 188
188 188 188 188 188 188 188 188 188 188 188 188 188 188 188 188 188
188 188 188 188 188 188 188 188 188 188 188 188 188 188 188 188 188
188 188 188 188 188 188 188 188 188 188 188 188 188 188 188 188 188
188 188 188 188 188 188 188 188 188 188 188 188 188 188 188 188 188
188 188 188 188 188 188 188 188 188 188 188 188 188 188 188 188 188
188 188 188 188 188 188 188 188 188 188 188 188 188 188 188 188 188
188 188 188 188 188 188 188 188 188 188 188 188 188 188 188 188 188
188 188 188 188 188 188 188 188 188 188 188 188 188 188 188 188 188
188 188 188 188 188 188 188 188 188 188 188 188 188 188 188 188 188
188 188 188 188 188 188 188 188 188 188 188 188 188 188 188 188 188
188 188 188 188 188 188 188 188 188 188 188 188 188 188 188 188 188
188 188 188 188 188 188 188 188 188 188 188 188 188 188 188 188 188
188 188 188 188 188 188 188 188 188 188 188 188 188 188 188 188 188
188 188 188 188 188 188 188 188 188 188 188 188 188 188 188 188 188
188 188 188 188 188 188 188 188 188 188 188 188 188 188 188 188 188
188 188 188 188 188 188 188 188 188 188 188 188 188 188 188 188 188
188 188 188 188 188 188 188 188 188 188 188 188 188 188 188 188 188
188 188 188 188 188 188
255 255 255 0 0 0 255 255 255 0 0 0 255 255 255 0 0 0 255 255 255 0 0
0 255 255 255 0 0 0 255 255 255 0 0 0 255 255 255 0 0 0 255 255 255 0
0 0 255 255 255 0 0 0 255 255 255 0 0 0 255 255 255 0 0 0 255 255 255
0 0 0 255 255 255 0 0 0 255 255 255 0 0 0 255 255 255 0 0 0 255 255
255 0 0 0 255 255 255 0 0 0 255 255 255 0 0 0 255 255 255 0 0 0 255
255 255 0 0 0 255 255 255 0 0 0 255 255 255 0 0 0 255 255 255 0 0 0
255 255 255 0 0 0 255 255 255 0 0 0 255 255 255 0 0 0 255 255 255 0 0
0 255 255 255 0 0 0 255 255 255 0 0 0 255 255 255 0 0 0 255 255 255 0
0 0 255 255 255 0 0 0 255 255 255 0 0 0 255 255 255 0 0 0 255 255 255
0 0 0 255 255 255 0 0 0 255 255 255 0 0 0 255 255 255 0 0 0 255 255
255 0 0 0 255 255 255 0 0 0 255 255 255 0 0 0 255 255 255 0 0 0 255
255 255 0 0 0 255 255 255 0 0 0 255 255 255 0 0 0 255 255 255 0 0 0
255 255 255 0 0 0 255 255 255 0 0 0 255 255 255 0 0 0 255 255 255 0 0
0 128 128 128 128 128 128 128 128 128 128 128 128 128 128 128 128 128
128 128 128 128 128 128 128 128 128 128 128 128 128 128 128 128 128
128 128 128 128 128 128 128 128 128 128 128 128 128 128 128 128 128
128 128 128 128 128 128 128 128 128 128 128 128 128 128 128 128 128
128 128 128 128 128 128 128 128 128 128 128 128 128 128 128 128 128
128 128 128 128 128 128 128 128 128 128 128 128 128 128 128 128 128
128 128 128 128 128 128 128 128 128 128 128 128 128 128 128 128 128
128 128 128 128 128 128 128 128 128 128 128 128 128 128 128 128 128
128 128 128 128 128 128 128 128 128 128 128 128 128 128 128 128 128
128 128 128 128 128 128 128 128 128 128 128 128 128 128 128 128 128
128 128 128 128 128 128 128 128 128 128 128 128 128 128 128 128 128
128 128 128 128 128 128 128 128 128 128 128 128 128 128 128 128 128
128 128 128 128 128 128 128 128 128 128 128 128 128 128 128 128 128
128 128 128 128 128 128 128 128 128 128 128 128 128 128 128 128 128
128 128 128 128 128 128 128 128 128 128 128 128 128 128 128 128 128
128 128 128 128 128 128 128 128 128 128 128 128 128 128 128 128 128
128 128 128 128 128 128 128 128 128 128 128 128 128 128 128 128 128
128 128 128 128 128 128 128 128 128 128 128 188 188 188 188 188 188
188 188 188 188 188 188 188 188 188 188 188 188 188 188 188 188 188
188 188 188 188 188 188 188 188 188 188 188 188 188 188 188 188 188
188 188 188 188 188 188 188 188 188 188 188 188 188 188 188 188 188
188 188 188 188 188 188 188 188 188 188 188 188 188 188 188 188 188
188 188 188 188 188 188 188 188 188 188 188 188 188 188 188 188 188
188 188 188 188 188 188 188 188 188 188 188 188 188 188 188 188 188
188 188 188 188 188 188 188 188 188 188 188 188 188 188 188 188 188
188 188 188 188 188 188 188 188 188 188 188 188 188 188 188 188 188
188 188 188 188 188 188 188 188 188 188 188 188 188 188 188 188 188
188 188 188 188 188 188 188 188 188 188 188 188 188 188 188 188 188
188 188 188 188 188 188 188 188 188 188 188 188 188 188 188 188 188
188 188 188 188 188 188 188 188 188 188 188 188 188 188 188 188 188
188 188 188 188 188 188 188 188 188 188 188 188 188 188 188 188 188
188 188 188 188 188 188 188 188 188 188 188 188 188 188 188 188 188
188 188 188 188 188 188 188 188 188 188 188 188 188 188 188 188 188
188 188 188 188 188 188 188 188 188 188 188 188 188 188 188 188 188
188 188 188 188 188 188 188 188 188 188 188 188 188 188 188 188 188
188 188 188 188 188
0 0 0 255 255 255 0 0 0 255 255 255 0 0 0 255 255 255 0 0 0 255 255
255 0 0 0 255 255 255 0 0 0 255 255 255 0 0 0 255 255 255 0 0 0 255
255 255 0 0 0 255 255 255 0 0 0 255 255 255 0 0 0 255 255 255 0 0 0
255 255 255 0 0 0 255 255 255 0 0 0 255 255 255 0 0 0 255 255 255 0 0
0 255 255 255 0 0 0 255 255 255 0 0 0 255 255 255 0 0 0 255 255 255 0
0 0 255 255 255 0 0 0 255 255 255 0 0 0 255 255 255 0 0 0 255 255 255
0 0 0 255 255 255 0 0 0 255 255 255 0 0 0 255 255 255 0 0 0 255 255
255 0 0 0 255 255 255 0 0 0 255 255 255 0 0 0 255 255 255 0 0 0 255
255 255 0 0 0 255 255 255 0 0 0 255 255 255 0 0 0 255 255 255 0 0 0
255 255 255 0 0 0 255 255 255 0 0 0 255 255 255 0 0 0 255 255 255 0 0
0 255 255 255 0 0 0 255 255 255 0 0 0 255 255 255 0 0 0 255 255 255 0
0 0 255 255 255 0 0 0 255 255 255 0 0 0 255 255 255 0 0 0 255 255 255
0 0 0 255 255 255 0 0 0 255 255 255 0 0 0 255 255 255 0 0 0 255 255
255 128 128 128 128 128 128 128 128 128 128 128 128 128 128 128 128
128 128 128 128 128 128 128 128 128 128 128 128 128 128 128 128 128
128 128 128 128 128 128 128 128 128 128 128 128 128 128 128 128 128
128 128 128 128 128 128 128 128 128 128 128 128 128 128 128 128 128
128 128 128 128 128 128 128 128 128 128 128 128 128 128 128 128 128
128 128 128 128 128 128 128 128 128 128 128 128 128 128 128 128 128
128 128 128 128 128 128 128 128 128 128 128 128 128 128 128 128 128
128 128 128 128 128 128 128 128 128 128 128 128 128 128 128 128 128
128 128 128 128 128 128 128 128 128 128 128 128 128 128 128 128 128
128 128 128 128 128 128 128 128 128 128 128 128 128 128 128 128 128
128 128 128 128 128 128 128 128 128 128 128 128 128 128 128 128 128
128 128 128 128 128 128 128 128 128 128 128 128 128 128 128 128 128
128 128 128 128 128 128 128 128 128 128 128 128 128 128 128 128 128
128 128 128 128 128 128 128 128 128 128 128 128 128 128 128 128 128
128 128 128 128 128 128 128 128 128 128 128 128 128 128 128 128 128
128 128 128 128 128 128 128 128 128 128 128 128 128 128 128 128 128
128 128 128 128 128 128 128 128 128 128 128 128 128 128 128 128 128
128 128 128 128 128 128 128 128 128 128 128 128 188 188 188 188 188
188 188 188 188 188 188 188 188 188 188 188 188 188 188 188 188 188
188 188 188 188 188 188 188 188 188 188 188 188 188 188 188 188 188
188 188 188 188 188 188 188 188 188 188 188 188 188 188 188 188 188
188 188 188 188 188 188 188 188 188 188 188 188 188 188 188 188 188
188 188 188 188 188 188 188 188 188 188 188 188 188 188 188 188 188
188 188 188 188 188 188 188 188 188 188 188 188 188 188 188 188 188
188 188 188 188 188 188 188 188 188 188 188 188 188 188 188 188 188
188 188 188 188 188 188 188 188 188 188 188 188 188 188 188 188 188
188 188 188 188 188 188 188 188 188 188 188 188 188 188 188 188 188
188 188 188 188 188 188 188 188 188 188 188 188 188 188 188 188 188
188 188 188 188 188 188 188 188 188 188 188 188 188 188 188 188 188
188 188 188 188 188 188 188 188 188 188 188 188 188 188 188 188 188
188 188 188 188 188 188 188 188 188 188 188 188 188 188 188 188 188
188 188 188 188 188 188 188 188 188 188 188 188 188 188 188 188 188
188 188 188 188 188 188 188 188 188 188 188 188 188 188 188 188 188
188 188 188 188 188 188 188 188 188 188 188 188 188 188 188 188 188
188 188 188 188 188 188 188 188 188 188 188 188 188 188 188 188 188
188 188 188 188 188 188
255 255 255 0 0 0 255 255 255 0 0 0 255 255 255 0 0 0 255 255 255 0 0
0 255 255 255 0 0 0 255 255 255 0 0 0 255 255 255 0 0 0 255 255 255 0
0 0 255 255 255 0 0 0 255 255 255 0 0 0 255 255 255 0 0 0 255 255 255
0 0 0 255 255 255 0 0 0 255 255 255 0 0 0 255 255 255 0 0 0 255 255
255 0 0 0 255 255 255 0 0 0 255 255 255 0 0 0 255 255 255 0 0 0 255
255 255 0 0 0 255 255 255 0 0 0 255 255 255 0 0 0 255 255 255 0 0 0
255 255 255 0 0 0 255 255 255 0 0 0 255 255 255 0 0 0 255 255 255 0 0
0 255 255 255 0 0 0 255 255 255 0 0 0 255 255 255 0 0 0 255 255 255 0
0 0 255 255 255 0 0 0 255 255 255 0 0 0 255 255 255 0 0 0 255 255 255
0 0 0 255 255 255 0 0 0 255 255 255 0 0 0 255 255 255 0 0 0 255 255
255 0 0 0 255 255 255 0 0 0 255 255 255 0 0 0 255 255 255 0 0 0 255
255 255 0 0 0 255 255 255 0 0 0 255 255 255 0 0 0 255 255 255 0 0 0
255 255 255 0 0 0 255 255 255 0 0 0 255 255 255 0 0 0 255 255 255 0 0
0 128 128 128 128 128 128 128 128 128 128 128 128 128 128 128 128 128
128 128 128 128 128 128 128 128 128 128 128 128 128 128 128 128 128
128 128 128 128 128 128 128 128 128 128 128 128 128 128 128 128 128
128 128 128 128 128 128 128 128 128 128 128 128 128 128 128 128 128
128 128 128 128 128 128 128 128 128 128 128 128 128 128 128 128 128
128 128 128 128 128 128 128 128 128 128 128 128 128 128 128 128 128
128 128 128 128 128 128 128 128 128 128 128 128 128 128 128 128 128
128 128 128 128 128 128 128 128 128 128 128 128 128 128 128 128 128
128 128 128 128 128 128 128 128 128 128 128 128 128 128 128 128 128
128 128 128 128 128 128 128 128 128 128 128 128 128 128 128 128 128
128 128 128 128 128 128 128 128 128 128 128 128 128 128 128 128 128
128 128 128 128 128 128 128 128 128 128 128 128 128 128 128 128 128
128 128 128 128 128 128 128 128 128 128 128 128 128 128 128 128 128
128 128 128 128 128 128 128 128 128 128 128 128 128 128 128 128 128
128 128 128 128 128 128 128 128 128 128 128 128 128 128 128 128 128
128 128 128 128 128 128 128 128 128 128 128 128 128 128 128 128 128
128 128 128 128 128 128 128 128 128 128 128 128 128 128 128 128 128
128 128 128 128 128 128 128 128 128 128 128 188 188 188 188 188 188
188 188 188 188 188 188 188 188 188 188 188 188 188 188 188 188 188
188 188 188 188 188 188 188 188 188 188 188 188 188 188 188 188 188
188 188 188 188 188 188 188 188 188 188 188 188 188 188 188 188 188
188 188 188 188 188 188 188 188 188 188 188 188 188 188 188 188 188
188 188 188 188 188 188 188 188 188 188 188 188 188 188 188 188 188
188 188 188 188 188 188 188 188 188 188 188 188 188 188 188 188 188
188 188 188 188 188 188 188 188 188 188 188 188 188 188 188 188 188
188 188 188 188 188 188 188 188 188 188 188 188 188 188 188 188 188
188 188 188 188 188 188 188 188 188 188 188 188 188 188 188 188 188
188 188 188 188 188 188 188 188 188 188 188 188 188 188 188 188 188
188 188 188 188 188 188 188 188 188 188 188 188 188 188 188 188 188
188 188 188 188 188 188 188 188 188 188 188 188 188 188 188 188 188
188 188 188 188 188 188 188 188 188 188 188 188 188 188 188 188 188
188 188 188 188 188 188 188 188 188 188 188 188 188 188 188 188 188
188 188 188 188 188 188 188 188 188 188 188 188 188 188 188 188 188
188 188 188 188 188 188 188 188 188 188 188 188 188 188 188 188 188
188 188 188 188 188 188 188 188 188 188 188 188 188 188 188 188 188
188 188 188 188 188
0 0 0 255 255 255 0 0 0 255 255 255 0 0 0 255 255 255 0 0 0 255 255
255 0 0 0 255 255 255 0 0 0 255 255 255 0 0 0 255 255 255 0 0 0 255
255 255 0 0 0 255 255 255 0 0 0 255 255 255 0 0 0 255 255 255 0 0 0
255 255 255 0 0 0 255 255 255 0 0 0 255 255 255 0 0 0 255 255 255 0 0
0 255 255 255 0 0 0 255 255 255 0 0 0 255 255 255 0 0 0 255 255 255 0
0 0 255 255 255 0 0 0 255 255 255 0 0 0 255 255 255 0 0 0 255 255 255
0 0 0 255 255 255 0 0 0 255 255 255 0 0 0 255 255 255 0 0 0 255 255
255 0 0 0 255 255 255 0 0 0 255 255 255 0 0 0 255 255 255 0 0 0 255
255 255 0 0 0 255 255 255 0 0 0 255 255 255 0 0 0 255 255 255 0 0 0
255 255 255 0 0 0 255 255 255 0 0 0 255 255 255 0 0 0 255 255 255 0 0
0 255 255 255 0 0 0 255 255 255 0 0 0 255 255 255 0 0 0 255 255 255 0
0 0 255 255 255 0 0 0 255 255 255 0 0 0 255 255 255 0 0 0 255 255 255
0 0 0 255 255 255 0 0 0 255 255 255 0 0 0 255 255 255 0 0 0 255 255
255 128 128 128 128 128 128 128 128 128 128 128 128 128 128 128 128
128 128 128 128 128 128 128 128 128 128 128 128 128 128 128 128 128
128 128 128 128 128 128 128 128 128 128 128 128 128 128 128 128 128
128 128 128 128 128 128 128 128 128 128 128 128 128 128 128 128 128
128 128 128 128 128 128 128 128 128 128 128 128 128 128 128 128 128
128 128 128 128 128 128 128 128 128 128 128 128 128 128 128 128 128
128 128 128 128 128 128 128 128 128 128 128 128 128 128 128 128 128
128 128 128 128 128 128 128 128 128 128 128 128 128 128 128 128 128
128 128 128 128 128 128 128 128 128 128 128 128 128 128 128 128 128
128 128 128 128 128 128 128 128 128 128 128 128 128 128 128 128 128
128 128 128 128 128 128 128 128 128 128 128 128 128 128 128 128 128
128 128 128 128 128 128 128 128 128 128 128 128 128 128 128 128 128
128 128 128 128 128 128 128 128 128 128 128 128 128 128 128 128 128
128 128 128 128 128 128 128 128 128 128 128 128 128 128 128 128 128
128 128 128 128 128 128 128 128 128 128 128 128 128 128 128 128 128
128 128 128 128 128 128 128 128 128 128 128 128 128 128 128 128 128
128 128 128 128 128 128 128 128 128 128 128 128 128 128 128 128 128
128 128 128 128 128 128 128 128 128 128 128 128 188 188 188 188 188
188 188 188 188 188 188 188 188 188 188 188 188 188 188 188 188 188
188 188 188 188 188 188 188 188 188 188 188 188 188 188 188 188 188
188 188 188 188 188 188 188 188 188 188 188 188 188 188 188 188 188
188 188 188 188 188 188 188 188 188 188 188 188 188 188 188 188 188
188 188 188 188 188 188 188 188 188 188 188 188 188 188 188 188 188
188 188 188 188 188 188 188 188 188 188 188 188 188 188 188 188 188
188 188 188 188 188 188 188 188 188 188 188 188 188 188 188 188 188
188 188 188 188 188 188 188 188 188 188 188 188 188 188 188 188 188
188 188 188 188 188 188 188 188 188 188 188 188 188 188 188 188 188
188 188 188 188 188 188 188 188 188 188 188 188 188 188 188 188 188
188 188 188 188 188 188 188 188 188 188 188 188 188 188 188 188 188
188 188 188 188 188 188 188 188 188 188 188 188 188 188 188 188 188
188 188 188 188 188 188 188 188 188 188 188 188 188 188 188 188 188
188 188 188 188 188 188 188 188 188 188 188 188 188 188 188 188 188
188 188 188 188 188 188 188 188 188 188 188 188 188 188 188 188 188
188 188 188 188 188 188 188 188 188 188 188 188 188 188 188 188 188
188 188 188 188 188 188 188 188 188 188 188 188 188 188 188 188 188
188 188 188 188 188 188
255 255 255 0 0 0 255 255 255 0 0 0 255 255 255 0 0 0 255 255 255 0 0
0 255 255 255 0 0 0 255 255 255 0 0 0 255 255 255 0 0 0 255 255 255 0
0 0 255 255 255 0 0 0 255 255 255 0 0 0 255 255 255 0 0 0 255 255 255
0 0 0 255 255 255 0 0 0 255 255 255 0 0 0 255 255 255 0 0 0 255 255
255 0 0 0 255 255 255 0 0 0 255 255 255 0 0 0 255 255 255 0 0 0 255
255 255 0 0 0 255 255 255 0 0 0 255 255 255 0 0 0 255 255 255 0 0 0
255 255 255 0 0 0 255 255 255 0 0 0 255 255 255 0 0 0 255 255 255 0 0
0 255 255 255 0 0 0 255 255 255 0 0 0 255 255 255 0 0 0 255 255 255 0
0 0 255 255 255 0 0 0 255 255 255 0 0 0 255 255 255 0 0 0 255 255 255
0 0 0 255 255 255 0 0 0 255 255 255 0 0 0 255 255 255 0 0 0 255 255
255 0 0 0 255 255 255 0 0 0 255 255 255 0 0 0 255 255 255 0 0 0 255
255 255 0 0 0 255 255 255 0 0 0 255 255 255 0 0 0 255 255 255 0 0 0
255 255 255 0 0 0 255 255 255 0 0 0 255 255 255 0 0 0 255 255 255 0 0
0 128 128 128 128 128 128 128 128 128 128 128 128 128 128 128 128 128
128 128 128 128 128 128 128 128 128 128 128 128 128 128 128 128 128
128 128 128 128 128 128 128 128 128 128 128 128 128 128 128 128 128
128 128 128 128 128 128 128 128 128 128 128 128 128 128 128 128 128
128 128 128 128 128 128 128 128 128 128 128 128 128 128 128 128 128
128 128 128 128 128 128 128 128 128 128 128 128 128 128 128 128 128
128 128 128 128 128 128 128 128 128 128 128 128 128 128 128 128 128
128 128 128 128 128 128 128 128 128 128 128 128 128 128 128 128 128
128 128 128 128 128 128 128 128 128 128 128 128 128 128 128 128 128
128 128 128 128 128 128 128 128 128 128 128 128 128 128 128 128 128
128 128 128 128 128 128 128 128 128 128 128 128 128 128 128 128 128
128 128 128 128 128 128 128 128 128 128 128 128 128 128 128 128 128
128 128 128 128 128 128 128 128 128 128 128 128 128 128 128 128 128
128 128 128 128 128 128 128 128 128 128 128 128 128 128 128 128 128
128 128 128 128 128 128 128 128 128 128 128 128 128 128 128 128 128
128 128 128 128 128 128 128 128 128 128 128 128 128 128 128 128 128
128 128 128 128 128 128 128 128 128 128 128 128 128 128 128 128 128
128 128 128 128 128 128 128 128 128 128 128 188 188 188 188 188 188
188 188 188 188 188 188 188 188 188 188 188 188 188 188 188 188 188
188 188 188 188 188 188 188 188 188 188 188 188 188 188 188 188 188
188 188 188 188 188 188 188 188 188 188 188 188 188 188 188 188 188
188 188 188 188 188 188 188 188 188 188 188 188 188 188 188 188 188
188 188 188 188 188 188 188 188 188 188 188 188 188 188 188 188 188
188 188 188 188 188 188 188 188 188 188 188 188 188 188 188 188 188
188 188 188 188 188 188 188 188 188 188 188 188 188 188 188 188 188
188 188 188 188 188 188 188 188 188 188 188 188 188 188 188 188 188
188 188 188 188 188 188 188 188 188 188 188 188 188 188 188 188 188
188 188 188 188 188 188 188 188 188 188 188 188 188 188 188 188 188
188 188 188 188 188 188 188 188 188 188 188 188 188 188 188 188 188
188 188 188 188 188 188 188 188 188 188 188 188 188 188 188 188 188
188 188 188 188 188 188 188 188 188 188 188 188 188 188 188 188 188
188 188 188 188 188 188 188 188 188 188 188 188 188 188 188 188 188
188 188 188 188 188 188 188 188 188 188 188 188 188 188 188 188 188
188 188 188 188 188 188 188 188 188 188 188 188 188 188 188 188 188
188 188 188 188 188 188 188 188 188 188 188 188 188 188 188 188 188
188 188 188 188 188
0 0 0 255 255 255 0 0 0 255 255 255 0 0 0 255 255 255 0 0 0 255 255
255 0 0 0 255 255 255 0 0 0 255 255 255 0 0 0 255 255 255 0 0 0 255
255 255 0 0 0 255 255 255 0 0 0 255 255 255 0 0 0 255 255 255 0 0 0
255 255 255 0 0 0 255 255 255 0 0 0 255 255 255 0 0 0 255 255 255 0 0
0 255 255 255 0 0 0 255 255 255 0 0 0 255 255 255 0 0 0 255 255 255 0
0 0 255 255 255 0 0 0 255 255 255 0 0 0 255 255 255 0 0 0 255 255 255
0 0 0 255 255 255 0 0 0 255 255 255 0 0 0 255 255 255 0 0 0 255 255
255 0 0 0 255 255 255 0 0 0 255 255 255 0 0 0 255 255 255 0 0 0 255
255 255 0 0 0 255 255 255 0 0 0 255 255 255 0 0 0 255 255 255 0 0 0
255 255 255 0 0 0 255 255 255 0 0 0 255 255 255 0 0 0 255 255 255 0 0
0 255 255 255 0 0 0 255 255 255 0 0 0 255 255 255 0 0 0 255 255 255 0
0 0 255 255 255 0 0 0 255 255 255 0 0 0 255 255 255 0 0 0 255 255 255
0 0 0 255 255 255 0 0 0 255 255 255 0 0 0 255 255 255 0 0 0 255 255
255 128 128 128 128 128 128 128 128 128 128 128 128 128 128 128 128
128 128 128 128 128 128 128 128 128 128 128 128 128 128 128 128 128
128 128 128 128 128 128 128 128 128 128 128 128 128 128 128 128 128
128 128 128 128 128 128 128 128 128 128 128 128 128 128 128 128 128
128 128 128 128 128 128 128 128 128 128 128 128 128 128 128 128 128
128 128 128 128 128 128 128 128 128 128 128 128 128 128 128 128 128
128 128 128 128 128 128 128 128 128 128 128 128 128 128 128 128 128
128 128 128 128 128 128 128 128 128 128 128 128 128 128 128 128 128
128 128 128 128 128 128 128 128 128 128 128 128 128 128 128 128 128
128 128 128 128 128 128 128 128 128 128 128 128 128 128 128 128 128
128 128 128 128 128 128 128 128 128 128 128 128 128 128 128 128 128
128 128 128 128 128 128 128 128 128 128 128 128 128 128 128 128 128
128 128 128 128 128 128 128 128 128 128 128 128 128 128 128 128 128
128 128 128 128 128 128 128 128 128 128 128 128 128 128 128 128 128
128 128 128 128 128 128 128 128 128 128 128 128 128 128 128 128 128
128 128 128 128 128 128 128 128 128 128 128 128 128 128 128 128 128
128 128 128 128 128 128 128 128 128 128 128 128 128 128 128 128 128
128 128 128 128 128 128 128 128 128 128 128 128 188 188 188 188 188
188 188 188 188 188 188 188 188 188 188 188 188 188 188 188 188 188
188 188 188 188 188 188 188 188 188 188 188 188 188 188 188 188 188
188 188 188 188 188 188 188 188 188 188 188 188 188 188 188 188 188
188 188 188 188 188 188 188 188 188 188 188 188 188 188 188 188 188
188 188 188 188 188 188 188 188 188 188 188 188 188 188 188 188 188
188 188 188 188 188 188 188 188 188 188 188 188 188 188 188 188 188
188 188 188 188 188 188 188 188 188 188 188 188 188 188 188 188 188
188 188 188 188 188 188 188 188 188 188 188 188 188 188 188 188 188
188 188 188 188 188 188 188 188 188 188 188 188 188 188 188 188 188
188 188 188 188 188 188 188 188 188 188 188 188 188 188 188 188 188
188 188 188 188 188 188 188 188 188 188 188 188 188 188 188 188 188
188 188 188 188 188 188 188 188 188 188 188 188 188 188 188 188 188
188 188 188 188 188 188 188 188 188 188 188 188 188 188 188 188 188
188 188 188 188 188 188 188 188 188 188 188 188 188 188 188 188 188
188 188 188 188 188 188 188 188 188 188 188 188 188 188 188 188 188
188 188 188 188 188 188 188 188 188 188 188 188 188 188 188 188 188
188 188 188 188 188 188 188 188 188 188 188 188 188 188 188 188 188
188 188 188 188 188 188
255 255 255 0 0 0 255 255 255 0 0 0 255 255 255 0 0 0 255 255 255 0 0
0 255 255 255 0 0 0 255 255 255 0 0 0 255 255 255 0 0 0 255 255 255 0
0 0 255 255 255 0 0 0 255 255 255 0 0 0 255 255 255 0 0 0 255 255 255
0 0 0 255 255 255 0 0 0 255 255 255 0 0 0 255 255 255 0 0 0 255 255
255 0 0 0 255 255 255 0 0 0 255 255 255 0 0 0 255 255 255 0 0 0 255
255 255 0 0 0 255 255 255 0 0 0 255 255 255 0 0 0 255 255 255 0 0 0
255 255 255 0 0 0 255 255 255 0 0 0 255 255 255 0 0 0 255 255 255 0 0
0 255 255 255 0 0 0 255 255 255 0 0 0 255 255 255 0 0 0 255 255 255 0
0 0 255 255 255 0 0 0 255 255 255 0 0 0 255 255 255 0 0 0 255 255 255
0 0 0 255 255 255 0 0 0 255 255 255 0 0 0 255 255 255 0 0 0 255 255
255 0 0 0 255 255 255 0 0 0 255 255 255 0 0 0 255 255 255 0 0 0 255
255 255 0 0 0 255 255 255 0 0 0 255 255 255 0 0 0 255 255 255 0 0 0
255 255 255 0 0 0 255 255 255 0 0 0 255 255 255 0 0 0 255 255 255 0 0
0 128 128 128 128 128 128 128 128 128 128 128 128 128 128 128 128 128
128 128 128 128 128 128 128 128 128 128 128 128 128 128 128 128 128
128 128 128 128 128 128 128 128 128 128 128 128 128 128 128 128 128
128 128 128 128 128 128 128 128 128 128 128 128 128 128 128 128 128
128 128 128 128 128 128 128 128 128 128 128 128 128 128 128 128 128
128 128 128 128 128 128 128 128 128 128 128 128 128 128 128 128 128
128 128 128 128 128 128 128 128 128 128 128 128 128 128 128 128 128
128 128 128 128 128 128 128 128 128 128 128 128 128 128 128 128 128
128 128 128 128 128 128 128 128 128 128 128 128 128 128 128 128 128
128 128 128 128 128 128 128 128 128 128 128 128 128 128 128 128 128
128 128 128 128 128 128 128 128 128 128 128 128 128 128 128 128 128
128 128 128 128 128 128 128 128 128 128 128 128 128 128 128 128 128
128 128 128 128 128 128 128 128 128 128 128 128 128 128 128 128 128
128 128 128 128 128 128 128 128 128 128 128 128 128 128 128 128 128
128 128 128 128 128 128 128 128 128 128 128 128 128 128 128 128 128
128 128 128 128 128 128 128 128 128 128 128 128 128 128 128 128 128
128 128 128 128 128 128 128 128 128 128 128 128 128 128 128 128 128
128 128 128 128 128 128 128 128 128 128 128 188 188 188 188 188 188
188 188 188 188 188 188 188 188 188 188 188 188 188 188 188 188 188
188 188 188 188 188 188 188 188 188 188 188 188 188 188 188 188 188
188 188 188 188 188 188 188 188 188 188 188 188 188 188 188 188 188
188 188 188 188 188 188 188 188 188 188 188 188 188 188 188 188 188
188 188 188 188 188 188 188 188 188 188 188 188 188 188 188 188 188
188 188 188 188 188 188 188 188 188 188 188 188 188 188 188 188 188
188 188 188 188 188 188 188 188 188 188 188 188 188 188 188 188 188
188 188 188 188 188 188 188 188 188 188 188 188 188 188 188 188 188
188 188 188 188 188 188 188 188 188 188 188 188 188 188 188 188 188
188 188 188 188 188 188 188 188 188 188 188 188 188 188 188 188 188
188 188 188 188 188 188 188 188 188 188 188 188 188 188 188 188 188
188 188 188 188 188 188 188 188 188 188 188 188 188 188 188 188 188
188 188 188 188 188 188 188 188 188 188 188 188 188 188 188 188 188
188 188 188 188 188 188 188 188 188 188 188 188 188 188 188 188 188
188 188 188 188 188 188 188 188 188 188 188 188 188 188 188 188 188
188 188 188 188 188 188 188 188 188 188 188 188 188 188 188 188 188
188 188 188 188 188 188 188 188 188 188 188 188 188 188 188 188 188
188 188 188 188 188
0 0 0 255 255 255 0 0 0 255 255 255 0 0 0 255 255 255 0 0 0 255 255
255 0 0 0 255 255 255 0 0 0 255 255 255 0 0 0 255 255 255 0 0 0 255
255 255 0 0 0 255 255 255 0 0 0 255 255 255 0 0 0 255 255 255 0 0 0
255 255 255 0 0 0 255 255 255 0 0 0 255 255 255 0 0 0 255 255 255 0 0
0 255 255 255 0 0 0 255 255 255 0 0 0 255 255 255 0 0 0 255 255 255 0
0 0 255 255 255 0 0 0 255 255 255 0 0 0 255 255 255 0 0 0 255 255 255
0 0 0 255 255 255 0 0 0 255 255 255 0 0 0 255 255 255 0 0 0 255 255
255 0 0 0 255 255 255 0 0 0 255 255 255 0 0 0 255 255 255 0 0 0 255
255 255 0 0 0 255 255 255 0 0 0 255 255 255 0 0 0 255 255 255 0 0 0
255 255 255 0 0 0 255 255 255 0 0 0 255 255 255 0 0 0 255 255 255 0 0
0 255 255 255 0 0 0 255 255 255 0 0 0 255 255 255 0 0 0 255 255 255 0
0 0 255 255 255 0 0 0 255 255 255 0 0 0 255 255 255 0 0 0 255 255 255
0 0 0 255 255 255 0 0 0 255 255 255 0 0 0 255 255 255 0 0 0 255 255
255 128 128 128 128 128 128 128 128 128 128 128 128 128 128 128 128
128 128 128 128 128 128 128 128 128 128 128 128 128 128 128 128 128
128 128 128 128 128 128 128 128 128 128 128 128 128 128 128 128 128
128 128 128 128 128 128 128 128 128 128 128 128 128 128 128 128 128
128 128 128 128 128 128 128 128 128 128 128 128 128 128 128 128 128
128 128 128 128 128 128 128 128 128 128 128 128 128 128 128 128 128
128 128 128 128 128 128 128 128 128 128 128 128 128 128 128 128 128
128 128 128 128 128 128 128 128 128 128 128 128 128 128 128 128 128
128 128 128 128 128 128 128 128 128 128 128 128 128 128 128 128 128
128 128 128 128 128 128 128 128 128 128 128 128 128 128 128 128 128
128 128 128 128 128 128 128 128 128 128 128 128 128 128 128 128 128
128 128 128 128 128 128 128 128 128 128 128 128 128 128 128 128 128
128 128 128 128 128 128 128 128 128 128 128 128 128 128 128 128 128
128 128 128 128 128 128 128 128 128 128 128 128 128 128 128 128 128
128 128 128 128 128 128 128 128 128 128 128 128 128 128 128 128 128
128 128 128 128 128 128 128 128 128 128 128 128 128 128 128 128 128
128 128 128 128 128 128 128 128 128 128 128 128 128 128 128 128 128
128 128 128 128 128 128 128 128 128 128 128 128 188 188 188 188 188
188 188 188 188 188 188 188 188 188 188 188 188 188 188 188 188 188
188 188 188 188 188 188 188 188 188 188 188 188 188 188 188 188 188
188 188 188 188 188 188 188 188 188 188 188 188 188 188 188 188 188
188 188 188 188 188 188 188 188 188 188 188 188 188 188 188 188 188
188 188 188 188 188 188 188 188 188 188 188 188 188 188 188 188 188
188 188 188 188 188 188 188 188 188 188 188 188 188 188 188 188 188
188 188 188 188 188 188 188 188 188 188 188 188 188 188 188 188 188
188 188 188 188 188 188 188 188 188 188 188 188 188 188 188 188 188
188 188 188 188 188 188 188 188 188 188 188 188 188 188 188 188 188
188 188 188 188 188 188 188 188 188 188 188 188 188 188 188 188 188
188 188 188 188 188 188 188 188 188 188 188 188 188 188 188 188 188
188 188 188 188 188 188 188 188 188 188 188 188 188 188 188 188 188
188 188 188 188 188 188 188 188 188 188 188 188 188 188 188 188 188
188 188 188 188 188 188 188 188 188 188 188 188 188 188 188 188 188
188 188 188 188 188 188 188 188 188 188 188 188 188 188 188 188 188
188 188 188 188 188 188 188 188 188 188 188 188 188 188 188 188 188
188 188 188 188 188 188 188 188 188 188 188 188 188 188 188 188 188
188 188 188 188 188 188
255 255 255 0 0 0 255 255 255 0 0 0 255 255 255 0 0 0 255 255 255 0 0
0 255 255 255 0 0 0 255 255 255 0 0 0 255 255 255 0 0 0 255 255 255 0
0 0 255 255 255 0 0 0 255 255 255 0 0 0 255 255 255 0 0 0 255 255 255
0 0 0 255 255 255 0 0 0 255 255 255 0 0 0 255 255 255 0 0 0 255 255
255 0 0 0 255 255 255 0 0 0 255 255 255 0 0 0 255 255 255 0 0 0 255
255 255 0 0 0 255 255 255 0 0 0 255 255 255 0 0 0 255 255 255 0 0 0
255 255 255 0 0 0 255 255 255 0 0 0 255 255 255 0 0 0 255 255 255 0 0
0 255 255 255 0 0 0 255 255 255 0 0 0 255 255 255 0 0 0 255 255 255 0
0 0 255 255 255 0 0 0 255 255 255 0 0 0 255 255 255 0 0 0 255 255 255
0 0 0 255 255 255 0 0 0 255 255 255 0 0 0 255 255 255 0 0 0 255 255
255 0 0 0 255 255 255 0 0 0 255 255 255 0 0 0 255 255 255 0 0 0 255
255 255 0 0 0 255 255 255 0 0 0 255 255 255 0 0 0 255 255 255 0 0 0
255 255 255 0 0 0 255 255 255 0 0 0 255 255 255 0 0 0 255 255 255 0 0
0 128 128 128 128 128 128 128 128 128 128 128 128 128 128 128 128 128
128 128 128 128 128 128 128 128 128 128 128 128 128 128 128 128 128
128 128 128 128 128 128 128 128 128 128 128 128 128 128 128 128 128
128 128 128 128 128 128 128 128 128 128 128 128 128 128 128 128 128
128 128 128 128 128 128 128 128 128 128 128 128 128 128 128 128 128
128 128 128 128 128 128 128 128 128 128 128 128 128 128 128 128 128
128 128 128 128 128 128 128 128 128 128 128 128 128 128 128 128 128
128 128 128 128 128 128 128 128 128 128 128 128 128 128 128 128 128
128 128 128 128 128 128 128 128 128 128 128 128 128 128 128 128 128
128 128 128 128 128 128 128 128 128 128 128 128 128 128 128 128 128
128 128 128 128 128 128 128 128 128 128 128 128 128 128 128 128 128
128 128 128 128 128 128 128 128 128 128 128 128 128 128 128 128 128
128 128 128 128 128 128 128 128 128 128 128 128 128 128 128 128 128
128 128 128 128 128 128 128 128 128 128 128 128 128 128 128 128 128
128 128 128 128 128 128 128 128 128 128 128 128 128 128 128 128 128
128 128 128 128 128 128 128 128 128 128 128 128 128 128 128 128 128
128 128 128 128 128 128 128 128 128 128 128 128 128 128 128 128 128
128 128 128 128 128 128 128 128 128 128 128 188 188 188 188 188 188
188 188 188 188 188 188 188 188 188 188 188 188 188 188 188 188 188
188 188 188 188 188 188 188 188 188 188 188 188 188 188 188 188 188
188 188 188 188 188 188 188 188 188 188 188 188 188 188 188 188 188
188 188 188 188 188 188 188 188 188 188 188 188 188 188 188 188 188
188 188 188 188 188 188 188 188 188 188 188 188 188 188 188 188 188
188 188 188 188 188 188 188 188 188 188 188 188 188 188 188 188 188
188 188 188 188 188 188 188 188 188 188 188 188 188 188 188 188 188
188 188 188 188 188 188 188 188 188 188 188 188 188 188 188 188 188
188 188 188 188 188 188 188 188 188 188 188 188 188 188 188 188 188
188 188 188 188 188 188 188 188 188 188 188 188 188 188 188 188 188
188 188 188 188 188 188 188 188 188 188 188 188 188 188 188 188 188
188 188 188 188 188 188 188 188 188 188 188 188 188 188 188 188 188
188 188 188 188 188 188 188 188 188 188 188 188 188 188 188 188 188
188 188 188 188 188 188 188 188 188 188 188 188 188 188 188 188 188
188 188 188 188 188 188 188 188 188 188 188 188 188 188 188 188 188
188 188 188 188 188 188 188 188 188 188 188 188 188 188 188 188 188
188 188 188 188 188 188 188 188 188 188 188 188 188 188 188 188 188
188 188 188 188 188
0 0 0 255 255 255 0 0 0 255 255 255 0 0 0 255 255 255 0 0 0 255 255
255 0 0 0 255 255 255 0 0 0 255 255 255 0 0 0 255 255 255 0 0 0 255
255 255 0 0 0 255 255 255 0 0 0 255 255 255 0 0 0 255 255 255 0 0 0
255 255 255 0 0 0 255 255 255 0 0 0 255 255 255 0 0 0 255 255 255 0 0
0 255 255 255 0 0 0 255 255 255 0 0 0 255 255 255 0 0 0 255 255 255 0
0 0 255 255 255 0 0 0 255 255 255 0 0 0 255 255 255 0 0 0 255 255 255
0 0 0 255 255 255 0 0 0 255 255 255 0 0 0 255 255 255 0 0 0 255 255
255 0 0 0 255 255 255 0 0 0 255 255 255 0 0 0 255 255 255 0 0 0 255
255 255 0 0 0 255 255 255 0 0 0 255 255 255 0 0 0 255 255 255 0 0 0
255 255 255 0 0 0 255 255 255 0 0 0 255 255 255 0 0 0 255 255 255 0 0
0 255 255 255 0 0 0 255 255 255 0 0 0 255 255 255 0 0 0 255 255 255 0
0 0 255 255 255 0 0 0 255 255 255 0 0 0 255 255 255 0 0 0 255 255 255
0 0 0 255 255 255 0 0 0 255 255 255 0 0 0 255 255 255 0 0 0 255 255
255 128 128 128 128 128 128 128 128 128 128 128 128 128 128 128 128
128 128 128 128 128 128 128 128 128 128 128 128 128 128 128 128 128
128 128 128 128 128 128 128 128 128 128 128 128 128 128 128 128 128
128 128 128 128 128 128 128 128 128 128 128 128 128 128 128 128 128
128 128 128 128 128 128 128 128 128 128 128 128 128 128 128 128 128
128 128 128 128 128 128 128 128 128 128 128 128 128 128 128 128 128
128 128 128 128 128 128 128 128 128 128 128 128 128 128 128 128 128
128 128 128 128 128 128 128 128 128 128 128 128 128 128 128 128 128
128 128 128 128 128 128 128 128 128 128 128 128 128 128 128 128 128
128 128 128 128 128 128 128 128 128 128 128 128 128 128 128 128 128
128 128 128 128 128 128 128 128 128 128 128 128 128 128 128 128 128
128 128 128 128 128 128 128 128 128 128 128 128 128 128 128 128 128
128 128 128 128 128 128 128 128 128 128 128 128 128 128 128 128 128
128 128 128 128 128 128 128 128 128 128 128 128 128 128 128 128 128
128 128 128 128 128 128 128 128 128 128 128 128 128 128 128 128 128
128 128 128 128 128 128 128 128 128 128 128 128 128 128 128 128 128
128 128 128 128 128 128 128 128 128 128 128 128 128 128 128 128 128
128 128 128 128 128 128 128 128 128 128 128 128 188 188 188 188 188
188 188 188 188 188 188 188 188 188 188 188 188 188 188 188 188 188
188 188 188 188 188 188 188 188 188 188 188 188 188 188 188 188 188
188 188 188 188 188 188 188 188 188 188 188 188 188 188 188 188 188
188 188 188 188 188 188 188 188 188 188 188 188 188 188 188 188 188
188 188 188 188 188 188 188 188 188 188 188 188 188 188 188 188 188
188 188 188 188 188 188 188 188 188 188 188 188 188 188 188 188 188
188 188 188 188 188 188 188 188 188 188 188 188 188 188 188 188 188
188 188 188 188 188 188 188 188 188 188 188 188 188 188 188 188 188
188 188 188 188 188 188 188 188 188 188 188 188 188 188 188 188 188
188 188 188 188 188 188 188 188 188 188 188 188 188 188 188 188 188
188 188 188 188 188 188 188 188 188 188 188 188 188 188 188 188 188
188 188 188 188 188 188 188 188 188 188 188 188 188 188 188 188 188
188 188 188 188 188 188 188 188 188 188 188 188 188 188 188 188 188
188 188 188 188 188 188 188 188 188 188 188 188 188 188 188 188 188
188 188 188 188 188 188 188 188 188 188 188 188 188 188 188 188 188
188 188 188 188 188 188 188 188 188 188 188 188 188 188 188 188 188
188 188 188 188 188 188 188 188 188 188 188 188 188 188 188 188 188
188 188 188 188 188 188
255 255 255 0 0 0 255 255 255 0 0 0 255 255 255 0 0 0 255 255 255 0 0
0 255 255 255 0 0 0 255 255 255 0 0 0 255 255 255 0 0 0 255 255 255 0
0 0 255 255 255 0 0 0 255 255 255 0 0 0 255 255 255 0 0 0 255 255 255
0 0 0 255 255 255 0 0 0 255 255 255 0 0 0 255 255 255 0 0 0 255 255
255 0 0 0 255 255 255 0 0 0 255 255 255 0 0 0 255 255 255 0 0 0 255
255 255 0 0 0 255 255 255 0 0 0 255 255 255 0 0 0 255 255 255 0 0 0
255 255 255 0 0 0 255 255 255 0 0 0 255 255 255 0 0 0 255 255 255 0 0
0 255 255 255 0 0 0 255 255 255 0 0 0 255 255 255 0 0 0 255 255 255 0
0 0 255 255 255 0 0 0 255 255 255 0 0 0 255 255 255 0 0 0 255 255 255
0 0 0 255 255 255 0 0 0 255 255 255 0 0 0 255 255 255 0 0 0 255 255
255 0 0 0 255 255 255 0 0 0 255 255 255 0 0 0 255 255 255 0 0 0 255
255 255 0 0 0 255 255 255 0 0 0 255 255 255 0 0 0 255 255 255 0 0 0
255 255 255 0 0 0 255 255 255 0 0 0 255 255 255 0 0 0 255 255 255 0 0
0 128 128 128 128 128 128 128 128 128 128 128 128 128 128 128 128 128
128 128 128 128 128 128 128 128 128 128 128 128 128 128 128 128 128
128 128 128 128 128 128 128 128 128 128 128 128 128 128 128 128 128
128 128 128 128 128 128 128 128 128 128 128 128 128 128 128 128 128
128 128 128 128 128 128 128 128 128 128 128 128 128 128 128 128 128
128 128 128 128 128 128 128 128 128 128 128 128 128 128 128 128 128
128 128 128 128 128 128 128 128 128 128 128 128 128 128 128 128 128
128 128 128 128 128 128 128 128 128 128 128 128 128 128 128 128 128
128 128 128 128 128 128 128 128 128 128 128 128 128 128 128 128 128
128 128 128 128 128 128 128 128 128 128 128 128 128 128 128 128 128
128 128 128 128 128 128 128 128 128 128 128 128 128 128 128 128 128
128 128 128 128 128 128 128 128 128 128 128 128 128 128 128 128 128
128 128 128 128 128 128 128 128 128 128 128 128 128 128 128 128 128
128 128 128 128 128 128 128 128 128 128 128 128 128 128 128 128 128
128 128 128 128 128 128 128 128 128 128 128 128 128 128 128 128 128
128 128 128 128 128 128 128 128 128 128 128 128 128 128 128 128 128
128 128 128 128 128 128 128 128 128 128 128 128 128 128 128 128 128
128 128 128 128 128 128 128 128 128 128 128 188 188 188 188 188 188
188 188 188 188 188 188 188 188 188 188 188 188 188 188 188 188 188
188 188 188 188 188 188 188 188 188 188 188 188 188 188 188 188 188
188 188 188 188 188 188 188 188 188 188 188 188 188 188 188 188 188
188 188 188 188 188 188 188 188 188 188 188 188 188 188 188 188 188
188 188 188 188 188 188 188 188 188 188 188 188 188 188 188 188 188
188 188 188 188 188 188 188 188 188 188 188 188 188 188 188 188 188
188 188 188 188 188 188 188 188 188 188 188 188 188 188 188 188 188
188 188 188 188 188 188 188 188 188 188 188 188 188 188 188 188 188
188 188 188 188 188 188 188 188 188 188 188 188 188 188 188 188 188
188 188 188 188 188 188 188 188 188 188 188 188 188 188 188 188 188
188 188 188 188 188 188 188 188 188 188 188 188 188 188 188 188 188
188 188 188 188 188 188 188 188 188 188 188 188 188 188 188 188 188
188 188 188 188 188 188 188 188 188 188 188 188 188 188 188 188 188
188 188 188 188 188 188 188 188 188 188 188 188 188 188 188 188 188
188 188 188 188 188 188 188 188 188 188 188 188 188 188 188 188 188
188 188 188 188 188 188 188 188 188 188 188 188 188 188 188 188 188
188 188 188 188 188 188 188 188 188 188 188 188 188 188 188 188 188
188 188 188 188 188
0 0 0 255 255 255 0 0 0 255 255 255 0 0 0 255 255 255 0 0 0 255 255
255 0 0 0 255 255 255 0 0 0 255 255 255 0 0 0 255 255 255 0 0 0 255
255 255 0 0 0 255 255 255 0 0 0 255 255 255 0 0 0 255 255 255 0 0 0
255 255 255 0 0 0 255 255 255 0 0 0 255 255 255 0 0 0 255 255 255 0 0
0 255 255 255 0 0 0 255 255 255 0 0 0 255 255 255 0 0 0 255 255 255 0
0 0 255 255 255 0 0 0 255 255 255 0 0 0 255 255 255 0 0 0 255 255 255
0 0 0 255 255 255 0 0 0 255 255 255 0 0 0 255 255 255 0 0 0 255 255
255 0 0 0 255 255 255 0 0 0 255 255 255 0 0 0 255 255 255 0 0 0 255
255 255 0 0 0 255 255 255 0 0 0 255 255 255 0 0 0 255 255 255 0 0 0
255 255 255 0 0 0 255 255 255 0 0 0 255 255 255 0 0 0 255 255 255 0 0
0 255 255 255 0 0 0 255 255 255 0 0 0 255 255 255 0 0 0 255 255 255 0
0 0 255 255 255 0 0 0 255 255 255 0 0 0 255 255 255 0 0 0 255 255 255
0 0 0 255 255 255 0 0 0 255 255 255 0 0 0 255 255 255 0 0 0 255 255
255 128 128 128 128 128 128 128 128 128 128 128 128 128 128 128 128
128 128 128 128 128 128 128 128 128 128 128 128 128 128 128 128 128
128 128 128 128 128 128 128 128 128 128 128 128 128 128 128 128 128
128 128 128 128 128 128 128 128 128 128 128 128 128 128 128 128 128
128 128 128 128 128 128 128 128 128 128 128 128 128 128 128 128 128
128 128 128 128 128 128 128 128 128 128 128 128 128 128 128 128 128
128 128 128 128 128 128 128 128 128 128 128 128 128 128 128 128 128
128 128 128 128 128 128 128 128 128 128 128 128 128 128 128 128 128
128 128 128 128 128 128 128 128 128 128 128 128 128 128 128 128 128
128 128 128 128 128 128 128 128 128 128 128 128 128 128 128 128 128
128 128 128 128 128 128 128 128 128 128 128 128 128 128 128 128 128
128 128 128 128 128 128 128 128 128 128 128 128 128 128 128 128 128
128 128 128 128 128 128 128 128 128 128 128 128 128 128 128 128 128
128 128 128 128 128 128 128 128 128 128 128 128 128 128 128 128 128
128 128 128 128 128 128 128 128 128 128 128 128 128 128 128 128 128
128 128 128 128 128 128 128 128 128 128 128 128 128 128 128 128 128
128 128 128 128 128 128 128 128 128 128 128 128 128 128 128 128 128
128 128 128 128 128 128 128 128 128 128 128 128 188 188 188 188 188
188 188 188 188 188 188 188 188 188 188 188 188 188 188 188 188 188
188 188 188 188 188 188 188 188 188 188 188 188 188 188 188 188 188
188 188 188 188 188 188 188 188 188 188 188 188 188 188 188 188 188
188 188 188 188 188 188 188 188 188 188 188 188 188 188 188 188 188
188 188 188 188 188 188 188 188 188 188 188 188 188 188 188 188 188
188 188 188 188 188 188 188 188 188 188 188 188 188 188 188 188 188
188 188 188 188 188 188 188 188 188 188 188 188 188 188 188 188 188
188 188 188 188 188 188 188 188 188 188 188 188 188 188 188 188 188
188 188 188 188 188 188 188 188 188 188 188 188 188 188 188 188 188
188 188 188 188 188 188 188 188 188 188 188 188 188 188 188 188 188
188 188 188 188 188 188 188 188 188 188 188 188 188 188 188 188 188
188 188 188 188 188 188 188 188 188 188 188 188 188 188 188 188 188
188 188 188 188 188 188 188 188 188 188 188 188 188 188 188 188 188
188 188 188 188 188 188 188 188 188 188 188 188 188 188 188 188 188
188 188 188 188 188 188 188 188 188 188 188 188 188 188 188 188 188
188 188 188 188 188 188 188 188 188 188 188 188 188 188 188 188 188
188 188 188 188 188 188 188 188 188 188 188 188 188 188 188 188 188
188 188 188 188 188 188
255 255 255 0 0 0 255 255 255 0 0 0 255 255 255 0 0 0 255 255 255 0 0
0 255 255 255 0 0 0 255 255 255 0 0 0 255 255 255 0 0 0 255 255 255 0
0 0 255 255 255 0 0 0 255 255 255 0 0 0 255 255 255 0 0 0 255 255 255
0 0 0 255 255 255 0 0 0 255 255 255 0 0 0 255 255 255 0 0 0 255 255
255 0 0 0 255 255 255 0 0 0 255 255 255 0 0 0 255 255 255 0 0 0 255
255 255 0 0 0 255 255 255 0 0 0 255 255 255 0 0 0 255 255 255 0 0 0
255 255 255 0 0 0 255 255 255 0 0 0 255 255 255 0 0 0 255 255 255 0 0
0 255 255 255 0 0 0 255 255 255 0 0 0 255 255 255 0 0 0 255 255 255 0
0 0 255 255 255 0 0 0 255 255 255 0 0 0 255 255 255 0 0 0 255 255 255
0 0 0 255 255 255 0 0 0 255 255 255 0 0 0 255 255 255 0 0 0 255 255
255 0 0 0 255 255 255 0 0 0 255 255 255 0 0 0 255 255 255 0 0 0 255
255 255 0 0 0 255 255 255 0 0 0 255 255 255 0 0 0 255 255 255 0 0 0
255 255 255 0 0 0 255 255 255 0 0 0 255 255 255 0 0 0 255 255 255 0 0
0 128 128 128 128 128 128 128 128 128 128 128 128 128 128 128 128 128
128 128 128 128 128 128 128 128 128 128 128 128 128 128 128 128 128
128 128 128 128 128 128 128 128 128 128 128 128 128 128 128 128 128
128 128 128 128 128 128 128 128 128 128 128 128 128 128 128 128 128
128 128 128 128 128 128 128 128 128 128 128 128 128 128 128 128 128
128 128 128 128 128 128 128 128 128 128 128 128 128 128 128 128 128
128 128 128 128 128 128 128 128 128 128 128 128 128 128 128 128 128
128 128 128 128 128 128 128 128 128 128 128 128 128 128 128 128 128
128 128 128 128 128 128 128 128 128 128 128 128 128 128 128 128 128
128 128 128 128 128 128 128 128 128 128 128 128 128 128 128 128 128
128 128 128 128 128 128 128 128 128 128 128 128 128 128 128 128 128
128 128 128 128 128 128 128 128 128 128 128 128 128 128 128 128 128
128 128 128 128 128 128 128 128 128 128 128 128 128 128 128 128 128
128 128 128 128 128 128 128 128 128 128 128 128 128 128 128 128 128
128 128 128 128 128 128 128 128 128 128 128 128 128 128 128 128 128
128 128 128 128 128 128 128 128 128 128 128 128 128 128 128 128 128
128 128 128 128 128 128 128 128 128 128 128 128 128 128 128 128 128
128 128 128 128 128 128 128 128 128 128 128 188 188 188 188 188 188
188 188 188 188 188 188 188 188 188 188 188 188 188 188 188 188 188
188 188 188 188 188 188 188 188 188 188 188 188 188 188 188 188 188
188 188 188 188 188 188 188 188 188 188 188 188 188 188 188 188 188
188 188 188 188 188 188 188 188 188 188 188 188 188 188 188 188 188
188 188 188 188 188 188 188 188 188 188 188 188 188 188 188 188 188
188 188 188 188 188 188 188 188 188 188 188 188 188 188 188 188 188
188 188 188 188 188 188 188 188 188 188 188 188 188 188 188 188 188
188 188 188 188 188 188 188 188 188 188 188 188 188 188 188 188 188
188 188 188 188 188 188 188 188 188 188 188 188 188 188 188 188 188
188 188 188 188 188 188 188 188 188 188 188 188 188 188 188 188 188
188 188 188 188 188 188 188 188 188 188 188 188 188 188 188 188 188
188 188 188 188 188 188 188 188 188 188 188 188 188 188 188 188 188
188 188 188 188 188 188 188 188 188 188 188 188 188 188 188 188 188
188 188 188 188 188 188 188 188 188 188 188 188 188 188 188 188 188
188 188 188 188 188 188 188 188 188 188 188 188 188 188 188 188 188
188 188 188 188 188 188 188 188 188 188 188 188 188 188 188 188 188
188 188 188 188 188 188 188 188 188 188 188 188 188 188 188 188 188
188 188 188 188 188
0 0 0 255 255 255 0 0 0 255 255 255 0 0 0 255 255 255 0 0 0 255 255
255 0 0 0 255 255 255 0 0 0 255 255 255 0 0 0 255 255 255 0 0 0 255
255 255 0 0 0 255 255 255 0 0 0 255 255 255 0 0 0 255 255 255 0 0 0
255 255 255 0 0 0 255 255 255 0 0 0 255 255 255 0 0 0 255 255 255 0 0
0 255 255 255 0 0 0 255 255 255 0 0 0 255 255 255 0 0 0 255 255 255 0
0 0 255 255 255 0 0 0 255 255 255 0 0 0 255 255 255 0 0 0 255 255 255
0 0 0 255 255 255 0 0 0 255 255 255 0 0 0 255 255 255 0 0 0 255 255
255 0 0 0 255 255 255 0 0 0 255 255 255 0 0 0 255 255 255 0 0 0 255
255 255 0 0 0 255 255 255 0 0 0 255 255 255 0 0 0 255 255 255 0 0 0
255 255 255 0 0 0 255 255 255 0 0 0 255 255 255 0 0 0 255 255 255 0 0
0 255 255 255 0 0 0 255 255 255 0 0 0 255 255 255 0 0 0 255 255 255 0
0 0 255 255 255 0 0 0 255 255 255 0 0 0 255 255 255 0 0 0 255 255 255
0 0 0 255 255 255 0 0 0 255 255 255 0 0 0 255 255 255 0 0 0 255 255
255 128 128 128 128 128 128 128 128 128 128 128 128 128 128 128 128
128 128 128 128 128 128 128 128 128 128 128 128 128 128 128 128 128
128 128 128 128 128 128 128 128 128 128 128 128 128 128 128 128 128
128 128 128 128 128 128 128 128 128 128 128 128 128 128 128 128 128
128 128 128 128 128 128 128 128 128 128 128 128 128 128 128 128 128
128 128 128 128 128 128 128 128 128 128 128 128 128 128 128 128 128
128 128 128 128 128 128 128 128 128 128 128 128 128 128 128 128 128
128 128 128 128 128 128 128 128 128 128 128 128 128 128 128 128 128
128 128 128 128 128 128 128 128 128 128 128 128 128 128 128 128 128
128 128 128 128 128 128 128 128 128 128 128 128 128 128 128 128 128
128 128 128 128 128 128 128 128 128 128 128 128 128 128 128 128 128
128 128 128 128 128 128 128 128 128 128 128 128 128 128 128 128 128
128 128 128 128 128 128 128 128 128 128 128 128 128 128 128 128 128
128 128 128 128 128 128 128 128 128 128 128 128 128 128 128 128 128
128 128 128 128 128 128 128 128 128 128 128 128 128 128 128 128 128
128 128 128 128 128 128 128 128 128 128 128 128 128 128 128 128 128
128 128 128 128 128 128 128 128 128 128 128 128 128 128 128 128 128
128 128 128 128 128 128 128 128 128 128 128 128 188 188 188 188 188
188 188 188 188 188 188 188 188 188 188 188 188 188 188 188 188 188
188 188 188 188 188 188 188 188 188 188 188 188 188 188 188 188 188
188 188 188 188 188 188 188 188 188 188 188 188 188 188 188 188 188
188 188 188 188 188 188 188 188 188 188 188 188 188 188 188 188 188
188 188 188 188 188 188 188 188 188 188 188 188 188 188 188 188 188
188 188 188 188 188 188 188 188 188 188 188 188 188 188 188 188 188
188 188 188 188 188 188 188 188 188 188 188 188 188 188 188 188 188
188 188 188 188 188 188 188 188 188 188 188 188 188 188 188 188 188
188 188 188 188 188 188 188 188 188 188 188 188 188 188 188 188 188
188 188 188 188 188 188 188 188 188 188 188 188 188 188 188 188 188
188 188 188 188 188 188 188 188 188 188 188 188 188 188 188 188 188
188 188 188 188 188 188 188 188 188 188 188 188 188 188 188 188 188
188 188 188 188 188 188 188 188 188 188 188 188 188 188 188 188 188
188 188 188 188 188 188 188 188 188 188 188 188 188 188 188 188 188
188 188 188 188 188 188 188 188 188 188 188 188 188 188 188 188 188
188 188 188 188 188 188 188 188 188 188 188 188 188 188 188 188 188
188 188 188 188 188 188 188 188 188 188 188 188 188 188 188 188 188
188 188 188 188 188 188
255 255 255 0 0 0 255 255 255 0 0 0 255 255 255 0 0 0 255 255 255 0 0
0 255 255 255 0 0 0 255 255 255 0 0 0 255 255 255 0 0 0 255 255 255 0
0 0 255 255 255 0 0 0 255 255 255 0 0 0 255 255 255 0 0 0 255 255 255
0 0 0 255 255 255 0 0 0 255 255 255 0 0 0 255 255 255 0 0 0 255 255
255 0 0 0 255 255 255 0 0 0 255 255 255 0 0 0 255 255 255 0 0 0 255
255 255 0 0 0 255 255 255 0 0 0 255 255 255 0 0 0 255 255 255 0 0 0
255 255 255 0 0 0 255 255 255 0 0 0 255 255 255 0 0 0 255 255 255 0 0
0 255 255 255 0 0 0 255 255 255 0 0 0 255 255 255 0 0 0 255 255 255 0
0 0 255 255 255 0 0 0 255 255 255 0 0 0 255 255 255 0 0 0 255 255 255
0 0 0 255 255 255 0 0 0 255 255 255 0 0 0 255 255 255 0 0 0 255 255
255 0 0 0 255 255 255 0 0 0 255 255 255 0 0 0 255 255 255 0 0 0 255
255 255 0 0 0 255 255 255 0 0 0 255 255 255 0 0 0 255 255 255 0 0 0
255 255 255 0 0 0 255 255 255 0 0 0 255 255 255 0 0 0 255 255 255 0 0
0 128 128 128 128 128 128 128 128 128 128 128 128 128 128 128 128 128
128 128 128 128 128 128 128 128 128 128 128 128 128 128 128 128 128
128 128 128 128 128 128 128 128 128 128 128 128 128 128 128 128 128
128 128 128 128 128 128 128 128 128 128 128 128 128 128 128 128 128
128 128 128 128 128 128 128 128 128 128 128 128 128 128 128 128 128
128 128 128 128 128 128 128 128 128 128 128 128 128 128 128 128 128
128 128 128 128 128 128 128 128 128 128 128 128 128 128 128 128 128
128 128 128 128 128 128 128 128 128 128 128 128 128 128 128 128 128
128 128 128 128 128 128 128 128 128 128 128 128 128 128 128 128 128
128 128 128 128 128 128 128 128 128 128 128 128 128 128 128 128 128
128 128 128 128 128 128 128 128 128 128 128 128 128 128 128 128 128
128 128 128 128 128 128 128 128 128 128 128 128 128 128 128 128 128
128 128 128 128 128 128 128 128 128 128 128 128 128 128 128 128 128
128 128 128 128 128 128 128 128 128 128 128 128 128 128 128 128 128
128 128 128 128 128 128 128 128 128 128 128 128 128 128 128 128 128
128 128 128 128 128 128 128 128 128 128 128 128 128 128 128 128 128
128 128 128 128 128 128 128 128 128 128 128 128 128 128 128 128 128
128 128 128 128 128 128 128 128 128 128 128 188 188 188 188 188 188
188 188 188 188 188 188 188 188 188 188 188 188 188 188 188 188 188
188 188 188 188 188 188 188 188 188 188 188 188 188 188 188 188 188
188 188 188 188 188 188 188 188 188 188 188 188 188 188 188 188 188
188 188 188 188 188 188 188 188 188 188 188 188 188 188 188 188 188
188 188 188 188 188 188 188 188 188 188 188 188 188 188 188 188 188
188 188 188 188 188 188 188 188 188 188 188 188 188 188 188 188 188
188 188 188 188 188 188 188 188 188 188 188 188 188 188 188 188 188
188 188 188 188 188 188 188 188 188 188 188 188 188 188 188 188 188
188 188 188 188 188 188 188 188 188 188 188 188 188 188 188 188 188
188 188 188 188 188 188 188 188 188 188 188 188 188 188 188 188 188
188 188 188 188 188 188 188 188 188 188 188 188 188 188 188 188 188
188 188 188 188 188 188 188 188 188 188 188 188 188 188 188 188 188
188 188 188 188 188 188 188 188 188 188 188 188 188 188 188 188 188
188 188 188 188 188 188 188 188 188 188 188 188 188 188 188 188 188
188 188 188 188 188 188 188 188 188 188 188 188 188 188 188 188 188
188 188 188 188 188 188 188 188 188 188 188 188 188 188 188 188 188
188 188 188 188 188 188 188 188 188 188 188 188 188 188 188 188 188
188 188 188 188 188
0 0 0 255 255 255 0 0 0 255 255 255 0 0 0 255 255 255 0 0 0 255 255
255 0 0 0 255 255 255 0 0 0 255 255 255 0 0 0 255 255 255 0 0 0 255
255 255 0 0 0 255 255 255 0 0 0 255 255 255 0 0 0 255 255 255 0 0 0
255 255 255 0 0 0 255 255 255 0 0 0 255 255 255 0 0 0 255 255 255 0 0
0 255 255 255 0 0 0 255 255 255 0 0 0 255 255 255 0 0 0 255 255 255 0
0 0 255 255 255 0 0 0 255 255 255 0 0 0 255 255 255 0 0 0 255 255 255
0 0 0 255 255 255 0 0 0 255 255 255 0 0 0 255 255 255 0 0 0 255 255
255 0 0 0 255 255 255 0 0 0 255 255 255 0 0 0 255 255 255 0 0 0 255
255 255 0 0 0 255 255 255 0 0 0 255 255 255 0 0 0 255 255 255 0 0 0
255 255 255 0 0 0 255 255 255 0 0 0 255 255 255 0 0 0 255 255 255 0 0
0 255 255 255 0 0 0 255 255 255 0 0 0 255 255 255 0 0 0 255 255 255 0
0 0 255 255 255 0 0 0 255 255 255 0 0 0 255 255 255 0 0 0 255 255 255
0 0 0 255 255 255 0 0 0 255 255 255 0 0 0 255 255 255 0 0 0 255 255
255 128 128 128 128 128 128 128 128 128 128 128 128 128 128 128 128
128 128 128 128 128 128 128 128 128 128 128 128 128 128 128 128 128
128 128 128 128 128 128 128 128 128 128 128 128 128 128 128 128 128
128 128 128 128 128 128 128 128 128 128 128 128 128 128 128 128 128
128 128 128 128 128 128 128 128 128 128 128 128 128 128 128 128 128
128 128 128 128 128 128 128 128 128 128 128 128 128 128 128 128 128
128 128 128 128 128 128 128 128 128 128 128 128 128 128 128 128 128
128 128 128 128 128 128 128 128 128 128 128 128 128 128 128 128 128
128 128 128 128 128 128 128 128 128 128 128 128 128 128 128 128 128
128 128 128 128 128 128 128 128 128 128 128 128 128 128 128 128 128
128 128 128 128 128 128 128 128 128 128 128 128 128 128 128 128 128
128 128 128 128 128 128 128 128 128 128 128 128 128 128 128 128 128
128 128 128 128 128 128 128 128 128 128 128 128 128 128 128 128 128
128 128 128 128 128 128 128 128 128 128 128 128 128 128 128 128 128
128 128 128 128 128 128 128 128 128 128 128 128 128 128 128 128 128
128 128 128 128 128 128 128 128 128 128 128 128 128 128 128 128 128
128 128 128 128 128 128 128 128 128 128 128 128 128 128 128 128 128
128 128 128 128 128 128 128 128 128 128 128 128 188 188 188 188 188
188 188 188 188 188 188 188 188 188 188 188 188 188 188 188 188 188
188 188 188 188 188 188 188 188 188 188 188 188 188 188 188 188 188
188 188 188 188 188 188 188 188 188 188 188 188 188 188 188 188 188
188 188 188 188 188 188 188 188 188 188 188 188 188 188 188 188 188
188 188 188 188 188 188 188 188 188 188 188 188 188 188 188 188 188
188 188 188 188 188 188 188 188 188 188 188 188 188 188 188 188 188
188 188 188 188 188 188 188 188 188 188 188 188 188 188 188 188 188
188 188 188 188 188 188 188 188 188 188 188 188 188 188 188 188 188
188 188 188 188 188 188 188 188 188 188 188 188 188 188 188 188 188
188 188 188 188 188 188 188 188 188 188 188 188 188 188 188 188 188
188 188 188 188 188 188 188 188 188 188 188 188 188 188 188 188 188
188 188 188 188 188 188 188 188 188 188 188 188 188 188 188 188 188
188 188 188 188 188 188 188 188 188 188 188 188 188 188 188 188 188
188 188 188 188 188 188 188 188 188 188 188 188 188 188 188 188 188
188 188 188 188 188 188 188 188 188 188 188 188 188 188 188 188 188
188 188 188 188 188 188 188 188 188 188 188 188 188 188 188 188 188
188 188 188 188 188 188 188 188 188 188 188 188 188 188 188 188 188
188 188 188 188 188 188
255 255 255 0 0 0 255 255 255 0 0 0 255 255 255 0 0 0 255 255 255 0 0
0 255 255 255 0 0 0 255 255 255 0 0 0 255 255 255 0 0 0 255 255 255 0
0 0 255 255 255 0 0 0 255 255 255 0 0 0 255 255 255 0 0 0 255 255 255
0 0 0 255 255 255 0 0 0 255 255 255 0 0 0 255 255 255 0 0 0 255 255
255 0 0 0 255 255 255 0 0 0 255 255 255 0 0 0 255 255 255 0 0 0 255
255 255 0 0 0 255 255 255 0 0 0 255 255 255 0 0 0 255 255 255 0 0 0
255 255 255 0 0 0 255 255 255 0 0 0 255 255 255 0 0 0 255 255 255 0 0
0 255 255 255 0 0 0 255 255 255 0 0 0 255 255 255 0 0 0 255 255 255 0
0 0 255 255 255 0 0 0 255 255 255 0 0 0 255 255 255 0 0 0 255 255 255
0 0 0 255 255 255 0 0 0 255 255 255 0 0 0 255 255 255 0 0 0 255 255
255 0 0 0 255 255 255 0 0 0 255 255 255 0 0 0 255 255 255 0 0 0 255
255 255 0 0 0 255 255 255 0 0 0 255 255 255 0 0 0 255 255 255 0 0 0
255 255 255 0 0 0 255 255 255 0 0 0 255 255 255 0 0 0 255 255 255 0 0
0 128 128 128 128 128 128 128 128 128 128 128 128 128 128 128 128 128
128 128 128 128 128 128 128 128 128 128 128 128 128 128 128 128 128
128 128 128 128 128 128 128 128 128 128 128 128 128 128 128 128 128
128 128 128 128 128 128 128 128 128 128 128 128 128 128 128 128 128
128 128 128 128 128 128 128 128 128 128 128 128 128 128 128 128 128
128 128 128 128 128 128 128 128 128 128 128 128 128 128 128 128 128
128 128 128 128 128 128 128 128 128 128 128 128 128 128 128 128 128
128 128 128 128 128 128 128 128 128 128 128 128 128 128 128 128 128
128 128 128 128 128 128 128 128 128 128 128 128 128 128 128 128 128
128 128 128 128 128 128 128 128 128 128 128 128 128 128 128 128 128
128 128 128 128 128 128 128 128 128 128 128 128 128 128 128 128 128
128 128 128 128 128 128 128 128 128 128 128 128 128 128 128 128 128
128 128 128 128 128 128 128 128 128 128 128 128 128 128 128 128 128
128 128 128 128 128 128 128 128 128 128 128 128 128 128 128 128 128
128 128 128 128 128 128 128 128 128 128 128 128 128 128 128 128 128
128 128 128 128 128 128 128 128 128 128 128 128 128 128 128 128 128
128 128 128 128 128 128 128 128 128 128 128 128 128 128 128 128 128
128 128 128 128 128 128 128 128 128 128 128 188 188 188 188 188 188
188 188 188 188 188 188 188 188 188 188 188 188 188 188 188 188 188
188 188 188 188 188 188 188 188 188 188 188 188 188 188 188 188 188
188 188 188 188 188 188 188 188 188 188 188 188 188 188 188 188 188
188 188 188 188 188 188 188 188 188 188 188 188 188 188 188 188 188
188 188 188 188 188 188 188 188 188 188 188 188 188 188 188 188 188
188 188 188 188 188 188 188 188 188 188 188 188 188 188 188 188 188
188 188 188 188 188 188 188 188 188 188 188 188 188 188 188 188 188
188 188 188 188 188 188 188 188 188 188 188 188 188 188 188 188 188
188 188 188 188 188 188 188 188 188 188 188 188 188 188 188 188 188
188 188 188 188 188 188 188 188 188 188 188 188 188 188 188 188 188
188 188 188 188 188 188 188 188 188 188 188 188 188 188 188 188 188
188 188 188 188 188 188 188 188 188 188 188 188 188 188 188 188 188
188 188 188 188 188 188 188 188 188 188 188 188 188 188 188 188 188
188 188 188 188 188 188 188 188 188 188 188 188 188 188 188 188 188
188 188 188 188 188 188 188 188 188 188 188 188 188 188 188 188 188
188 188 188 188 188 188 188 188 188 188 188 188 188 188 188 188 188
188 188 188 188 188 188 188 188 188 188 188 188 188 188 188 188 188
188 188 188 188 188
0 0 0 255 255 255 0 0 0 255 255 255 0 0 0 255 255 255 0 0 0 255 255
255 0 0 0 255 255 255 0 0 0 255 255 255 0 0 0 255 255 255 0 0 0 255
255 255 0 0 0 255 255 255 0 0 0 255 255 255 0 0 0 255 255 255 0 0 0
255 255 255 0 0 0 255 255 255 0 0 0 255 255 255 0 0 0 255 255 255 0 0
0 255 255 255 0 0 0 255 255 255 0 0 0 255 255 255 0 0 0 255 255 255 0
0 0 255 255 255 0 0 0 255 255 255 0 0 0 255 255 255 0 0 0 255 255 255
0 0 0 255 255 255 0 0 0 255 255 255 0 0 0 255 255 255 0 0 0 255 255
255 0 0 0 255 255 255 0 0 0 255 255 255 0 0 0 255 255 255 0 0 0 255
255 255 0 0 0 255 255 255 0 0 0 255 255 255 0 0 0 255 255 255 0 0 0
255 255 255 0 0 0 255 255 255 0 0 0 255 255 255 0 0 0 255 255 255 0 0
0 255 255 255 0 0 0 255 255 255 0 0 0 255 255 255 0 0 0 255 255 255 0
0 0 255 255 255 0 0 0 255 255 255 0 0 0 255 255 255 0 0 0 255 255 255
0 0 0 255 255 255 0 0 0 255 255 255 0 0 0 255 255 255 0 0 0 255 255
255 128 128 128 128 128 128 128 128 128 128 128 128 128 128 128 128
128 128 128 128 128 128 128 128 128 128 128 128 128 128 128 128 128
128 128 128 128 128 128 128 128 128 128 128 128 128 128 128 128 128
128 128 128 128 128 128 128 128 128 128 128 128 128 128 128 128 128
128 128 128 128 128 128 128 128 128 128 128 128 128 128 128 128 128
128 128 128 128 128 128 128 128 128 128 128 128 128 128 128 128 128
128 128 128 128 128 128 128 128 128 128 128 128 128 128 128 128 128
128 128 128 128 128 128 128 128 128 128 128 128 128 128 128 128 128
128 128 128 128 128 128 128 128 128 128 128 128 128 128 128 128 128
128 128 128 128 128 128 128 128 128 128 128 128 128 128 128 128 128
128 128 128 128 128 128 128 128 128 128 128 128 128 128 128 128 128
128 128 128 128 128 128 128 128 128 128 128 128 128 128 128 128 128
128 128 128 128 128 128 128 128 128 128 128 128 128 128 128 128 128
128 128 128 128 128 128 128 128 128 128 128 128 128 128 128 128 128
128 128 128 128 128 128 128 128 128 128 128 128 128 128 128 128 128
128 128 128 128 128 128 128 128 128 128 128 128 128 128 128 128 128
128 128 128 128 128 128 128 128 128 128 128 128 128 128 128 128 128
128 128 128 128 128 128 128 128 128 128 128 128 188 188 188 188 188
188 188 188 188 188 188 188 188 188 188 188 188 188 188 188 188 188
188 188 188 188 188 188 188 188 188 188 188 188 188 188 188 188 188
188 188 188 188 188 188 188 188 188 188 188 188 188 188 188 188 188
188 188 188 188 188 188 188 188 188 188 188 188 188 188 188 188 188
188 188 188 188 188 188 188 188 188 188 188 188 188 188 188 188 188
188 188 188 188 188 188 188 188 188 188 188 188 188 188 188 188 188
188 188 188 188 188 188 188 188 188 188 188 188 188 188 188 188 188
188 188 188 188 188 188 188 188 188 188 188 188 188 188 188 188 188
188 188 188 188 188 188 188 188 188 188 188 188 188 188 188 188 188
188 188 188 188 188 188 188 188 188 188 188 188 188 188 188 188 188
188 188 188 188 188 188 188 188 188 188 188 188 188 188 188 188 188
188 188 188 188 188 188 188 188 188 188 188 188 188 188 188 188 188
188 188 188 188 188 188 188 188 188 188 188 188 188 188 188 188 188
188 188 188 188 188 188 188 188 188 188 188 188 188 188 188 188 188
188 188 188 188 188 188 188 188 188 188 188 188 188 188 188 188 188
188 188 188 188 188 188 188 188 188 188 188 188 188 188 188 188 188
188 188 188 188 188 188 188 188 188 188 188 188 188 188 188 188 188
188 188 188 188 188 188
255 255 255 0 0 0 255 255 255 0 0 0 255 255 255 0 0 0 255 255 255 0 0
0 255 255 255 0 0 0 255 255 255 0 0 0 255 255 255 0 0 0 255 255 255 0
0 0 255 255 255 0 0 0 255 255 255 0 0 0 255 255 255 0 0 0 255 255 255
0 0 0 255 255 255 0 0 0 255 255 255 0 0 0 255 255 255 0 0 0 255 255
255 0 0 0 255 255 255 0 0 0 255 255 255 0 0 0 255 255 255 0 0 0 255
255 255 0 0 0 255 255 255 0 0 0 255 255 255 0 0 0 255 255 255 0 0 0
255 255 255 0 0 0 255 255 255 0 0 0 255 255 255 0 0 0 255 255 255 0 0
0 255 255 255 0 0 0 255 255 255 0 0 0 255 255 255 0 0 0 255 255 255 0
0 0 255 255 255 0 0 0 255 255 255 0 0 0 255 255 255 0 0 0 255 255 255
0 0 0 255 255 255 0 0 0 255 255 255 0 0 0 255 255 255 0 0 0 255 255
255 0 0 0 255 255 255 0 0 0 255 255 255 0 0 0 255 255 255 0 0 0 255
255 255 0 0 0 255 255 255 0 0 0 255 255 255 0 0 0 255 255 255 0 0 0
255 255 255 0 0 0 255 255 255 0 0 0 255 255 255 0 0 0 255 255 255 0 0
0 128 128 128 128 128 128 128 128 128 128 128 128 128 128 128 128 128
128 128 128 128 128 128 128 128 128 128 128 128 128 128 128 128 128
128 128 128 128 128 128 128 128 128 128 128 128 128 128 128 128 128
128 128 128 128 128 128 128 128 128 128 128 128 128 128 128 128 128
128 128 128 128 128 128 128 128 128 128 128 128 128 128 128 128 128
128 128 128 128 128 128 128 128 128 128 128 128 128 128 128 128 128
128 128 128 128 128 128 128 128 128 128 128 128 128 128 128 128 128
128 128 128 128 128 128 128 128 128 128 128 128 128 128 128 128 128
128 128 128 128 128 128 128 128 128 128 128 128 128 128 128 128 128
128 128 128 128 128 128 128 128 128 128 128 128 128 128 128 128 128
128 128 128 128 128 128 128 128 128 128 128 128 128 128 128 128 128
128 128 128 128 128 128 128 128 128 128 128 128 128 128 128 128 128
128 128 128 128 128 128 128 128 128 128 128 128 128 128 128 128 128
128 128 128 128 128 128 128 128 128 128 128 128 128 128 128 128 128
128 128 128 128 128 128 128 128 128 128 128 128 128 128 128 128 128
128 128 128 128 128 128 128 128 128 128 128 128 128 128 128 128 128
128 128 128 128 128 128 128 128 128 128 128 128 128 128 128 128 128
128 128 128 128 128 128 128 128 128 128 128 188 188 188 188 188 188
188 188 188 188 188 188 188 188 188 188 188 188 188 188 188 188 188
188 188 188 188 188 188 188 188 188 188 188 188 188 188 188 188 188
188 188 188 188 188 188 188 188 188 188 188 188 188 188 188 188 188
188 188 188 188 188 188 188 188 188 188 188 188 188 188 188 188 188
188 188 188 188 188 188 188 188 188 188 188 188 188 188 188 188 188
188 188 188 188 188 188 188 188 188 188 188 188 188 188 188 188 188
188 188 188 188 188 188 188 188 188 188 188 188 188 188 188 188 188
188 188 188 188 188 188 188 188 188 188 188 188 188 188 188 188 188
188 188 188 188 188 188 188 188 188 188 188 188 188 188 188 188 188
188 188 188 188 188 188 188 188 188 188 188 188 188 188 188 188 188
188 188 188 188 188 188 188 188 188 188 188 188 188 188 188 188 188
188 188 188 188 188 188 188 188 188 188 188 188 188 188 188 188 188
188 188 188 188 188 188 188 188 188 188 188 188 188 188 188 188 188
188 188 188 188 188 188 188 188 188 188 188 188 188 188 188 188 188
188 188 188 188 188 188 188 188 188 188 188 188 188 188 188 188 188
188 188 188 188 188 188 188 188 188 188 188 188 188 188 188 188 188
188 188 188 188 188 188 188 188 188 188 188 188 188 188 188 188 188
188 188 188 188 188
0 0 0 255 255 255 0 0 0 255 255 255 0 0 0 255 255 255 0 0 0 255 255
255 0 0 0 255 255 255 0 0 0 255 255 255 0 0 0 255 255 255 0 0 0 255
255 255 0 0 0 255 255 255 0 0 0 255 255 255 0 0 0 255 255 255 0 0 0
255 255 255 0 0 0 255 255 255 0 0 0 255 255 255 0 0 0 255 255 255 0 0
0 255 255 255 0 0 0 255 255 255 0 0 0 255 255 255 0 0 0 255 255 255 0
0 0 255 255 255 0 0 0 255 255 255 0 0 0 255 255 255 0 0 0 255 255 255
0 0 0 255 255 255 0 0 0 255 255 255 0 0 0 255 255 255 0 0 0 255 255
255 0 0 0 255 255 255 0 0 0 255 255 255 0 0 0 255 255 255 0 0 0 255
255 255 0 0 0 255 255 255 0 0 0 255 255 255 0 0 0 255 255 255 0 0 0
255 255 255 0 0 0 255 255 255 0 0 0 255 255 255 0 0 0 255 255 255 0 0
0 255 255 255 0 0 0 255 255 255 0 0 0 255 255 255 0 0 0 255 255 255 0
0 0 255 255 255 0 0 0 255 255 255 0 0 0 255 255 255 0 0 0 255 255 255
0 0 0 255 255 255 0 0 0 255 255 255 0 0 0 255 255 255 0 0 0 255 255
255 128 128 128 128 128 128 128 128 128 128 128 128 128 128 128 128
128 128 128 128 128 128 128 128 128 128 128 128 128 128 128 128 128
128 128 128 128 128 128 128 128 128 128 128 128 128 128 128 128 128
128 128 128 128 128 128 128 128 128 128 128 128 128 128 128 128 128
128 128 128 128 128 128 128 128 128 128 128 128 128 128 128 128 128
128 128 128 128 128 128 128 128 128 128 128 128 128 128 128 128 128
128 128 128 128 128 128 128 128 128 128 128 128 128 128 128 128 128
128 128 128 128 128 128 128 128 128 128 128 128 128 128 128 128 128
128 128 128 128 128 128 128 128 128 128 128 128 128 128 128 128 128
128 128 128 128 128 128 128 128 128 128 128 128 128 128 128 128 128
128 128 128 128 128 128 128 128 128 128 128 128 128 128 128 128 128
128 128 128 128 128 128 128 128 128 128 128 128 128 128 128 128 128
128 128 128 128 128 128 128 128 128 128 128 128 128 128 128 128 128
128 128 128 128 128 128 128 128 128 128 128 128 128 128 128 128 128
128 128 128 128 128 128 128 128 128 128 128 128 128 128 128 128 128
128 128 128 128 128 128 128 128 128 128 128 128 128 128 128 128 128
128 128 128 128 128 128 128 128 128 128 128 128 128 128 128 128 128
128 128 128 128 128 128 128 128 128 128 128 128 188 188 188 188 188
188 188 188 188 188 188 188 188 188 188 188 188 188 188 188 188 188
188 188 188 188 188 188 188 188 188 188 188 188 188 188 188 188 188
188 188 188 188 188 188 188 188 188 188 188 188 188 188 188 188 188
188 188 188 188 188 188 188 188 188 188 188 188 188 188 188 188 188
188 188 188 188 188 188 188 188 188 188 188 188 188 188 188 188 188
188 188 188 188 188 188 188 188 188 188 188 188 188 188 188 188 188
188 188 188 188 188 188 188 188 188 188 188 188 188 188 188 188 188
188 188 188 188 188 188 188 188 188 188 188 188 188 188 188 188 188
188 188 188 188 188 188 188 188 188 188 188 188 188 188 188 188 188
188 188 188 188 188 188 188 188 188 188 188 188 188 188 188 188 188
188 188 188 188 188 188 188 188 188 188 188 188 188 188 188 188 188
188 188 188 188 188 188 188 188 188 188 188 188 188 188 188 188 188
188 188 188 188 188 188 188 188 188 188 188 188 188 188 188 188 188
188 188 188 188 188 188 188 188 188 188 188 188 188 188 188 188 188
188 188 188 188 188 188 188 188 188 188 188 188 188 188 188 188 188
188 188 188 188 188 188 188 188 188 188 188 188 188 188 188 188 188
188 188 188 188 188 188 188 188 188 188 188 188 188 188 188 188 188
188 188 188 188 188 188
255 255 255 0 0 0 255 255 255 0 0 0 255 255 255 0 0 0 255 255 255 0 0
0 255 255 255 0 0 0 255 255 255 0 0 0 255 255 255 0 0 0 255 255 255 0
0 0 255 255 255 0 0 0 255 255 255 0 0 0 255 255 255 0 0 0 255 255 255
0 0 0 255 255 255 0 0 0 255 255 255 0 0 0 255 255 255 0 0 0 255 255
255 0 0 0 255 255 255 0 0 0 255 255 255 0 0 0 255 255 255 0 0 0 255
255 255 0 0 0 255 255 255 0 0 0 255 255 255 0 0 0 255 255 255 0 0 0
255 255 255 0 0 0 255 255 255 0 0 0 255 255 255 0 0 0 255 255 255 0 0
0 255 255 255 0 0 0 255 255 255 0 0 0 255 255 255 0 0 0 255 255 255 0
0 0 255 255 255 0 0 0 255 255 255 0 0 0 255 255 255 0 0 0 255 255 255
0 0 0 255 255 255 0 0 0 255 255 255 0 0 0 255 255 255 0 0 0 255 255
255 0 0 0 255 255 255 0 0 0 255 255 255 0 0 0 255 255 255 0 0 0 255
255 255 0 0 0 255 255 255 0 0 0 255 255 255 0 0 0 255 255 255 0 0 0
255 255 255 0 0 0 255 255 255 0 0 0 255 255 255 0 0 0 255 255 255 0 0
0 128 128 128 128 128 128 128 128 128 128 128 128 128 128 128 128 128
128 128 128 128 128 128 128 128 128 128 128 128 128 128 128 128 128
128 128 128 128 128 128 128 128 128 128 128 128 128 128 128 128 128
128 128 128 128 128 128 128 128 128 128 128 128 128 128 128 128 128
128 128 128 128 128 128 128 128 128 128 128 128 128 128 128 128 128
128 128 128 128 128 128 128 128 128 128 128 128 128 128 128 128 128
128 128 128 128 128 128 128 128 128 128 128 128 128 128 128 128 128
128 128 128 128 128 128 128 128 128 128 128 128 128 128 128 128 128
128 128 128 128 128 128 128 128 128 128 128 128 128 128 128 128 128
128 128 128 128 128 128 128 128 128 128 128 128 128 128 128 128 128
128 128 128 128 128 128 128 128 128 128 128 128 128 128 128 128 128
128 128 128 128 128 128 128 128 128 128 128 128 128 128 128 128 128
128 128 128 128 128 128 128 128 128 128 128 128 128 128 128 128 128
128 128 128 128 128 128 128 128 128 128 128 128 128 128 128 128 128
128 128 128 128 128 128 128 128 128 128 128 128 128 128 128 128 128
128 128 128 128 128 128 128 128 128 128 128 128 128 128 128 128 128
128 128 128 128 128 128 128 128 128 128 128 128 128 128 128 128 128
128 128 128 128 128 128 128 128 128 128 128 188 188 188 188 188 188
188 188 188 188 188 188 188 188 188 188 188 188 188 188 188 188 188
188 188 188 188 188 188 188 188 188 188 188 188 188 188 188 188 188
188 188 188 188 188 188 188 188 188 188 188 188 188 188 188 188 188
188 188 188 188 188 188 188 188 188 188 188 188 188 188 188 188 188
188 188 188 188 188 188 188 188 188 188 188 188 188 188 188 188 188
188 188 188 188 188 188 188 188 188 188 188 188 188 188 188 188 188
188 188 188 188 188 188 188 188 188 188 188 188 188 188 188 188 188
188 188 188 188 188 188 188 188 188 188 188 188 188 188 188 188 188
188 188 188 188 188 188 188 188 188 188 188 188 188 188 188 188 188
188 188 188 188 188 188 188 188 188 188 188 188 188 188 188 188 188
188 188 188 188 188 188 188 188 188 188 188 188 188 188 188 188 188
188 188 188 188 188 188 188 188 188 188 188 188 188 188 188 188 188
188 188 188 188 188 188 188 188 188 188 188 188 188 188 188 188 188
188 188 188 188 188 188 188 188 188 188 188 188 188 188 188 188 188
188 188 188 188 188 188 188 188 188 188 188 188 188 188 188 188 188
188 188 188 188 188 188 188 188 188 188 188 188 188 188 188 188 188
188 188 188 188 188 188 188 188 188 188 188 188 188 188 188 188 188
188 188 188 188 188
0 0 0 255 255 255 0 0 0 255 255 255 0 0 0 255 255 255 0 0 0 255 255
255 0 0 0 255 255 255 0 0 0 255 255 255 0 0 0 255 255 255 0 0 0 255
255 255 0 0 0 255 255 255 0 0 0 255 255 255 0 0 0 255 255 255 0 0 0
255 255 255 0 0 0 255 255 255 0 0 0 255 255 255 0 0 0 255 255 255 0 0
0 255 255 255 0 0 0 255 255 255 0 0 0 255 255 255 0 0 0 255 255 255 0
0 0 255 255 255 0 0 0 255 255 255 0 0 0 255 255 255 0 0 0 255 255 255
0 0 0 255 255 255 0 0 0 255 255 255 0 0 0 255 255 255 0 0 0 255 255
255 0 0 0 255 255 255 0 0 0 255 255 255 0 0 0 255 255 255 0 0 0 255
255 255 0 0 0 255 255 255 0 0 0 255 255 255 0 0 0 255 255 255 0 0 0
255 255 255 0 0 0 255 255 255 0 0 0 255 255 255 0 0 0 255 255 255 0 0
0 255 255 255 0 0 0 255 255 255 0 0 0 255 255 255 0 0 0 255 255 255 0
0 0 255 255 255 0 0 0 255 255 255 0 0 0 255 255 255 0 0 0 255 255 255
0 0 0 255 255 255 0 0 0 255 255 255 0 0 0 255 255 255 0 0 0 255 255
255 128 128 128 128 128 128 128 128 128 128 128 128 128 128 128 128
128 128 128 128 128 128 128 128 128 128 128 128 128 128 128 128 128
128 128 128 128 128 128 128 128 128 128 128 128 128 128 128 128 128
128 128 128 128 128 128 128 128 128 128 128 128 128 128 128 128 128
128 128 128 128 128 128 128 128 128 128 128 128 128 128 128 128 128
128 128 128 128 128 128 128 128 128 128 128 128 128 128 128 128 128
128 128 128 128 128 128 128 128 128 128 128 128 128 128 128 128 128
128 128 128 128 128 128 128 128 128 128 128 128 128 128 128 128 128
128 128 128 128 128 128 128 128 128 128 128 128 128 128 128 128 128
128 128 128 128 128 128 128 128 128 128 128 128 128 128 128 128 128
128 128 128 128 128 128 128 128 128 128 128 128 128 128 128 128 128
128 128 128 128 128 128 128 128 128 128 128 128 128 128 128 128 128
128 128 128 128 128 128 128 128 128 128 128 128 128 128 128 128 128
128 128 128 128 128 128 128 128 128 128 128 128 128 128 128 128 128
128 128 128 128 128 128 128 128 128 128 128 128 128 128 128 128 128
128 128 128 128 128 128 128 128 128 128 128 128 128 128 128 128 128
128 128 128 128 128 128 128 128 128 128 128 128 128 128 128 128 128
128 128 128 128 128 128 128 128 128 128 128 128 188 188 188 188 188
188 188 188 188 188 188 188 188 188 188 188 188 188 188 188 188 188
188 188 188 188 188 188 188 188 188 188 188 188 188 188 188 188 188
188 188 188 188 188 188 188 188 188 188 188 188 188 188 188 188 188
188 188 188 188 188 188 188 188 188 188 188 188 188 188 188 188 188
188 188 188 188 188 188 188 188 188 188 188 188 188 188 188 188 188
188 188 188 188 188 188 188 188 188 188 188 188 188 188 188 188 188
188 188 188 188 188 188 188 188 188 188 188 188 188 188 188 188 188
188 188 188 188 188 188 188 188 188 188 188 188 188 188 188 188 188
188 188 188 188 188 188 188 188 188 188 188 188 188 188 188 188 188
188 188 188 188 188 188 188 188 188 188 188 188 188 188 188 188 188
188 188 188 188 188 188 188 188 188 188 188 188 188 188 188 188 188
188 188 188 188 188 188 188 188 188 188 188 188 188 188 188 188 188
188 188 188 188 188 188 188 188 188 188 188 188 188 188 188 188 188
188 188 188 188 188 188 188 188 188 188 188 188 188 188 188 188 188
188 188 188 188 188 188 188 188 188 188 188 188 188 188 188 188 188
188 188 188 188 188 188 188 188 188 188 188 188 188 188 188 188 188
188 188 188 188 188 188 188 188 188 188 188 188 188 188 188 188 188
188 188 188 188 188 188
255 255 255 0 0 0 255 255 255 0 0 0 255 255 255 0 0 0 255 255 255 0 0
0 255 255 255 0 0 0 255 255 255 0 0 0 255 255 255 0 0 0 255 255 255 0
0 0 255 255 255 0 0 0 255 255 255 0 0 0 255 255 255 0 0 0 255 255 255
0 0 0 255 255 255 0 0 0 255 255 255 0 0 0 255 255 255 0 0 0 255 255
255 0 0 0 255 255 255 0 0 0 255 255 255 0 0 0 255 255 255 0 0 0 255
255 255 0 0 0 255 255 255 0 0 0 255 255 255 0 0 0 255 255 255 0 0 0
255 255 255 0 0 0 255 255 255 0 0 0 255 255 255 0 0 0 255 255 255 0 0
0 255 255 255 0 0 0 255 255 255 0 0 0 255 255 255 0 0 0 255 255 255 0
0 0 255 255 255 0 0 0 255 255 255 0 0 0 255 255 255 0 0 0 255 255 255
0 0 0 255 255 255 0 0 0 255 255 255 0 0 0 255 255 255 0 0 0 255 255
255 0 0 0 255 255 255 0 0 0 255 255 255 0 0 0 255 255 255 0 0 0 255
255 255 0 0 0 255 255 255 0 0 0 255 255 255 0 0 0 255 255 255 0 0 0
255 255 255 0 0 0 255 255 255 0 0 0 255 255 255 0 0 0 255 255 255 0 0
0 128 128 128 128 128 128 128 128 128 128 128 128 128 128 128 128 128
128 128 128 128 128 128 128 128 128 128 128 128 128 128 128 128 128
128 128 128 128 128 128 128 128 128 128 128 128 128 128 128 128 128
128 128 128 128 128 128 128 128 128 128 128 128 128 128 128 128 128
128 128 128 128 128 128 128 128 128 128 128 128 128 128 128 128 128
128 128 128 128 128 128 128 128 128 128 128 128 128 128 128 128 128
128 128 128 128 128 128 128 128 128 128 128 128 128 128 128 128 128
128 128 128 128 128 128 128 128 128 128 128 128 128 128 128 128 128
128 128 128 128 128 128 128 128 128 128 128 128 128 128 128 128 128
128 128 128 128 128 128 128 128 128 128 128 128 128 128 128 128 128
128 128 128 128 128 128 128 128 128 128 128 128 128 128 128 128 128
128 128 128 128 128 128 128 128 128 128 128 128 128 128 128 128 128
128 128 128 128 128 128 128 128 128 128 128 128 128 128 128 128 128
128 128 128 128 128 128 128 128 128 128 128 128 128 128 128 128 128
128 128 128 128 128 128 128 128 128 128 128 128 128 128 128 128 128
128 128 128 128 128 128 128 128 128 128 128 128 128 128 128 128 128
128 128 128 128 128 128 128 128 128 128 128 128 128 128 128 128 128
128 128 128 128 128 128 128 128 128 128 128 188 188 188 188 188 188
188 188 188 188 188 188 188 188 188 188 188 188 188 188 188 188 188
188 188 188 188 188 188 188 188 188 188 188 188 188 188 188 188 188
188 188 188 188 188 188 188 188 188 188 188 188 188 188 188 188 188
188 188 188 188 188 188 188 188 188 188 188 188 188 188 188 188 188
188 188 188 188 188 188 188 188 188 188 188 188 188 188 188 188 188
188 188 188 188 188 188 188 188 188 188 188 188 188 188 188 188 188
188 188 188 188 188 188 188 188 188 188 188 188 188 188 188 188 188
188 188 188 188 188 188 188 188 188 188 188 188 188 188 188 188 188
188 188 188 188 188 188 188 188 188 188 188 188 188 188 188 188 188
188 188 188 188 188 188 188 188 188 188 188 188 188 188 188 188 188
188 188 188 188 188 188 188 188 188 188 188 188 188 188 188 188 188
188 188 188 188 188 188 188 188 188 188 188 188 188 188 188 188 188
188 188 188 188 188 188 188 188 188 188 188 188 188 188 188 188 188
188 188 188 188 188 188 188 188 188 188 188 188 188 188 188 188 188
188 188 188 188 188 188 188 188 188 188 188 188 188 188 188 188 188
188 188 188 188 188 188 188 188 188 188 188 188 188 188 188 188 188
188 188 188 188 188 188 188 188 188 188 188 188 188 188 188 188 188
188 188 188 188 188
0 0 0 255 255 255 0 0 0 255 255 255 0 0 0 255 255 255 0 0 0 255 255
255 0 0 0 255 255 255 0 0 0 255 255 255 0 0 0 255 255 255 0 0 0 255
255 255 0 0 0 255 255 255 0 0 0 255 255 255 0 0 0 255 255 255 0 0 0
255 255 255 0 0 0 255 255 255 0 0 0 255 255 255 0 0 0 255 255 255 0 0
0 255 255 255 0 0 0 255 255 255 0 0 0 255 255 255 0 0 0 255 255 255 0
0 0 255 255 255 0 0 0 255 255 255 0 0 0 255 255 255 0 0 0 255 255 255
0 0 0 255 255 255 0 0 0 255 255 255 0 0 0 255 255 255 0 0 0 255 255
255 0 0 0 255 255 255 0 0 0 255 255 255 0 0 0 255 255 255 0 0 0 255
255 255 0 0 0 255 255 255 0 0 0 255 255 255 0 0 0 255 255 255 0 0 0
255 255 255 0 0 0 255 255 255 0 0 0 255 255 255 0 0 0 255 255 255 0 0
0 255 255 255 0 0 0 255 255 255 0 0 0 255 255 255 0 0 0 255 255 255 0
0 0 255 255 255 0 0 0 255 255 255 0 0 0 255 255 255 0 0 0 255 255 255
0 0 0 255 255 255 0 0 0 255 255 255 0 0 0 255 255 255 0 0 0 255 255
255 128 128 128 128 128 128 128 128 128 128 128 128 128 128 128 128
128 128 128 128 128 128 128 128 128 128 128 128 128 128 128 128 128
128 128 128 128 128 128 128 128 128 128 128 128 128 128 128 128 128
128 128 128 128 128 128 128 128 128 128 128 128 128 128 128 128 128
128 128 128 128 128 128 128 128 128 128 128 128 128 128 128 128 128
128 128 128 128 128 128 128 128 128 128 128 128 128 128 128 128 128
128 128 128 128 128 128 128 128 128 128 128 128 128 128 128 128 128
128 128 128 128 128 128 128 128 128 128 128 128 128 128 128 128 128
128 128 128 128 128 128 128 128 128 128 128 128 128 128 128 128 128
128 128 128 128 128 128 128 128 128 128 128 128 128 128 128 128 128
128 128 128 128 128 128 128 128 128 128 128 128 128 128 128 128 128
128 128 128 128 128 128 128 128 128 128 128 128 128 128 128 128 128
128 128 128 128 128 128 128 128 128 128 128 128 128 128 128 128 128
128 128 128 128 128 128 128 128 128 128 128 128 128 128 128 128 128
128 128 128 128 128 128 128 128 128 128 128 128 128 128 128 128 128
128 128 128 128 128 128 128 128 128 128 128 128 128 128 128 128 128
128 128 128 128 128 128 128 128 128 128 128 128 128 128 128 128 128
128 128 128 128 128 128 128 128 128 128 128 128 188 188 188 188 188
188 188 188 188 188 188 188 188 188 188 188 188 188 188 188 188 188
188 188 188 188 188 188 188 188 188 188 188 188 188 188 188 188 188
188 188 188 188 188 188 188 188 188 188 188 188 188 188 188 188 188
188 188 188 188 188 188 188 188 188 188 188 188 188 188 188 188 188
188 188 188 188 188 188 188 188 188 188 188 188 188 188 188 188 188
188 188 188 188 188 188 188 188 188 188 188 188 188 188 188 188 188
188 188 188 188 188 188 188 188 188 188 188 188 188 188 188 188 188
188 188 188 188 188 188 188 188 188 188 188 188 188 188 188 188 188
188 188 188 188 188 188 188 188 188 188 188 188 188 188 188 188 188
188 188 188 188 188 188 188 188 188 188 188 188 188 188 188 188 188
188 188 188 188 188 188 188 188 188 188 188 188 188 188 188 188 188
188 188 188 188 188 188 188 188 188 188 188 188 188 188 188 188 188
188 188 188 188 188 188 188 188 188 188 188 188 188 188 188 188 188
188 188 188 188 188 188 188 188 188 188 188 188 188 188 188 188 188
188 188 188 188 188 188 188 188 188 188 188 188 188 188 188 188 188
188 188 188 188 188 188 188 188 188 188 188 188 188 188 188 188 188
188 188 188 188 188 188 188 188 188 188 188 188 188 188 188 188 188
188 188 188 188 188 188
255 255 255 0 0 0 255 255 255 0 0 0 255 255 255 0 0 0 255 255 255 0 0
0 255 255 255 0 0 0 255 255 255 0 0 0 255 255 255 0 0 0 255 255 255 0
0 0 255 255 255 0 0 0 255 255 255 0 0 0 255 255 255 0 0 0 255 255 255
0 0 0 255 255 255 0 0 0 255 255 255 0 0 0 255 255 255 0 0 0 255 255
255 0 0 0 255 255 255 0 0 0 255 255 255 0 0 0 255 255 255 0 0 0 255
255 255 0 0 0 255 255 255 0 0 0 255 255 255 0 0 0 255 255 255 0 0 0
255 255 255 0 0 0 255 255 255 0 0 0 255 255 255 0 0 0 255 255 255 0 0
0 255 255 255 0 0 0 255 255 255 0 0 0 255 255 255 0 0 0 255 255 255 0
0 0 255 255 255 0 0 0 255 255 255 0 0 0 255 255 255 0 0 0 255 255 255
0 0 0 255 255 255 0 0 0 255 255 255 0 0 0 255 255 255 0 0 0 255 255
255 0 0 0 255 255 255 0 0 0 255 255 255 0 0 0 255 255 255 0 0 0 255
255 255 0 0 0 255 255 255 0 0 0 255 255 255 0 0 0 255 255 255 0 0 0
255 255 255 0 0 0 255 255 255 0 0 0 255 255 255 0 0 0 255 255 255 0 0
0 128 128 128 128 128 128 128 128 128 128 128 128 128 128 128 128 128
128 128 128 128 128 128 128 128 128 128 128 128 128 128 128 128 128
128 128 128 128 128 128 128 128 128 128 128 128 128 128 128 128 128
128 128 128 128 128 128 128 128 128 128 128 128 128 128 128 128 128
128 128 128 128 128 128 128 128 128 128 128 128 128 128 128 128 128
128 128 128 128 128 128 128 128 128 128 128 128 128 128 128 128 128
128 128 128 128 128 128 128 128 128 128 128 128 128 128 128 128 128
128 128 128 128 128 128 128 128 128 128 128 128 128 128 128 128 128
128 128 128 128 128 128 128 128 128 128 128 128 128 128 128 128 128
128 128 128 128 128 128 128 128 128 128 128 128 128 128 128 128 128
128 128 128 128 128 128 128 128 128 128 128 128 128 128 128 128 128
128 128 128 128 128 128 128 128 128 128 128 128 128 128 128 128 128
128 128 128 128 128 128 128 128 128 128 128 128 128 128 128 128 128
128 128 128 128 128 128 128 128 128 128 128 128 128 128 128 128 128
128 128 128 128 128 128 128 128 128 128 128 128 128 128 128 128 128
128 128 128 128 128 128 128 128 128 128 128 128 128 128 128 128 128
128 128 128 128 128 128 128 128 128 128 128 128 128 128 128 128 128
128 128 128 128 128 128 128 128 128 128 128 188 188 188 188 188 188
188 188 188 188 188 188 188 188 188 188 188 188 188 188 188 188 188
188 188 188 188 188 188 188 188 188 188 188 188 188 188 188 188 188
188 188 188 188 188 188 188 188 188 188 188 188 188 188 188 188 188
188 188 188 188 188 188 188 188 188 188 188 188 188 188 188 188 188
188 188 188 188 188 188 188 188 188 188 188 188 188 188 188 188 188
188 188 188 188 188 188 188 188 188 188 188 188 188 188 188 188 188
188 188 188 188 188 188 188 188 188 188 188 188 188 188 188 188 188
188 188 188 188 188 188 188 188 188 188 188 188 188 188 188 188 188
188 188 188 188 188 188 188 188 188 188 188 188 188 188 188 188 188
188 188 188 188 188 188 188 188 188 188 188 188 188 188 188 188 188
188 188 188 188 188 188 188 188 188 188 188 188 188 188 188 188 188
188 188 188 188 188 188 188 188 188 188 188 188 188 188 188 188 188
188 188 188 188 188 188 188 188 188 188 188 188 188 188 188 188 188
188 188 188 188 188 188 188 188 188 188 188 188 188 188 188 188 188
188 188 188 188 188 188 188 188 188 188 188 188 188 188 188 188 188
188 188 188 188 188 188 188 188 188 188 188 188 188 188 188 188 188
188 188 188 188 188 188 188 188 188 188 188 188 188 188 188 188 188
188 188 188 188 188
0 0 0 255 255 255 0 0 0 255 255 255 0 0 0 255 255 255 0 0 0 255 255
255 0 0 0 255 255 255 0 0 0 255 255 255 0 0 0 255 255 255 0 0 0 255
255 255 0 0 0 255 255 255 0 0 0 255 255 255 0 0 0 255 255 255 0 0 0
255 255 255 0 0 0 255 255 255 0 0 0 255 255 255 0 0 0 255 255 255 0 0
0 255 255 255 0 0 0 255 255 255 0 0 0 255 255 255 0 0 0 255 255 255 0
0 0 255 255 255 0 0 0 255 255 255 0 0 0 255 255 255 0 0 0 255 255 255
0 0 0 255 255 255 0 0 0 255 255 255 0 0 0 255 255 255 0 0 0 255 255
255 0 0 0 255 255 255 0 0 0 255 255 255 0 0 0 255 255 255 0 0 0 255
255 255 0 0 0 255 255 255 0 0 0 255 255 255 0 0 0 255 255 255 0 0 0
255 255 255 0 0 0 255 255 255 0 0 0 255 255 255 0 0 0 255 255 255 0 0
0 255 255 255 0 0 0 255 255 255 0 0 0 255 255 255 0 0 0 255 255 255 0
0 0 255 255 255 0 0 0 255 255 255 0 0 0 255 255 255 0 0 0 255 255 255
0 0 0 255 255 255 0 0 0 255 255 255 0 0 0 255 255 255 0 0 0 255 255
255 128 128 128 128 128 128 128 128 128 128 128 128 128 128 128 128
128 128 128 128 128 128 128 128 128 128 128 128 128 128 128 128 128
128 128 128 128 128 128 128 128 128 128 128 128 128 128 128 128 128
128 128 128 128 128 128 128 128 128 128 128 128 128 128 128 128 128
128 128 128 128 128 128 128 128 128 128 128 128 128 128 128 128 128
128 128 128 128 128 128 128 128 128 128 128 128 128 128 128 128 128
128 128 128 128 128 128 128 128 128 128 128 128 128 128 128 128 128
128 128 128 128 128 128 128 128 128 128 128 128 128 128 128 128 128
128 128 128 128 128 128 128 128 128 128 128 128 128 128 128 128 128
128 128 128 128 128 128 128 128 128 128 128 128 128 128 128 128 128
128 128 128 128 128 128 128 128 128 128 128 128 128 128 128 128 128
128 128 128 128 128 128 128 128 128 128 128 128 128 128 128 128 128
128 128 128 128 128 128 128 128 128 128 128 128 128 128 128 128 128
128 128 128 128 128 128 128 128 128 128 128 128 128 128 128 128 128
128 128 128 128 128 128 128 128 128 128 128 128 128 128 128 128 128
128 128 128 128 128 128 128 128 128 128 128 128 128 128 128 128 128
128 128 128 128 128 128 128 128 128 128 128 128 128 128 128 128 128
128 128 128 128 128 128 128 128 128 128 128 128 188 188 188 188 188
188 188 188 188 188 188 188 188 188 188 188 188 188 188 188 188 188
188 188 188 188 188 188 188 188 188 188 188 188 188 188 188 188 188
188 188 188 188 188 188 188 188 188 188 188 188 188 188 188 188 188
188 188 188 188 188 188 188 188 188 188 188 188 188 188 188 188 188
188 188 188 188 188 188 188 188 188 188 188 188 188 188 188 188 188
188 188 188 188 188 188 188 188 188 188 188 188 188 188 188 188 188
188 188 188 188 188 188 188 188 188 188 188 188 188 188 188 188 188
188 188 188 188 188 188 188 188 188 188 188 188 188 188 188 188 188
188 188 188 188 188 188 188 188 188 188 188 188 188 188 188 188 188
188 188 188 188 188 188 188 188 188 188 188 188 188 188 188 188 188
188 188 188 188 188 188 188 188 188 188 188 188 188 188 188 188 188
188 188 188 188 188 188 188 188 188 188 188 188 188 188 188 188 188
188 188 188 188 188 188 188 188 188 188 188 188 188 188 188 188 188
188 188 188 188 188 188 188 188 188 188 188 188 188 188 188 188 188
188 188 188 188 188 188 188 188 188 188 188 188 188 188 188 188 188
188 188 188 188 188 188 188 188 188 188 188 188 188 188 188 188 188
188 188 188 188 188 188 188 188 188 188 188 188 188 188 188 188 188
188 188 188 188 188 188
255 255 255 0 0 0 255 255 255 0 0 0 255 255 255 0 0 0 255 255 255 0 0
0 255 255 255 0 0 0 255 255 255 0 0 0 255 255 255 0 0 0 255 255 255 0
0 0 255 255 255 0 0 0 255 255 255 0 0 0 255 255 255 0 0 0 255 255 255
0 0 0 255 255 255 0 0 0 255 255 255 0 0 0 255 255 255 0 0 0 255 255
255 0 0 0 255 255 255 0 0 0 255 255 255 0 0 0 255 255 255 0 0 0 255
255 255 0 0 0 255 255 255 0 0 0 255 255 255 0 0 0 255 255 255 0 0 0
255 255 255 0 0 0 255 255 255 0 0 0 255 255 255 0 0 0 255 255 255 0 0
0 255 255 255 0 0 0 255 255 255 0 0 0 255 255 255 0 0 0 255 255 255 0
0 0 255 255 255 0 0 0 255 255 255 0 0 0 255 255 255 0 0 0 255 255 255
0 0 0 255 255 255 0 0 0 255 255 255 0 0 0 255 255 255 0 0 0 255 255
255 0 0 0 255 255 255 0 0 0 255 255 255 0 0 0 255 255 255 0 0 0 255
255 255 0 0 0 255 255 255 0 0 0 255 255 255 0 0 0 255 255 255 0 0 0
255 255 255 0 0 0 255 255 255 0 0 0 255 255 255 0 0 0 255 255 255 0 0
0 128 128 128 128 128 128 128 128 128 128 128 128 128 128 128 128 128
128 128 128 128 128 128 128 128 128 128 128 128 128 128 128 128 128
128 128 128 128 128 128 128 128 128 128 128 128 128 128 128 128 128
128 128 128 128 128 128 128 128 128 128 128 128 128 128 128 128 128
128 128 128 128 128 128 128 128 128 128 128 128 128 128 128 128 128
128 128 128 128 128 128 128 128 128 128 128 128 128 128 128 128 128
128 128 128 128 128 128 128 128 128 128 128 128 128 128 128 128 128
128 128 128 128 128 128 128 128 128 128 128 128 128 128 128 128 128
128 128 128 128 128 128 128 128 128 128 128 128 128 128 128 128 128
128 128 128 128 128 128 128 128 128 128 128 128 128 128 128 128 128
128 128 128 128 128 128 128 128 128 128 128 128 128 128 128 128 128
128 128 128 128 128 128 128 128 128 128 128 128 128 128 128 128 128
128 128 128 128 128 128 128 128 128 128 128 128 128 128 128 128 128
128 128 128 128 128 128 128 128 128 128 128 128 128 128 128 128 128
128 128 128 128 128 128 128 128 128 128 128 128 128 128 128 128 128
128 128 128 128 128 128 128 128 128 128 128 128 128 128 128 128 128
128 128 128 128 128 128 128 128 128 128 128 128 128 128 128 128 128
128 128 128 128 128 128 128 128 128 128 128 188 188 188 188 188 188
188 188 188 188 188 188 188 188 188 188 188 188 188 188 188 188 188
188 188 188 188 188 188 188 188 188 188 188 188 188 188 188 188 188
188 188 188 188 188 188 188 188 188 188 188 188 188 188 188 188 188
188 188 188 188 188 188 188 188 188 188 188 188 188 188 188 188 188
188 188 188 188 188 188 188 188 188 188 188 188 188 188 188 188 188
188 188 188 188 188 188 188 188 188 188 188 188 188 188 188 188 188
188 188 188 188 188 188 188 188 188 188 188 188 188 188 188 188 188
188 188 188 188 188 188 188 188 188 188 188 188 188 188 188 188 188
188 188 188 188 188 188 188 188 188 188 188 188 188 188 188 188 188
188 188 188 188 188 188 188 188 188 188 188 188 188 188 188 188 188
188 188 188 188 188 188 188 188 188 188 188 188 188 188 188 188 188
188 188 188 188 188 188 188 188 188 188 188 188 188 188 188 188 188
188 188 188 188 188 188 188 188 188 188 188 188 188 188 188 188 188
188 188 188 188 188 188 188 188 188 188 188 188 188 188 188 188 188
188 188 188 188 188 188 188 188 188 188 188 188 188 188 188 188 188
188 188 188 188 188 188 188 188 188 188 188 188 188 188 188 188 188
188 188 188 188 188 188 188 188 188 188 188 188 188 188 188 188 188
188 188 188 188 188
0 0 0 255 255 255 0 0 0 255 255 255 0 0 0 255 255 255 0 0 0 255 255
255 0 0 0 255 255 255 0 0 0 255 255 255 0 0 0 255 255 255 0 0 0 255
255 255 0 0 0 255 255 255 0 0 0 255 255 255 0 0 0 255 255 255 0 0 0
255 255 255 0 0 0 255 255 255 0 0 0 255 255 255 0 0 0 255 255 255 0 0
0 255 255 255 0 0 0 255 255 255 0 0 0 255 255 255 0 0 0 255 255 255 0
0 0 255 255 255 0 0 0 255 255 255 0 0 0 255 255 255 0 0 0 255 255 255
0 0 0 255 255 255 0 0 0 255 255 255 0 0 0 255 255 255 0 0 0 255 255
255 0 0 0 255 255 255 0 0 0 255 255 255 0 0 0 255 255 255 0 0 0 255
255 255 0 0 0 255 255 255 0 0 0 255 255 255 0 0 0 255 255 255 0 0 0
255 255 255 0 0 0 255 255 255 0 0 0 255 255 255 0 0 0 255 255 255 0 0
0 255 255 255 0 0 0 255 255 255 0 0 0 255 255 255 0 0 0 255 255 255 0
0 0 255 255 255 0 0 0 255 255 255 0 0 0 255 255 255 0 0 0 255 255 255
0 0 0 255 255 255 0 0 0 255 255 255 0 0 0 255 255 255 0 0 0 255 255
255 128 128 128 128 128 128 128 128 128 128 128 128 128 128 128 128
128 128 128 128 128 128 128 128 128 128 128 128 128 128 128 128 128
128 128 128 128 128 128 128 128 128 128 128 128 128 128 128 128 128
128 128 128 128 128 128 128 128 128 128 128 128 128 128 128 128 128
128 128 128 128 128 128 128 128 128 128 128 128 128 128 128 128 128
128 128 128 128 128 128 128 128 128 128 128 128 128 128 128 128 128
128 128 128 128 128 128 128 128 128 128 128 128 128 128 128 128 128
128 128 128 128 128 128 128 128 128 128 128 128 128 128 128 128 128
128 128 128 128 128 128 128 128 128 128 128 128 128 128 128 128 128
128 128 128 128 128 128 128 128 128 128 128 128 128 128 128 128 128
128 128 128 128 128 128 128 128 128 128 128 128 128 128 128 128 128
128 128 128 128 128 128 128 128 128 128 128 128 128 128 128 128 128
128 128 128 128 128 128 128 128 128 128 128 128 128 128 128 128 128
128 128 128 128 128 128 128 128 128 128 128 128 128 128 128 128 128
128 128 128 128 128 128 128 128 128 128 128 128 128 128 128 128 128
128 128 128 128 128 128 128 128 128 128 128 128 128 128 128 128 128
128 128 128 128 128 128 128 128 128 128 128 128 128 128 128 128 128
128 128 128 128 128 128 128 128 128 128 128 128 188 188 188 188 188
188 188 188 188 188 188 188 188 188 188 188 188 188 188 188 188 188
188 188 188 188 188 188 188 188 188 188 188 188 188 188 188 188 188
188 188 188 188 188 188 188 188 188 188 188 188 188 188 188 188 188
188 188 188 188 188 188 188 188 188 188 188 188 188 188 188 188 188
188 188 188 188 188 188 188 188 188 188 188 188 188 188 188 188 188
188 188 188 188 188 188 188 188 188 188 188 188 188 188 188 188 188
188 188 188 188 188 188 188 188 188 188 188 188 188 188 188 188 188
188 188 188 188 188 188 188 188 188 188 188 188 188 188 188 188 188
188 188 188 188 188 188 188 188 188 188 188 188 188 188 188 188 188
188 188 188 188 188 188 188 188 188 188 188 188 188 188 188 188 188
188 188 188 188 188 188 188 188 188 188 188 188 188 188 188 188 188
188 188 188 188 188 188 188 188 188 188 188 188 188 188 188 188 188
188 188 188 188 188 188 188 188 188 188 188 188 188 188 188 188 188
188 188 188 188 188 188 188 188 188 188 188 188 188 188 188 188 188
188 188 188 188 188 188 188 188 188 188 188 188 188 188 188 188 188
188 188 188 188 188 188 188 188 188 188 188 188 188 188 188 188 188
188 188 188 188 188 188 188 188 188 188 188 188 188 188 188 188 188
188 188 188 188 188 188
255 255 255 0 0 0 255 255 255 0 0 0 255 255 255 0 0 0 255 255 255 0 0
0 255 255 255 0 0 0 255 255 255 0 0 0 255 255 255 0 0 0 255 255 255 0
0 0 255 255 255 0 0 0 255 255 255 0 0 0 255 255 255 0 0 0 255 255 255
0 0 0 255 255 255 0 0 0 255 255 255 0 0 0 255 255 255 0 0 0 255 255
255 0 0 0 255 255 255 0 0 0 255 255 255 0 0 0 255 255 255 0 0 0 255
255 255 0 0 0 255 255 255 0 0 0 255 255 255 0 0 0 255 255 255 0 0 0
255 255 255 0 0 0 255 255 255 0 0 0 255 255 255 0 0 0 255 255 255 0 0
0 255 255 255 0 0 0 255 255 255 0 0 0 255 255 255 0 0 0 255 255 255 0
0 0 255 255 255 0 0 0 255 255 255 0 0 0 255 255 255 0 0 0 255 255 255
0 0 0 255 255 255 0 0 0 255 255 255 0 0 0 255 255 255 0 0 0 255 255
255 0 0 0 255 255 255 0 0 0 255 255 255 0 0 0 255 255 255 0 0 0 255
255 255 0 0 0 255 255 255 0 0 0 255 255 255 0 0 0 255 255 255 0 0 0
255 255 255 0 0 0 255 255 255 0 0 0 255 255 255 0 0 0 255 255 255 0 0
0 128 128 128 128 128 128 128 128 128 128 128 128 128 128 128 128 128
128 128 128 128 128 128 128 128 128 128 128 128 128 128 128 128 128
128 128 128 128 128 128 128 128 128 128 128 128 128 128 128 128 128
128 128 128 128 128 128 128 128 128 128 128 128 128 128 128 128 128
128 128 128 128 128 128 128 128 128 128 128 128 128 128 128 128 128
128 128 128 128 128 128 128 128 128 128 128 128 128 128 128 128 128
128 128 128 128 128 128 128 128 128 128 128 128 128 128 128 128 128
128 128 128 128 128 128 128 128 128 128 128 128 128 128 128 128 128
128 128 128 128 128 128 128 128 128 128 128 128 128 128 128 128 128
128 128 128 128 128 128 128 128 128 128 128 128 128 128 128 128 128
128 128 128 128 128 128 128 128 128 128 128 128 128 128 128 128 128
128 128 128 128 128 128 128 128 128 128 128 128 128 128 128 128 128
128 128 128 128 128 128 128 128 128 128 128 128 128 128 128 128 128
128 128 128 128 128 128 128 128 128 128 128 128 128 128 128 128 128
128 128 128 128 128 128 128 128 128 128 128 128 128 128 128 128 128
128 128 128 128 128 128 128 128 128 128 128 128 128 128 128 128 128
128 128 128 128 128 128 128 128 128 128 128 128 128 128 128 128 128
128 128 128 128 128 128 128 128 128 128 128 188 188 188 188 188 188
188 188 188 188 188 188 188 188 188 188 188 188 188 188 188 188 188
188 188 188 188 188 188 188 188 188 188 188 188 188 188 188 188 188
188 188 188 188 188 188 188 188 188 188 188 188 188 188 188 188 188
188 188 188 188 188 188 188 188 188 188 188 188 188 188 188 188 188
188 188 188 188 188 188 188 188 188 188 188 188 188 188 188 188 188
188 188 188 188 188 188 188 188 188 188 188 188 188 188 188 188 188
188 188 188 188 188 188 188 188 188 188 188 188 188 188 188 188 188
188 188 188 188 188 188 188 188 188 188 188 188 188 188 188 188 188
188 188 188 188 188 188 188 188 188 188 188 188 188 188 188 188 188
188 188 188 188 188 188 188 188 188 188 188 188 188 188 188 188 188
188 188 188 188 188 188 188 188 188 188 188 188 188 188 188 188 188
188 188 188 188 188 188 188 188 188 188 188 188 188 188 188 188 188
188 188 188 188 188 188 188 188 188 188 188 188 188 188 188 188 188
188 188 188 188 188 188 188 188 188 188 188 188 188 188 188 188 188
188 188 188 188 188 188 188 188 188 188 188 188 188 188 188 188 188
188 188 188 188 188 188 188 188 188 188 188 188 188 188 188 188 188
188 188 188 188 188 188 188 188 188 188 188 188 188 188 188 188 188
188 188 188 188 188
0 0 0 255 255 255 0 0 0 255 255 255 0 0 0 255 255 255 0 0 0 255 255
255 0 0 0 255 255 255 0 0 0 255 255 255 0 0 0 255 255 255 0 0 0 255
255 255 0 0 0 255 255 255 0 0 0 255 255 255 0 0 0 255 255 255 0 0 0
255 255 255 0 0 0 255 255 255 0 0 0 255 255 255 0 0 0 255 255 255 0 0
0 255 255 255 0 0 0 255 255 255 0 0 0 255 255 255 0 0 0 255 255 255 0
0 0 255 255 255 0 0 0 255 255 255 0 0 0 255 255 255 0 0 0 255 255 255
0 0 0 255 255 255 0 0 0 255 255 255 0 0 0 255 255 255 0 0 0 255 255
255 0 0 0 255 255 255 0 0 0 255 255 255 0 0 0 255 255 255 0 0 0 255
255 255 0 0 0 255 255 255 0 0 0 255 255 255 0 0 0 255 255 255 0 0 0
255 255 255 0 0 0 255 255 255 0 0 0 255 255 255 0 0 0 255 255 255 0 0
0 255 255 255 0 0 0 255 255 255 0 0 0 255 255 255 0 0 0 255 255 255 0
0 0 255 255 255 0 0 0 255 255 255 0 0 0 255 255 255 0 0 0 255 255 255
0 0 0 255 255 255 0 0 0 255 255 255 0 0 0 255 255 255 0 0 0 255 255
255 128 128 128 128 128 128 128 128 128 128 128 128 128 128 128 128
128 128 128 128 128 128 128 128 128 128 128 128 128 128 128 128 128
128 128 128 128 128 128 128 128 128 128 128 128 128 128 128 128 128
128 128 128 128 128 128 128 128 128 128 128 128 128 128 128 128 128
128 128 128 128 128 128 128 128 128 128 128 128 128 128 128 128 128
128 128 128 128 128 128 128 128 128 128 128 128 128 128 128 128 128
128 128 128 128 128 128 128 128 128 128 128 128 128 128 128 128 128
128 128 128 128 128 128 128 128 128 128 128 128 128 128 128 128 128
128 128 128 128 128 128 128 128 128 128 128 128 128 128 128 128 128
128 128 128 128 128 128 128 128 128 128 128 128 128 128 128 128 128
128 128 128 128 128 128 128 128 128 128 128 128 128 128 128 128 128
128 128 128 128 128 128 128 128 128 128 128 128 128 128 128 128 128
128 128 128 128 128 128 128 128 128 128 128 128 128 128 128 128 128
128 128 128 128 128 128 128 128 128 128 128 128 128 128 128 128 128
128 128 128 128 128 128 128 128 128 128 128 128 128 128 128 128 128
128 128 128 128 128 128 128 128 128 128 128 128 128 128 128 128 128
128 128 128 128 128 128 128 128 128 128 128 128 128 128 128 128 128
128 128 128 128 128 128 128 128 128 128 128 128 188 188 188 188 188
188 188 188 188 188 188 188 188 188 188 188 188 188 188 188 188 188
188 188 188 188 188 188 188 188 188 188 188 188 188 188 188 188 188
188 188 188 188 188 188 188 188 188 188 188 188 188 188 188 188 188
188 188 188 188 188 188 188 188 188 188 188 188 188 188 188 188 188
188 188 188 188 188 188 188 188 188 188 188 188 188 188 188 188 188
188 188 188 188 188 188 188 188 188 188 188 188 188 188 188 188 188
188 188 188 188 188 188 188 188 188 188 188 188 188 188 188 188 188
188 188 188 188 188 188 188 188 188 188 188 188 188 188 188 188 188
188 188 188 188 188 188 188 188 188 188 188 188 188 188 188 188 188
188 188 188 188 188 188 188 188 188 188 188 188 188 188 188 188 188
188 188 188 188 188 188 188 188 188 188 188 188 188 188 188 188 188
188 188 188 188 188 188 188 188 188 188 188 188 188 188 188 188 188
188 188 188 188 188 188 188 188 188 188 188 188 188 188 188 188 188
188 188 188 188 188 188 188 188 188 188 188 188 188 188 188 188 188
188 188 188 188 188 188 188 188 188 188 188 188 188 188 188 188 188
188 188 188 188 188 188 188 188 188 188 188 188 188 188 188 188 188
188 188 188 188 188 188 188 188 188 188 188 188 188 188 188 188 188
188 188 188 188 188 188
255 255 255 0 0 0 255 255 255 0 0 0 255 255 255 0 0 0 255 255 255 0 0
0 255 255 255 0 0 0 255 255 255 0 0 0 255 255 255 0 0 0 255 255 255 0
0 0 255 255 255 0 0 0 255 255 255 0 0 0 255 255 255 0 0 0 255 255 255
0 0 0 255 255 255 0 0 0 255 255 255 0 0 0 255 255 255 0 0 0 255 255
255 0 0 0 255 255 255 0 0 0 255 255 255 0 0 0 255 255 255 0 0 0 255
255 255 0 0 0 255 255 255 0 0 0 255 255 255 0 0 0 255 255 255 0 0 0
255 255 255 0 0 0 255 255 255 0 0 0 255 255 255 0 0 0 255 255 255 0 0
0 255 255 255 0 0 0 255 255 255 0 0 0 255 255 255 0 0 0 255 255 255 0
0 0 255 255 255 0 0 0 255 255 255 0 0 0 255 255 255 0 0 0 255 255 255
0 0 0 255 255 255 0 0 0 255 255 255 0 0 0 255 255 255 0 0 0 255 255
255 0 0 0 255 255 255 0 0 0 255 255 255 0 0 0 255 255 255 0 0 0 255
255 255 0 0 0 255 255 255 0 0 0 255 255 255 0 0 0 255 255 255 0 0 0
255 255 255 0 0 0 255 255 255 0 0 0 255 255 255 0 0 0 255 255 255 0 0
0 128 128 128 128 128 128 128 128 128 128 128 128 128 128 128 128 128
128 128 128 128 128 128 128 128 128 128 128 128 128 128 128 128 128
128 128 128 128 128 128 128 128 128 128 128 128 128 128 128 128 128
128 128 128 128 128 128 128 128 128 128 128 128 128 128 128 128 128
128 128 128 128 128 128 128 128 128 128 128 128 128 128 128 128 128
128 128 128 128 128 128 128 128 128 128 128 128 128 128 128 128 128
128 128 128 128 128 128 128 128 128 128 128 128 128 128 128 128 128
128 128 128 128 128 128 128 128 128 128 128 128 128 128 128 128 128
128 128 128 128 128 128 128 128 128 128 128 128 128 128 128 128 128
128 128 128 128 128 128 128 128 128 128 128 128 128 128 128 128 128
128 128 128 128 128 128 128 128 128 128 128 128 128 128 128 128 128
128 128 128 128 128 128 128 128 128 128 128 128 128 128 128 128 128
128 128 128 128 128 128 128 128 128 128 128 128 128 128 128 128 128
128 128 128 128 128 128 128 128 128 128 128 128 128 128 128 128 128
128 128 128 128 128 128 128 128 128 128 128 128 128 128 128 128 128
128 128 128 128 128 128 128 128 128 128 128 128 128 128 128 128 128
128 128 128 128 128 128 128 128 128 128 128 128 128 128 128 128 128
128 128 128 128 128 128 128 128 128 128 128 188 188 188 188 188 188
188 188 188 188 188 188 188 188 188 188 188 188 188 188 188 188 188
188 188 188 188 188 188 188 188 188 188 188 188 188 188 188 188 188
188 188 188 188 188 188 188 188 188 188 188 188 188 188 188 188 188
188 188 188 188 188 188 188 188 188 188 188 188 188 188 188 188 188
188 188 188 188 188 188 188 188 188 188 188 188 188 188 188 188 188
188 188 188 188 188 188 188 188 188 188 188 188 188 188 188 188 188
188 188 188 188 188 188 188 188 188 188 188 188 188 188 188 188 188
188 188 188 188 188 188 188 188 188 188 188 188 188 188 188 188 188
188 188 188 188 188 188 188 188 188 188 188 188 188 188 188 188 188
188 188 188 188 188 188 188 188 188 188 188 188 188 188 188 188 188
188 188 188 188 188 188 188 188 188 188 188 188 188 188 188 188 188
188 188 188 188 188 188 188 188 188 188 188 188 188 188 188 188 188
188 188 188 188 188 188 188 188 188 188 188 188 188 188 188 188 188
188 188 188 188 188 188 188 188 188 188 188 188 188 188 188 188 188
188 188 188 188 188 188 188 188 188 188 188 188 188 188 188 188 188
188 188 188 188 188 188 188 188 188 188 188 188 188 188 188 188 188
188 188 188 188 188 188 188 188 188 188 188 188 188 188 188 188 188
188 188 188 188 188
0 0 0 255 255 255 0 0 0 255 255 255 0 0 0 255 255 255 0 0 0 255 255
255 0 0 0 255 255 255 0 0 0 255 255 255 0 0 0 255 255 255 0 0 0 255
255 255 0 0 0 255 255 255 0 0 0 255 255 255 0 0 0 255 255 255 0 0 0
255 255 255 0 0 0 255 255 255 0 0 0 255 255 255 0 0 0 255 255 255 0 0
0 255 255 255 0 0 0 255 255 255 0 0 0 255 255 255 0 0 0 255 255 255 0
0 0 255 255 255 0 0 0 255 255 255 0 0 0 255 255 255 0 0 0 255 255 255
0 0 0 255 255 255 0 0 0 255 255 255 0 0 0 255 255 255 0 0 0 255 255
255 0 0 0 255 255 255 0 0 0 255 255 255 0 0 0 255 255 255 0 0 0 255
255 255 0 0 0 255 255 255 0 0 0 255 255 255 0 0 0 255 255 255 0 0 0
255 255 255 0 0 0 255 255 255 0 0 0 255 255 255 0 0 0 255 255 255 0 0
0 255 255 255 0 0 0 255 255 255 0 0 0 255 255 255 0 0 0 255 255 255 0
0 0 255 255 255 0 0 0 255 255 255 0 0 0 255 255 255 0 0 0 255 255 255
0 0 0 255 255 255 0 0 0 255 255 255 0 0 0 255 255 255 0 0 0 255 255
255 128 128 128 128 128 128 128 128 128 128 128 128 128 128 128 128
128 128 128 128 128 128 128 128 128 128 128 128 128 128 128 128 128
128 128 128 128 128 128 128 128 128 128 128 128 128 128 128 128 128
128 128 128 128 128 128 128 128 128 128 128 128 128 128 128 128 128
128 128 128 128 128 128 128 128 128 128 128 128 128 128 128 128 128
128 128 128 128 128 128 128 128 128 128 128 128 128 128 128 128 128
128 128 128 128 128 128 128 128 128 128 128 128 128 128 128 128 128
128 128 128 128 128 128 128 128 128 128 128 128 128 128 128 128 128
128 128 128 128 128 128 128 128 128 128 128 128 128 128 128 128 128
128 128 128 128 128 128 128 128 128 128 128 128 128 128 128 128 128
128 128 128 128 128 128 128 128 128 128 128 128 128 128 128 128 128
128 128 128 128 128 128 128 128 128 128 128 128 128 128 128 128 128
128 128 128 128 128 128 128 128 128 128 128 128 128 128 128 128 128
128 128 128 128 128 128 128 128 128 128 128 128 128 128 128 128 128
128 128 128 128 128 128 128 128 128 128 128 128 128 128 128 128 128
128 128 128 128 128 128 128 128 128 128 128 128 128 128 128 128 128
128 128 128 128 128 128 128 128 128 128 128 128 128 128 128 128 128
128 128 128 128 128 128 128 128 128 128 128 128 188 188 188 188 188
188 188 188 188 188 188 188 188 188 188 188 188 188 188 188 188 188
188 188 188 188 188 188 188 188 188 188 188 188 188 188 188 188 188
188 188 188 188 188 188 188 188 188 188 188 188 188 188 188 188 188
188 188 188 188 188 188 188 188 188 188 188 188 188 188 188 188 188
188 188 188 188 188 188 188 188 188 188 188 188 188 188 188 188 188
188 188 188 188 188 188 188 188 188 188 188 188 188 188 188 188 188
188 188 188 188 188 188 188 188 188 188 188 188 188 188 188 188 188
188 188 188 188 188 188 188 188 188 188 188 188 188 188 188 188 188
188 188 188 188 188 188 188 188 188 188 188 188 188 188 188 188 188
188 188 188 188 188 188 188 188 188 188 188 188 188 188 188 188 188
188 188 188 188 188 188 188 188 188 188 188 188 188 188 188 188 188
188 188 188 188 188 188 188 188 188 188 188 188 188 188 188 188 188
188 188 188 188 188 188 188 188 188 188 188 188 188 188 188 188 188
188 188 188 188 188 188 188 188 188 188 188 188 188 188 188 188 188
188 188 188 188 188 188 188 188 188 188 188 188 188 188 188 188 188
188 188 188 188 188 188 188 188 188 188 188 188 188 188 188 188 188
188 188 188 188 188 188 188 188 188 188 188 188 188 188 188 188 188
188 188 188 188 188 188
255 255 255 0 0 0 255 255 255 0 0 0 255 255 255 0 0 0 255 255 255 0 0
0 255 255 255 0 0 0 255 255 255 0 0 0 255 255 255 0 0 0 255 255 255 0
0 0 255 255 255 0 0 0 255 255 255 0 0 0 255 255 255 0 0 0 255 255 255
0 0 0 255 255 255 0 0 0 255 255 255 0 0 0 255 255 255 0 0 0 255 255
255 0 0 0 255 255 255 0 0 0 255 255 255 0 0 0 255 255 255 0 0 0 255
255 255 0 0 0 255 255 255 0 0 0 255 255 255 0 0 0 255 255 255 0 0 0
255 255 255 0 0 0 255 255 255 0 0 0 255 255 255 0 0 0 255 255 255 0 0
0 255 255 255 0 0 0 255 255 255 0 0 0 255 255 255 0 0 0 255 255 255 0
0 0 255 255 255 0 0 0 255 255 255 0 0 0 255 255 255 0 0 0 255 255 255
0 0 0 255 255 255 0 0 0 255 255 255 0 0 0 255 255 255 0 0 0 255 255
255 0 0 0 255 255 255 0 0 0 255 255 255 0 0 0 255 255 255 0 0 0 255
255 255 0 0 0 255 255 255 0 0 0 255 255 255 0 0 0 255 255 255 0 0 0
255 255 255 0 0 0 255 255 255 0 0 0 255 255 255 0 0 0 255 255 255 0 0
0 128 128 128 128 128 128 128 128 128 128 128 128 128 128 128 128 128
128 128 128 128 128 128 128 128 128 128 128 128 128 128 128 128 128
128 128 128 128 128 128 128 128 128 128 128 128 128 128 128 128 128
128 128 128 128 128 128 128 128 128 128 128 128 128 128 128 128 128
128 128 128 128 128 128 128 128 128 128 128 128 128 128 128 128 128
128 128 128 128 128 128 128 128 128 128 128 128 128 128 128 128 128
128 128 128 128 128 128 128 128 128 128 128 128 128 128 128 128 128
128 128 128 128 128 128 128 128 128 128 128 128 128 128 128 128 128
128 128 128 128 128 128 128 128 128 128 128 128 128 128 128 128 128
128 128 128 128 128 128 128 128 128 128 128 128 128 128 128 128 128
128 128 128 128 128 128 128 128 128 128 128 128 128 128 128 128 128
128 128 128 128 128 128 128 128 128 128 128 128 128 128 128 128 128
128 128 128 128 128 128 128 128 128 128 128 128 128 128 128 128 128
128 128 128 128 128 128 128 128 128 128 128 128 128 128 128 128 128
128 128 128 128 128 128 128 128 128 128 128 128 128 128 128 128 128
128 128 128 128 128 128 128 128 128 128 128 128 128 128 128 128 128
128 128 128 128 128 128 128 128 128 128 128 128 128 128 128 128 128
128 128 128 128 128 128 128 128 128 128 128 188 188 188 188 188 188
188 188 188 188 188 188 188 188 188 188 188 188 188 188 188 188 188
188 188 188 188 188 188 188 188 188 188 188 188 188 188 188 188 188
188 188 188 188 188 188 188 188 188 188 188 188 188 188 188 188 188
188 188 188 188 188 188 188 188 188 188 188 188 188 188 188 188 188
188 188 188 188 188 188 188 188 188 188 188 188 188 188 188 188 188
188 188 188 188 188 188 188 188 188 188 188 188 188 188 188 188 188
188 188 188 188 188 188 188 188 188 188 188 188 188 188 188 188 188
188 188 188 188 188 188 188 188 188 188 188 188 188 188 188 188 188
188 188 188 188 188 188 188 188 188 188 188 188 188 188 188 188 188
188 188 188 188 188 188 188 188 188 188 188 188 188 188 188 188 188
188 188 188 188 188 188 188 188 188 188 188 188 188 188 188 188 188
188 188 188 188 188 188 188 188 188 188 188 188 188 188 188 188 188
188 188 188 188 188 188 188 188 188 188 188 188 188 188 188 188 188
188 188 188 188 188 188 188 188 188 188 188 188 188 188 188 188 188
188 188 188 188 188 188 188 188 188 188 188 188 188 188 188 188 188
188 188 188 188 188 188 188 188 188 188 188 188 188 188 188 188 188
188 188 188 188 188 188 188 188 188 188 188 188 188 188 188 188 188
188 188 188 188 188
0 0 0 255 255 255 0 0 0 255 255 255 0 0 0 255 255 255 0 0 0 255 255
255 0 0 0 255 255 255 0 0 0 255 255 255 0 0 0 255 255 255 0 0 0 255
255 255 0 0 0 255 255 255 0 0 0 255 255 255 0 0 0 255 255 255 0 0 0
255 255 255 0 0 0 255 255 255 0 0 0 255 255 255 0 0 0 255 255 255 0 0
0 255 255 255 0 0 0 255 255 255 0 0 0 255 255 255 0 0 0 255 255 255 0
0 0 255 255 255 0 0 0 255 255 255 0 0 0 255 255 255 0 0 0 255 255 255
0 0 0 255 255 255 0 0 0 255 255 255 0 0 0 255 255 255 0 0 0 255 255
255 0 0 0 255 255 255 0 0 0 255 255 255 0 0 0 255 255 255 0 0 0 255
255 255 0 0 0 255 255 255 0 0 0 255 255 255 0 0 0 255 255 255 0 0 0
255 255 255 0 0 0 255 255 255 0 0 0 255 255 255 0 0 0 255 255 255 0 0
0 255 255 255 0 0 0 255 255 255 0 0 0 255 255 255 0 0 0 255 255 255 0
0 0 255 255 255 0 0 0 255 255 255 0 0 0 255 255 255 0 0 0 255 255 255
0 0 0 255 255 255 0 0 0 255 255 255 0 0 0 255 255 255 0 0 0 255 255
255 128 128 128 128 128 128 128 128 128 128 128 128 128 128 128 128
128 128 128 128 128 128 128 128 128 128 128 128 128 128 128 128 128
128 128 128 128 128 128 128 128 128 128 128 128 128 128 128 128 128
128 128 128 128 128 128 128 128 128 128 128 128 128 128 128 128 128
128 128 128 128 128 128 128 128 128 128 128 128 128 128 128 128 128
128 128 128 128 128 128 128 128 128 128 128 128 128 128 128 128 128
128 128 128 128 128 128 128 128 128 128 128 128 128 128 128 128 128
128 128 128 128 128 128 128 128 128 128 128 128 128 128 128 128 128
128 128 128 128 128 128 128 128 128 128 128 128 128 128 128 128 128
128 128 128 128 128 128 128 128 128 128 128 128 128 128 128 128 128
128 128 128 128 128 128 128 128 128 128 128 128 128 128 128 128 128
128 128 128 128 128 128 128 128 128 128 128 128 128 128 128 128 128
128 128 128 128 128 128 128 128 128 128 128 128 128 128 128 128 128
128 128 128 128 128 128 128 128 128 128 128 128 128 128 128 128 128
128 128 128 128 128 128 128 128 128 128 128 128 128 128 128 128 128
128 128 128 128 128 128 128 128 128 128 128 128 128 128 128 128 128
128 128 128 128 128 128 128 128 128 128 128 128 128 128 128 128 128
128 128 128 128 128 128 128 128 128 128 128 128 188 188 188 188 188
188 188 188 188 188 188 188 188 188 188 188 188 188 188 188 188 188
188 188 188 188 188 188 188 188 188 188 188 188 188 188 188 188 188
188 188 188 188 188 188 188 188 188 188 188 188 188 188 188 188 188
188 188 188 188 188 188 188 188 188 188 188 188 188 188 188 188 188
188 188 188 188 188 188 188 188 188 188 188 188 188 188 188 188 188
188 188 188 188 188 188 188 188 188 188 188 188 188 188 188 188 188
188 188 188 188 188 188 188 188 188 188 188 188 188 188 188 188 188
188 188 188 188 188 188 188 188 188 188 188 188 188 188 188 188 188
188 188 188 188 188 188 188 188 188 188 188 188 188 188 188 188 188
188 188 188 188 188 188 188 188 188 188 188 188 188 188 188 188 188
188 188 188 188 188 188 188 188 188 188 188 188 188 188 188 188 188
188 188 188 188 188 188 188 188 188 188 188 188 188 188 188 188 188
188 188 188 188 188 188 188 188 188 188 188 188 188 188 188 188 188
188 188 188 188 188 188 188 188 188 188 188 188 188 188 188 188 188
188 188 188 188 188 188 188 188 188 188 188 188 188 188 188 188 188
188 188 188 188 188 188 188 188 188 188 188 188 188 188 188 188 188
188 188 188 188 188 188 188 188 188 188 188 188 188 188 188 188 188
188 188 188 188 188 188
255 255 255 0 0 0 255 255 255 0 0 0 255 255 255 0 0 0 255 255 255 0 0
0 255 255 255 0 0 0 255 255 255 0 0 0 255 255 255 0 0 0 255 255 255 0
0 0 255 255 255 0 0 0 255 255 255 0 0 0 255 255 255 0 0 0 255 255 255
0 0 0 255 255 255 0 0 0 255 255 255 0 0 0 255 255 255 0 0 0 255 255
255 0 0 0 255 255 255 0 0 0 255 255 255 0 0 0 255 255 255 0 0 0 255
255 255 0 0 0 255 255 255 0 0 0 255 255 255 0 0 0 255 255 255 0 0 0
255 255 255 0 0 0 255 255 255 0 0 0 255 255 255 0 0 0 255 255 255 0 0
0 255 255 255 0 0 0 255 255 255 0 0 0 255 255 255 0 0 0 255 255 255 0
0 0 255 255 255 0 0 0 255 255 255 0 0 0 255 255 255 0 0 0 255 255 255
0 0 0 255 255 255 0 0 0 255 255 255 0 0 0 255 255 255 0 0 0 255 255
255 0 0 0 255 255 255 0 0 0 255 255 255 0 0 0 255 255 255 0 0 0 255
255 255 0 0 0 255 255 255 0 0 0 255 255 255 0 0 0 255 255 255 0 0 0
255 255 255 0 0 0 255 255 255 0 0 0 255 255 255 0 0 0 255 255 255 0 0
0 128 128 128 128 128 128 128 128 128 128 128 128 128 128 128 128 128
128 128 128 128 128 128 128 128 128 128 128 128 128 128 128 128 128
128 128 128 128 128 128 128 128 128 128 128 128 128 128 128 128 128
128 128 128 128 128 128 128 128 128 128 128 128 128 128 128 128 128
128 128 128 128 128 128 128 128 128 128 128 128 128 128 128 128 128
128 128 128 128 128 128 128 128 128 128 128 128 128 128 128 128 128
128 128 128 128 128 128 128 128 128 128 128 128 128 128 128 128 128
128 128 128 128 128 128 128 128 128 128 128 128 128 128 128 128 128
128 128 128 128 128 128 128 128 128 128 128 128 128 128 128 128 128
128 128 128 128 128 128 128 128 128 128 128 128 128 128 128 128 128
128 128 128 128 128 128 128 128 128 128 128 128 128 128 128 128 128
128 128 128 128 128 128 128 128 128 128 128 128 128 128 128 128 128
128 128 128 128 128 128 128 128 128 128 128 128 128 128 128 128 128
128 128 128 128 128 128 128 128 128 128 128 128 128 128 128 128 128
128 128 128 128 128 128 128 128 128 128 128 128 128 128 128 128 128
128 128 128 128 128 128 128 128 128 128 128 128 128 128 128 128 128
128 128 128 128 128 128 128 128 128 128 128 128 128 128 128 128 128
128 128 128 128 128 128 128 128 128 128 128 188 188 188 188 188 188
188 188 188 188 188 188 188 188 188 188 188 188 188 188 188 188 188
188 188 188 188 188 188 188 188 188 188 188 188 188 188 188 188 188
188 188 188 188 188 188 188 188 188 188 188 188 188 188 188 188 188
188 188 188 188 188 188 188 188 188 188 188 188 188 188 188 188 188
188 188 188 188 188 188 188 188 188 188 188 188 188 188 188 188 188
188 188 188 188 188 188 188 188 188 188 188 188 188 188 188 188 188
188 188 188 188 188 188 188 188 188 188 188 188 188 188 188 188 188
188 188 188 188 188 188 188 188 188 188 188 188 188 188 188 188 188
188 188 188 188 188 188 188 188 188 188 188 188 188 188 188 188 188
188 188 188 188 188 188 188 188 188 188 188 188 188 188 188 188 188
188 188 188 188 188 188 188 188 188 188 188 188 188 188 188 188 188
188 188 188 188 188 188 188 188 188 188 188 188 188 188 188 188 188
188 188 188 188 188 188 188 188 188 188 188 188 188 188 188 188 188
188 188 188 188 188 188 188 188 188 188 188 188 188 188 188 188 188
188 188 188 188 188 188 188 188 188 188 188 188 188 188 188 188 188
188 188 188 188 188 188 188 188 188 188 188 188 188 188 188 188 188
188 188 188 188 188 188 188 188 188 188 188 188 188 188 188 188 188
188 188 188 188 188
0 0 0 255 255 255 0 0 0 255 255 255 0 0 0 255 255 255 0 0 0 255 255
255 0 0 0 255 255 255 0 0 0 255 255 255 0 0 0 255 255 255 0 0 0 255
255 255 0 0 0 255 255 255 0 0 0 255 255 255 0 0 0 255 255 255 0 0 0
255 255 255 0 0 0 255 255 255 0 0 0 255 255 255 0 0 0 255 255 255 0 0
0 255 255 255 0 0 0 255 255 255 0 0 0 255 255 255 0 0 0 255 255 255 0
0 0 255 255 255 0 0 0 255 255 255 0 0 0 255 255 255 0 0 0 255 255 255
0 0 0 255 255 255 0 0 0 255 255 255 0 0 0 255 255 255 0 0 0 255 255
255 0 0 0 255 255 255 0 0 0 255 255 255 0 0 0 255 255 255 0 0 0 255
255 255 0 0 0 255 255 255 0 0 0 255 255 255 0 0 0 255 255 255 0 0 0
255 255 255 0 0 0 255 255 255 0 0 0 255 255 255 0 0 0 255 255 255 0 0
0 255 255 255 0 0 0 255 255 255 0 0 0 255 255 255 0 0 0 255 255 255 0
0 0 255 255 255 0 0 0 255 255 255 0 0 0 255 255 255 0 0 0 255 255 255
0 0 0 255 255 255 0 0 0 255 255 255 0 0 0 255 255 255 0 0 0 255 255
255 128 128 128 128 128 128 128 128 128 128 128 128 128 128 128 128
128 128 128 128 128 128 128 128 128 128 128 128 128 128 128 128 128
128 128 128 128 128 128 128 128 128 128 128 128 128 128 128 128 128
128 128 128 128 128 128 128 128 128 128 128 128 128 128 128 128 128
128 128 128 128 128 128 128 128 128 128 128 128 128 128 128 128 128
128 128 128 128 128 128 128 128 128 128 128 128 128 128 128 128 128
128 128 128 128 128 128 128 128 128 128 128 128 128 128 128 128 128
128 128 128 128 128 128 128 128 128 128 128 128 128 128 128 128 128
128 128 128 128 128 128 128 128 128 128 128 128 128 128 128 128 128
128 128 128 128 128 128 128 128 128 128 128 128 128 128 128 128 128
128 128 128 128 128 128 128 128 128 128 128 128 128 128 128 128 128
128 128 128 128 128 128 128 128 128 128 128 128 128 128 128 128 128
128 128 128 128 128 128 128 128 128 128 128 128 128 128 128 128 128
128 128 128 128 128 128 128 128 128 128 128 128 128 128 128 128 128
128 128 128 128 128 128 128 128 128 128 128 128 128 128 128 128 128
128 128 128 128 128 128 128 128 128 128 128 128 128 128 128 128 128
128 128 128 128 128 128 128 128 128 128 128 128 128 128 128 128 128
128 128 128 128 128 128 128 128 128 128 128 128 188 188 188 188 188
188 188 188 188 188 188 188 188 188 188 188 188 188 188 188 188 188
188 188 188 188 188 188 188 188 188 188 188 188 188 188 188 188 188
188 188 188 188 188 188 188 188 188 188 188 188 188 188 188 188 188
188 188 188 188 188 188 188 188 188 188 188 188 188 188 188 188 188
188 188 188 188 188 188 188 188 188 188 188 188 188 188 188 188 188
188 188 188 188 188 188 188 188 188 188 188 188 188 188 188 188 188
188 188 188 188 188 188 188 188 188 188 188 188 188 188 188 188 188
188 188 188 188 188 188 188 188 188 188 188 188 188 188 188 188 188
188 188 188 188 188 188 188 188 188 188 188 188 188 188 188 188 188
188 188 188 188 188 188 188 188 188 188 188 188 188 188 188 188 188
188 188 188 188 188 188 188 188 188 188 188 188 188 188 188 188 188
188 188 188 188 188 188 188 188 188 188 188 188 188 188 188 188 188
188 188 188 188 188 188 188 188 188 188 188 188 188 188 188 188 188
188 188 188 188 188 188 188 188 188 188 188 188 188 188 188 188 188
188 188 188 188 188 188 188 188 188 188 188 188 188 188 188 188 188
188 188 188 188 188 188 188 188 188 188 188 188 188 188 188 188 188
188 188 188 188 188 188 188 188 188 188 188 188 188 188 188 188 188
188 188 188 188 188 188
255 255 255 0 0 0 255 255 255 0 0 0 255 255 255 0 0 0 255 255 255 0 0
0 255 255 255 0 0 0 255 255 255 0 0 0 255 255 255 0 0 0 255 255 255 0
0 0 255 255 255 0 0 0 255 255 255 0 0 0 255 255 255 0 0 0 255 255 255
0 0 0 255 255 255 0 0 0 255 255 255 0 0 0 255 255 255 0 0 0 255 255
255 0 0 0 255 255 255 0 0 0 255 255 255 0 0 0 255 255 255 0 0 0 255
255 255 0 0 0 255 255 255 0 0 0 255 255 255 0 0 0 255 255 255 0 0 0
255 255 255 0 0 0 255 255 255 0 0 0 255 255 255 0 0 0 255 255 255 0 0
0 255 255 255 0 0 0 255 255 255 0 0 0 255 255 255 0 0 0 255 255 255 0
0 0 255 255 255 0 0 0 255 255 255 0 0 0 255 255 255 0 0 0 255 255 255
0 0 0 255 255 255 0 0 0 255 255 255 0 0 0 255 255 255 0 0 0 255 255
255 0 0 0 255 255 255 0 0 0 255 255 255 0 0 0 255 255 255 0 0 0 255
255 255 0 0 0 255 255 255 0 0 0 255 255 255 0 0 0 255 255 255 0 0 0
255 255 255 0 0 0 255 255 255 0 0 0 255 255 255 0 0 0 255 255 255 0 0
0 128 128 128 128 128 128 128 128 128 128 128 128 128 128 128 128 128
128 128 128 128 128 128 128 128 128 128 128 128 128 128 128 128 128
128 128 128 128 128 128 128 128 128 128 128 128 128 128 128 128 128
128 128 128 128 128 128 128 128 128 128 128 128 128 128 128 128 128
128 128 128 128 128 128 128 128 128 128 128 128 128 128 128 128 128
128 128 128 128 128 128 128 128 128 128 128 128 128 128 128 128 128
128 128 128 128 128 128 128 128 128 128 128 128 128 128 128 128 128
128 128 128 128 128 128 128 128 128 128 128 128 128 128 128 128 128
128 128 128 128 128 128 128 128 128 128 128 128 128 128 128 128 128
128 128 128 128 128 128 128 128 128 128 128 128 128 128 128 128 128
128 128 128 128 128 128 128 128 128 128 128 128 128 128 128 128 128
128 128 128 128 128 128 128 128 128 128 128 128 128 128 128 128 128
128 128 128 128 128 128 128 128 128 128 128 128 128 128 128 128 128
128 128 128 128 128 128 128 128 128 128 128 128 128 128 128 128 128
128 128 128 128 128 128 128 128 128 128 128 128 128 128 128 128 128
128 128 128 128 128 128 128 128 128 128 128 128 128 128 128 128 128
128 128 128 128 128 128 128 128 128 128 128 128 128 128 128 128 128
128 128 128 128 128 128 128 128 128 128 128 188 188 188 188 188 188
188 188 188 188 188 188 188 188 188 188 188 188 188 188 188 188 188
188 188 188 188 188 188 188 188 188 188 188 188 188 188 188 188 188
188 188 188 188 188 188 188 188 188 188 188 188 188 188 188 188 188
188 188 188 188 188 188 188 188 188 188 188 188 188 188 188 188 188
188 188 188 188 188 188 188 188 188 188 188 188 188 188 188 188 188
188 188 188 188 188 188 188 188 188 188 188 188 188 188 188 188 188
188 188 188 188 188 188 188 188 188 188 188 188 188 188 188 188 188
188 188 188 188 188 188 188 188 188 188 188 188 188 188 188 188 188
188 188 188 188 188 188 188 188 188 188 188 188 188 188 188 188 188
188 188 188 188 188 188 188 188 188 188 188 188 188 188 188 188 188
188 188 188 188 188 188 188 188 188 188 188 188 188 188 188 188 188
188 188 188 188 188 188 188 188 188 188 188 188 188 188 188 188 188
188 188 188 188 188 188 188 188 188 188 188 188 188 188 188 188 188
188 188 188 188 188 188 188 188 188 188 188 188 188 188 188 188 188
188 188 188 188 188 188 188 188 188 188 188 188 188 188 188 188 188
188 188 188 188 188 188 188 188 188 188 188 188 188 188 188 188 188
188 188 188 188 188 188 188 188 188 188 188 188 188 188 188 188 188
188 188 188 188 188
0 0 0 255 255 255 0 0 0 255 255 255 0 0 0 255 255 255 0 0 0 255 255
255 0 0 0 255 255 255 0 0 0 255 255 255 0 0 0 255 255 255 0 0 0 255
255 255 0 0 0 255 255 255 0 0 0 255 255 255 0 0 0 255 255 255 0 0 0
255 255 255 0 0 0 255 255 255 0 0 0 255 255 255 0 0 0 255 255 255 0 0
0 255 255 255 0 0 0 255 255 255 0 0 0 255 255 255 0 0 0 255 255 255 0
0 0 255 255 255 0 0 0 255 255 255 0 0 0 255 255 255 0 0 0 255 255 255
0 0 0 255 255 255 0 0 0 255 255 255 0 0 0 255 255 255 0 0 0 255 255
255 0 0 0 255 255 255 0 0 0 255 255 255 0 0 0 255 255 255 0 0 0 255
255 255 0 0 0 255 255 255 0 0 0 255 255 255 0 0 0 255 255 255 0 0 0
255 255 255 0 0 0 255 255 255 0 0 0 255 255 255 0 0 0 255 255 255 0 0
0 255 255 255 0 0 0 255 255 255 0 0 0 255 255 255 0 0 0 255 255 255 0
0 0 255 255 255 0 0 0 255 255 255 0 0 0 255 255 255 0 0 0 255 255 255
0 0 0 255 255 255 0 0 0 255 255 255 0 0 0 255 255 255 0 0 0 255 255
255 128 128 128 128 128 128 128 128 128 128 128 128 128 128 128 128
128 128 128 128 128 128 128 128 128 128 128 128 128 128 128 128 128
128 128 128 128 128 128 128 128 128 128 128 128 128 128 128 128 128
128 128 128 128 128 128 128 128 128 128 128 128 128 128 128 128 128
128 128 128 128 128 128 128 128 128 128 128 128 128 128 128 128 128
128 128 128 128 128 128 128 128 128 128 128 128 128 128 128 128 128
128 128 128 128 128 128 128 128 128 128 128 128 128 128 128 128 128
128 128 128 128 128 128 128 128 128 128 128 128 128 128 128 128 128
128 128 128 128 128 128 128 128 128 128 128 128 128 128 128 128 128
128 128 128 128 128 128 128 128 128 128 128 128 128 128 128 128 128
128 128 128 128 128 128 128 128 128 128 128 128 128 128 128 128 128
128 128 128 128 128 128 128 128 128 128 128 128 128 128 128 128 128
128 128 128 128 128 128 128 128 128 128 128 128 128 128 128 128 128
128 128 128 128 128 128 128 128 128 128 128 128 128 128 128 128 128
128 128 128 128 128 128 128 128 128 128 128 128 128 128 128 128 128
128 128 128 128 128 128 128 128 128 128 128 128 128 128 128 128 128
128 128 128 128 128 128 128 128 128 128 128 128 128 128 128 128 128
128 128 128 128 128 128 128 128 128 128 128 128 188 188 188 188 188
188 188 188 188 188 188 188 188 188 188 188 188 188 188 188 188 188
188 188 188 188 188 188 188 188 188 188 188 188 188 188 188 188 188
188 188 188 188 188 188 188 188 188 188 188 188 188 188 188 188 188
188 188 188 188 188 188 188 188 188 188 188 188 188 188 188 188 188
188 188 188 188 188 188 188 188 188 188 188 188 188 188 188 188 188
188 188 188 188 188 188 188 188 188 188 188 188 188 188 188 188 188
188 188 188 188 188 188 188 188 188 188 188 188 188 188 188 188 188
188 188 188 188 188 188 188 188 188 188 188 188 188 188 188 188 188
188 188 188 188 188 188 188 188 188 188 188 188 188 188 188 188 188
188 188 188 188 188 188 188 188 188 188 188 188 188 188 188 188 188
188 188 188 188 188 188 188 188 188 188 188 188 188 188 188 188 188
188 188 188 188 188 188 188 188 188 188 188 188 188 188 188 188 188
188 188 188 188 188 188 188 188 188 188 188 188 188 188 188 188 188
188 188 188 188 188 188 188 188 188 188 188 188 188 188 188 188 188
188 188 188 188 188 188 188 188 188 188 188 188 188 188 188 188 188
188 188 188 188 188 188 188 188 188 188 188 188 188 188 188 188 188
188 188 188 188 188 188 188 188 188 188 188 188 188 188 188 188 188
188 188 188 188 188 188
255 255 255 0 0 0 255 255 255 0 0 0 255 255 255 0 0 0 255 255 255 0 0
0 255 255 255 0 0 0 255 255 255 0 0 0 255 255 255 0 0 0 255 255 255 0
0 0 255 255 255 0 0 0 255 255 255 0 0 0 255 255 255 0 0 0 255 255 255
0 0 0 255 255 255 0 0 0 255 255 255 0 0 0 255 255 255 0 0 0 255 255
255 0 0 0 255 255 255 0 0 0 255 255 255 0 0 0 255 255 255 0 0 0 255
255 255 0 0 0 255 255 255 0 0 0 255 255 255 0 0 0 255 255 255 0 0 0
255 255 255 0 0 0 255 255 255 0 0 0 255 255 255 0 0 0 255 255 255 0 0
0 255 255 255 0 0 0 255 255 255 0 0 0 255 255 255 0 0 0 255 255 255 0
0 0 255 255 255 0 0 0 255 255 255 0 0 0 255 255 255 0 0 0 255 255 255
0 0 0 255 255 255 0 0 0 255 255 255 0 0 0 255 255 255 0 0 0 255 255
255 0 0 0 255 255 255 0 0 0 255 255 255 0 0 0 255 255 255 0 0 0 255
255 255 0 0 0 255 255 255 0 0 0 255 255 255 0 0 0 255 255 255 0 0 0
255 255 255 0 0 0 255 255 255 0 0 0 255 255 255 0 0 0 255 255 255 0 0
0 128 128 128 128 128 128 128 128 128 128 128 128 128 128 128 128 128
128 128 128 128 128 128 128 128 128 128 128 128 128 128 128 128 128
128 128 128 128 128 128 128 128 128 128 128 128 128 128 128 128 128
128 128 128 128 128 128 128 128 128 128 128 128 128 128 128 128 128
128 128 128 128 128 128 128 128 128 128 128 128 128 128 128 128 128
128 128 128 128 128 128 128 128 128 128 128 128 128 128 128 128 128
128 128 128 128 128 128 128 128 128 128 128 128 128 128 128 128 128
128 128 128 128 128 128 128 128 128 128 128 128 128 128 128 128 128
128 128 128 128 128 128 128 128 128 128 128 128 128 128 128 128 128
128 128 128 128 128 128 128 128 128 128 128 128 128 128 128 128 128
128 128 128 128 128 128 128 128 128 128 128 128 128 128 128 128 128
128 128 128 128 128 128 128 128 128 128 128 128 128 128 128 128 128
128 128 128 128 128 128 128 128 128 128 128 128 128 128 128 128 128
128 128 128 128 128 128 128 128 128 128 128 128 128 128 128 128 128
128 128 128 128 128 128 128 128 128 128 128 128 128 128 128 128 128
128 128 128 128 128 128 128 128 128 128 128 128 128 128 128 128 128
128 128 128 128 128 128 128 128 128 128 128 128 128 128 128 128 128
128 128 128 128 128 128 128 128 128 128 128 188 188 188 188 188 188
188 188 188 188 188 188 188 188 188 188 188 188 188 188 188 188 188
188 188 188 188 188 188 188 188 188 188 188 188 188 188 188 188 188
188 188 188 188 188 188 188 188 188 188 188 188 188 188 188 188 188
188 188 188 188 188 188 188 188 188 188 188 188 188 188 188 188 188
188 188 188 188 188 188 188 188 188 188 188 188 188 188 188 188 188
188 188 188 188 188 188 188 188 188 188 188 188 188 188 188 188 188
188 188 188 188 188 188 188 188 188 188 188 188 188 188 188 188 188
188 188 188 188 188 188 188 188 188 188 188 188 188 188 188 188 188
188 188 188 188 188 188 188 188 188 188 188 188 188 188 188 188 188
188 188 188 188 188 188 188 188 188 188 188 188 188 188 188 188 188
188 188 188 188 188 188 188 188 188 188 188 188 188 188 188 188 188
188 188 188 188 188 188 188 188 188 188 188 188 188 188 188 188 188
188 188 188 188 188 188 188 188 188 188 188 188 188 188 188 188 188
188 188 188 188 188 188 188 188 188 188 188 188 188 188 188 188 188
188 188 188 188 188 188 188 188 188 188 188 188 188 188 188 188 188
188 188 188 188 188 188 188 188 188 188 188 188 188 188 188 188 188
188 188 188 188 188 188 188 188 188 188 188 188 188 188 188 188 188
188 188 188 188 188
0 0 0 255 255 255 0 0 0 255 255 255 0 0 0 255 255 255 0 0 0 255 255
255 0 0 0 255 255 255 0 0 0 255 255 255 0 0 0 255 255 255 0 0 0 255
255 255 0 0 0 255 255 255 0 0 0 255 255 255 0 0 0 255 255 255 0 0 0
255 255 255 0 0 0 255 255 255 0 0 0 255 255 255 0 0 0 255 255 255 0 0
0 255 255 255 0 0 0 255 255 255 0 0 0 255 255 255 0 0 0 255 255 255 0
0 0 255 255 255 0 0 0 255 255 255 0 0 0 255 255 255 0 0 0 255 255 255
0 0 0 255 255 255 0 0 0 255 255 255 0 0 0 255 255 255 0 0 0 255 255
255 0 0 0 255 255 255 0 0 0 255 255 255 0 0 0 255 255 255 0 0 0 255
255 255 0 0 0 255 255 255 0 0 0 255 255 255 0 0 0 255 255 255 0 0 0
255 255 255 0 0 0 255 255 255 0 0 0 255 255 255 0 0 0 255 255 255 0 0
0 255 255 255 0 0 0 255 255 255 0 0 0 255 255 255 0 0 0 255 255 255 0
0 0 255 255 255 0 0 0 255 255 255 0 0 0 255 255 255 0 0 0 255 255 255
0 0 0 255 255 255 0 0 0 255 255 255 0 0 0 255 255 255 0 0 0 255 255
255 128 128 128 128 128 128 128 128 128 128 128 128 128 128 128 128
128 128 128 128 128 128 128 128 128 128 128 128 128 128 128 128 128
128 128 128 128 128 128 128 128 128 128 128 128 128 128 128 128 128
128 128 128 128 128 128 128 128 128 128 128 128 128 128 128 128 128
128 128 128 128 128 128 128 128 128 128 128 128 128 128 128 128 128
128 128 128 128 128 128 128 128 128 128 128 128 128 128 128 128 128
128 128 128 128 128 128 128 128 128 128 128 128 128 128 128 128 128
128 128 128 128 128 128 128 128 128 128 128 128 128 128 128 128 128
128 128 128 128 128 128 128 128 128 128 128 128 128 128 128 128 128
128 128 128 128 128 128 128 128 128 128 128 128 128 128 128 128 128
128 128 128 128 128 128 128 128 128 128 128 128 128 128 128 128 128
128 128 128 128 128 128 128 128 128 128 128 128 128 128 128 128 128
128 128 128 128 128 128 128 128 128 128 128 128 128 128 128 128 128
128 128 128 128 128 128 128 128 128 128 128 128 128 128 128 128 128
128 128 128 128 128 128 128 128 128 128 128 128 128 128 128 128 128
128 128 128 128 128 128 128 128 128 128 128 128 128 128 128 128 128
128 128 128 128 128 128 128 128 128 128 128 128 128 128 128 128 128
128 128 128 128 128 128 128 128 128 128 128 128 188 188 188 188 188
188 188 188 188 188 188 188 188 188 188 188 188 188 188 188 188 188
188 188 188 188 188 188 188 188 188 188 188 188 188 188 188 188 188
188 188 188 188 188 188 188 188 188 188 188 188 188 188 188 188 188
188 188 188 188 188 188 188 188 188 188 188 188 188 188 188 188 188
188 188 188 188 188 188 188 188 188 188 188 188 188 188 188 188 188
188 188 188 188 188 188 188 188 188 188 188 188 188 188 188 188 188
188 188 188 188 188 188 188 188 188 188 188 188 188 188 188 188 188
188 188 188 188 188 188 188 188 188 188 188 188 188 188 188 188 188
188 188 188 188 188 188 188 188 188 188 188 188 188 188 188 188 188
188 188 188 188 188 188 188 188 188 188 188 188 188 188 188 188 188
188 188 188 188 188 188 188 188 188 188 188 188 188 188 188 188 188
188 188 188 188 188 188 188 188 188 188 188 188 188 188 188 188 188
188 188 188 188 188 188 188 188 188 188 188 188 188 188 188 188 188
188 188 188 188 188 188 188 188 188 188 188 188 188 188 188 188 188
188 188 188 188 188 188 188 188 188 188 188 188 188 188 188 188 188
188 188 188 188 188 188 188 188 188 188 188 188 188 188 188 188 188
188 188 188 188 188 188 188 188 188 188 188 188 188 188 188 188 188
188 188 188 188 188 188
255 255 255 0 0 0 255 255 255 0 0 0 255 255 255 0 0 0 255 255 255 0 0
0 255 255 255 0 0 0 255 255 255 0 0 0 255 255 255 0 0 0 255 255 255 0
0 0 255 255 255 0 0 0 255 255 255 0 0 0 255 255 255 0 0 0 255 255 255
0 0 0 255 255 255 0 0 0 255 255 255 0 0 0 255 255 255 0 0 0 255 255
255 0 0 0 255 255 255 0 0 0 255 255 255 0 0 0 255 255 255 0 0 0 255
255 255 0 0 0 255 255 255 0 0 0 255 255 255 0 0 0 255 255 255 0 0 0
255 255 255 0 0 0 255 255 255 0 0 0 255 255 255 0 0 0 255 255 255 0 0
0 255 255 255 0 0 0 255 255 255 0 0 0 255 255 255 0 0 0 255 255 255 0
0 0 255 255 255 0 0 0 255 255 255 0 0 0 255 255 255 0 0 0 255 255 255
0 0 0 255 255 255 0 0 0 255 255 255 0 0 0 255 255 255 0 0 0 255 255
255 0 0 0 255 255 255 0 0 0 255 255 255 0 0 0 255 255 255 0 0 0 255
255 255 0 0 0 255 255 255 0 0 0 255 255 255 0 0 0 255 255 255 0 0 0
255 255 255 0 0 0 255 255 255 0 0 0 255 255 255 0 0 0 255 255 255 0 0
0 128 128 128 128 128 128 128 128 128 128 128 128 128 128 128 128 128
128 128 128 128 128 128 128 128 128 128 128 128 128 128 128 128 128
128 128 128 128 128 128 128 128 128 128 128 128 128 128 128 128 128
128 128 128 128 128 128 128 128 128 128 128 128 128 128 128 128 128
128 128 128 128 128 128 128 128 128 128 128 128 128 128 128 128 128
128 128 128 128 128 128 128 128 128 128 128 128 128 128 128 128 128
128 128 128 128 128 128 128 128 128 128 128 128 128 128 128 128 128
128 128 128 128 128 128 128 128 128 128 128 128 128 128 128 128 128
128 128 128 128 128 128 128 128 128 128 128 128 128 128 128 128 128
128 128 128 128 128 128 128 128 128 128 128 128 128 128 128 128 128
128 128 128 128 128 128 128 128 128 128 128 128 128 128 128 128 128
128 128 128 128 128 128 128 128 128 128 128 128 128 128 128 128 128
128 128 128 128 128 128 128 128 128 128 128 128 128 128 128 128 128
128 128 128 128 128 128 128 128 128 128 128 128 128 128 128 128 128
128 128 128 128 128 128 128 128 128 128 128 128 128 128 128 128 128
128 128 128 128 128 128 128 128 128 128 128 128 128 128 128 128 128
128 128 128 128 128 128 128 128 128 128 128 128 128 128 128 128 128
128 128 128 128 128 128 128 128 128 128 128 188 188 188 188 188 188
188 188 188 188 188 188 188 188 188 188 188 188 188 188 188 188 188
188 188 188 188 188 188 188 188 188 188 188 188 188 188 188 188 188
188 188 188 188 188 188 188 188 188 188 188 188 188 188 188 188 188
188 188 188 188 188 188 188 188 188 188 188 188 188 188 188 188 188
188 188 188 188 188 188 188 188 188 188 188 188 188 188 188 188 188
188 188 188 188 188 188 188 188 188 188 188 188 188 188 188 188 188
188 188 188 188 188 188 188 188 188 188 188 188 188 188 188 188 188
188 188 188 188 188 188 188 188 188 188 188 188 188 188 188 188 188
188 188 188 188 188 188 188 188 188 188 188 188 188 188 188 188 188
188 188 188 188 188 188 188 188 188 188 188 188 188 188 188 188 188
188 188 188 188 188 188 188 188 188 188 188 188 188 188 188 188 188
188 188 188 188 188 188 188 188 188 188 188 188 188 188 188 188 188
188 188 188 188 188 188 188 188 188 188 188 188 188 188 188 188 188
188 188 188 188 188 188 188 188 188 188 188 188 188 188 188 188 188
188 188 188 188 188 188 188 188 188 188 188 188 188 188 188 188 188
188 188 188 188 188 188 188 188 188 188 188 188 188 188 188 188 188
188 188 188 188 188 188 188 188 188 188 188 188 188 188 188 188 188
188 188 188 188 188
0 0 0 255 255 255 0 0 0 255 255 255 0 0 0 255 255 255 0 0 0 255 255
255 0 0 0 255 255 255 0 0 0 255 255 255 0 0 0 255 255 255 0 0 0 255
255 255 0 0 0 255 255 255 0 0 0 255 255 255 0 0 0 255 255 255 0 0 0
255 255 255 0 0 0 255 255 255 0 0 0 255 255 255 0 0 0 255 255 255 0 0
0 255 255 255 0 0 0 255 255 255 0 0 0 255 255 255 0 0 0 255 255 255 0
0 0 255 255 255 0 0 0 255 255 255 0 0 0 255 255 255 0 0 0 255 255 255
0 0 0 255 255 255 0 0 0 255 255 255 0 0 0 255 255 255 0 0 0 255 255
255 0 0 0 255 255 255 0 0 0 255 255 255 0 0 0 255 255 255 0 0 0 255
255 255 0 0 0 255 255 255 0 0 0 255 255 255 0 0 0 255 255 255 0 0 0
255 255 255 0 0 0 255 255 255 0 0 0 255 255 255 0 0 0 255 255 255 0 0
0 255 255 255 0 0 0 255 255 255 0 0 0 255 255 255 0 0 0 255 255 255 0
0 0 255 255 255 0 0 0 255 255 255 0 0 0 255 255 255 0 0 0 255 255 255
0 0 0 255 255 255 0 0 0 255 255 255 0 0 0 255 255 255 0 0 0 255 255
255 128 128 128 128 128 128 128 128 128 128 128 128 128 128 128 128
128 128 128 128 128 128 128 128 128 128 128 128 128 128 128 128 128
128 128 128 128 128 128 128 128 128 128 128 128 128 128 128 128 128
128 128 128 128 128 128 128 128 128 128 128 128 128 128 128 128 128
128 128 128 128 128 128 128 128 128 128 128 128 128 128 128 128 128
128 128 128 128 128 128 128 128 128 128 128 128 128 128 128 128 128
128 128 128 128 128 128 128 128 128 128 128 128 128 128 128 128 128
128 128 128 128 128 128 128 128 128 128 128 128 128 128 128 128 128
128 128 128 128 128 128 128 128 128 128 128 128 128 128 128 128 128
128 128 128 128 128 128 128 128 128 128 128 128 128 128 128 128 128
128 128 128 128 128 128 128 128 128 128 128 128 128 128 128 128 128
128 128 128 128 128 128 128 128 128 128 128 128 128 128 128 128 128
128 128 128 128 128 128 128 128 128 128 128 128 128 128 128 128 128
128 128 128 128 128 128 128 128 128 128 128 128 128 128 128 128 128
128 128 128 128 128 128 128 128 128 128 128 128 128 128 128 128 128
128 128 128 128 128 128 128 128 128 128 128 128 128 128 128 128 128
128 128 128 128 128 128 128 128 128 128 128 128 128 128 128 128 128
128 128 128 128 128 128 128 128 128 128 128 128 188 188 188 188 188
188 188 188 188 188 188 188 188 188 188 188 188 188 188 188 188 188
188 188 188 188 188 188 188 188 188 188 188 188 188 188 188 188 188
188 188 188 188 188 188 188 188 188 188 188 188 188 188 188 188 188
188 188 188 188 188 188 188 188 188 188 188 188 188 188 188 188 188
188 188 188 188 188 188 188 188 188 188 188 188 188 188 188 188 188
188 188 188 188 188 188 188 188 188 188 188 188 188 188 188 188 188
188 188 188 188 188 188 188 188 188 188 188 188 188 188 188 188 188
188 188 188 188 188 188 188 188 188 188 188 188 188 188 188 188 188
188 188 188 188 188 188 188 188 188 188 188 188 188 188 188 188 188
188 188 188 188 188 188 188 188 188 188 188 188 188 188 188 188 188
188 188 188 188 188 188 188 188 188 188 188 188 188 188 188 188 188
188 188 188 188 188 188 188 188 188 188 188 188 188 188 188 188 188
188 188 188 188 188 188 188 188 188 188 188 188 188 188 188 188 188
188 188 188 188 188 188 188 188 188 188 188 188 188 188 188 188 188
188 188 188 188 188 188 188 188 188 188 188 188 188 188 188 188 188
188 188 188 188 188 188 188 188 188 188 188 188 188 188 188 188 188
188 188 188 188 188 188 188 188 188 188 188 188 188 188 188 188 188
188 188 188 188 188 188
255 255 255 0 0 0 255 255 255 0 0 0 255 255 255 0 0 0 255 255 255 0 0
0 255 255 255 0 0 0 255 255 255 0 0 0 255 255 255 0 0 0 255 255 255 0
0 0 255 255 255 0 0 0 255 255 255 0 0 0 255 255 255 0 0 0 255 255 255
0 0 0 255 255 255 0 0 0 255 255 255 0 0 0 255 255 255 0 0 0 255 255
255 0 0 0 255 255 255 0 0 0 255 255 255 0 0 0 255 255 255 0 0 0 255
255 255 0 0 0 255 255 255 0 0 0 255 255 255 0 0 0 255 255 255 0 0 0
255 255 255 0 0 0 255 255 255 0 0 0 255 255 255 0 0 0 255 255 255 0 0
0 255 255 255 0 0 0 255 255 255 0 0 0 255 255 255 0 0 0 255 255 255 0
0 0 255 255 255 0 0 0 255 255 255 0 0 0 255 255 255 0 0 0 255 255 255
0 0 0 255 255 255 0 0 0 255 255 255 0 0 0 255 255 255 0 0 0 255 255
255 0 0 0 255 255 255 0 0 0 255 255 255 0 0 0 255 255 255 0 0 0 255
255 255 0 0 0 255 255 255 0 0 0 255 255 255 0 0 0 255 255 255 0 0 0
255 255 255 0 0 0 255 255 255 0 0 0 255 255 255 0 0 0 255 255 255 0 0
0 128 128 128 128 128 128 128 128 128 128 128 128 128 128 128 128 128
128 128 128 128 128 128 128 128 128 128 128 128 128 128 128 128 128
128 128 128 128 128 128 128 128 128 128 128 128 128 128 128 128 128
128 128 128 128 128 128 128 128 128 128 128 128 128 128 128 128 128
128 128 128 128 128 128 128 128 128 128 128 128 128 128 128 128 128
128 128 128 128 128 128 128 128 128 128 128 128 128 128 128 128 128
128 128 128 128 128 128 128 128 128 128 128 128 128 128 128 128 128
128 128 128 128 128 128 128 128 128 128 128 128 128 128 128 128 128
128 128 128 128 128 128 128 128 128 128 128 128 128 128 128 128 128
128 128 128 128 128 128 128 128 128 128 128 128 128 128 128 128 128
128 128 128 128 128 128 128 128 128 128 128 128 128 128 128 128 128
128 128 128 128 128 128 128 128 128 128 128 128 128 128 128 128 128
128 128 128 128 128 128 128 128 128 128 128 128 128 128 128 128 128
128 128 128 128 128 128 128 128 128 128 128 128 128 128 128 128 128
128 128 128 128 128 128 128 128 128 128 128 128 128 128 128 128 128
128 128 128 128 128 128 128 128 128 128 128 128 128 128 128 128 128
128 128 128 128 128 128 128 128 128 128 128 128 128 128 128 128 128
128 128 128 128 128 128 128 128 128 128 128 188 188 188 188 188 188
188 188 188 188 188 188 188 188 188 188 188 188 188 188 188 188 188
188 188 188 188 188 188 188 188 188 188 188 188 188 188 188 188 188
188 188 188 188 188 188 188 188 188 188 188 188 188 188 188 188 188
188 188 188 188 188 188 188 188 188 188 188 188 188 188 188 188 188
188 188 188 188 188 188 188 188 188 188 188 188 188 188 188 188 188
188 188 188 188 188 188 188 188 188 188 188 188 188 188 188 188 188
188 188 188 188 188 188 188 188 188 188 188 188 188 188 188 188 188
188 188 188 188 188 188 188 188 188 188 188 188 188 188 188 188 188
188 188 188 188 188 188 188 188 188 188 188 188 188 188 188 188 188
188 188 188 188 188 188 188 188 188 188 188 188 188 188 188 188 188
188 188 188 188 188 188 188 188 188 188 188 188 188 188 188 188 188
188 188 188 188 188 188 188 188 188 188 188 188 188 188 188 188 188
188 188 188 188 188 188 188 188 188 188 188 188 188 188 188 188 188
188 188 188 188 188 188 188 188 188 188 188 188 188 188 188 188 188
188 188 188 188 188 188 188 188 188 188 188 188 188 188 188 188 188
188 188 188 188 188 188 188 188 188 188 188 188 188 188 188 188 188
188 188 188 188 188 188 188 188 188 188 188 188 188 188 188 188 188
188 188 188 188 188
0 0 0 255 255 255 0 0 0 255 255 255 0 0 0 255 255 255 0 0 0 255 255
255 0 0 0 255 255 255 0 0 0 255 255 255 0 0 0 255 255 255 0 0 0 255
255 255 0 0 0 255 255 255 0 0 0 255 255 255 0 0 0 255 255 255 0 0 0
255 255 255 0 0 0 255 255 255 0 0 0 255 255 255 0 0 0 255 255 255 0 0
0 255 255 255 0 0 0 255 255 255 0 0 0 255 255 255 0 0 0 255 255 255 0
0 0 255 255 255 0 0 0 255 255 255 0 0 0 255 255 255 0 0 0 255 255 255
0 0 0 255 255 255 0 0 0 255 255 255 0 0 0 255 255 255 0 0 0 255 255
255 0 0 0 255 255 255 0 0 0 255 255 255 0 0 0 255 255 255 0 0 0 255
255 255 0 0 0 255 255 255 0 0 0 255 255 255 0 0 0 255 255 255 0 0 0
255 255 255 0 0 0 255 255 255 0 0 0 255 255 255 0 0 0 255 255 255 0 0
0 255 255 255 0 0 0 255 255 255 0 0 0 255 255 255 0 0 0 255 255 255 0
0 0 255 255 255 0 0 0 255 255 255 0 0 0 255 255 255 0 0 0 255 255 255
0 0 0 255 255 255 0 0 0 255 255 255 0 0 0 255 255 255 0 0 0 255 255
255 128 128 128 128 128 128 128 128 128 128 128 128 128 128 128 128
128 128 128 128 128 128 128 128 128 128 128 128 128 128 128 128 128
128 128 128 128 128 128 128 128 128 128 128 128 128 128 128 128 128
128 128 128 128 128 128 128 128 128 128 128 128 128 128 128 128 128
128 128 128 128 128 128 128 128 128 128 128 128 128 128 128 128 128
128 128 128 128 128 128 128 128 128 128 128 128 128 128 128 128 128
128 128 128 128 128 128 128 128 128 128 128 128 128 128 128 128 128
128 128 128 128 128 128 128 128 128 128 128 128 128 128 128 128 128
128 128 128 128 128 128 128 128 128 128 128 128 128 128 128 128 128
128 128 128 128 128 128 128 128 128 128 128 128 128 128 128 128 128
128 128 128 128 128 128 128 128 128 128 128 128 128 128 128 128 128
128 128 128 128 128 128 128 128 128 128 128 128 128 128 128 128 128
128 128 128 128 128 128 128 128 128 128 128 128 128 128 128 128 128
128 128 128 128 128 128 128 128 128 128 128 128 128 128 128 128 128
128 128 128 128 128 128 128 128 128 128 128 128 128 128 128 128 128
128 128 128 128 128 128 128 128 128 128 128 128 128 128 128 128 128
128 128 128 128 128 128 128 128 128 128 128 128 128 128 128 128 128
128 128 128 128 128 128 128 128 128 128 128 128 188 188 188 188 188
188 188 188 188 188 188 188 188 188 188 188 188 188 188 188 188 188
188 188 188 188 188 188 188 188 188 188 188 188 188 188 188 188 188
188 188 188 188 188 188 188 188 188 188 188 188 188 188 188 188 188
188 188 188 188 188 188 188 188 188 188 188 188 188 188 188 188 188
188 188 188 188 188 188 188 188 188 188 188 188 188 188 188 188 188
188 188 188 188 188 188 188 188 188 188 188 188 188 188 188 188 188
188 188 188 188 188 188 188 188 188 188 188 188 188 188 188 188 188
188 188 188 188 188 188 188 188 188 188 188 188 188 188 188 188 188
188 188 188 188 188 188 188 188 188 188 188 188 188 188 188 188 188
188 188 188 188 188 188 188 188 188 188 188 188 188 188 188 188 188
188 188 188 188 188 188 188 188 188 188 188 188 188 188 188 188 188
188 188 188 188 188 188 188 188 188 188 188 188 188 188 188 188 188
188 188 188 188 188 188 188 188 188 188 188 188 188 188 188 188 188
188 188 188 188 188 188 188 188 188 188 188 188 188 188 188 188 188
188 188 188 188 188 188 188 188 188 188 188 188 188 188 188 188 188
188 188 188 188 188 188 188 188 188 188 188 188 188 188 188 188 188
188 188 188 188 188 188 188 188 188 188 188 188 188 188 188 188 188
188 188 188 188 188 188
255 255 255 0 0 0 255 255 255 0 0 0 255 255 255 0 0 0 255 255 255 0 0
0 255 255 255 0 0 0 255 255 255 0 0 0 255 255 255 0 0 0 255 255 255 0
0 0 255 255 255 0 0 0 255 255 255 0 0 0 255 255 255 0 0 0 255 255 255
0 0 0 255 255 255 0 0 0 255 255 255 0 0 0 255 255 255 0 0 0 255 255
255 0 0 0 255 255 255 0 0 0 255 255 255 0 0 0 255 255 255 0 0 0 255
255 255 0 0 0 255 255 255 0 0 0 255 255 255 0 0 0 255 255 255 0 0 0
255 255 255 0 0 0 255 255 255 0 0 0 255 255 255 0 0 0 255 255 255 0 0
0 255 255 255 0 0 0 255 255 255 0 0 0 255 255 255 0 0 0 255 255 255 0
0 0 255 255 255 0 0 0 255 255 255 0 0 0 255 255 255 0 0 0 255 255 255
0 0 0 255 255 255 0 0 0 255 255 255 0 0 0 255 255 255 0 0 0 255 255
255 0 0 0 255 255 255 0 0 0 255 255 255 0 0 0 255 255 255 0 0 0 255
255 255 0 0 0 255 255 255 0 0 0 255 255 255 0 0 0 255 255 255 0 0 0
255 255 255 0 0 0 255 255 255 0 0 0 255 255 255 0 0 0 255 255 255 0 0
0 128 128 128 128 128 128 128 128 128 128 128 128 128 128 128 128 128
128 128 128 128 128 128 128 128 128 128 128 128 128 128 128 128 128
128 128 128 128 128 128 128 128 128 128 128 128 128 128 128 128 128
128 128 128 128 128 128 128 128 128 128 128 128 128 128 128 128 128
128 128 128 128 128 128 128 128 128 128 128 128 128 128 128 128 128
128 128 128 128 128 128 128 128 128 128 128 128 128 128 128 128 128
128 128 128 128 128 128 128 128 128 128 128 128 128 128 128 128 128
128 128 128 128 128 128 128 128 128 128 128 128 128 128 128 128 128
128 128 128 128 128 128 128 128 128 128 128 128 128 128 128 128 128
128 128 128 128 128 128 128 128 128 128 128 128 128 128 128 128 128
128 128 128 128 128 128 128 128 128 128 128 128 128 128 128 128 128
128 128 128 128 128 128 128 128 128 128 128 128 128 128 128 128 128
128 128 128 128 128 128 128 128 128 128 128 128 128 128 128 128 128
128 128 128 128 128 128 128 128 128 128 128 128 128 128 128 128 128
128 128 128 128 128 128 128 128 128 128 128 128 128 128 128 128 128
128 128 128 128 128 128 128 128 128 128 128 128 128 128 128 128 128
128 128 128 128 128 128 128 128 128 128 128 128 128 128 128 128 128
128 128 128 128 128 128 128 128 128 128 128 188 188 188 188 188 188
188 188 188 188 188 188 188 188 188 188 188 188 188 188 188 188 188
188 188 188 188 188 188 188 188 188 188 188 188 188 188 188 188 188
188 188 188 188 188 188 188 188 188 188 188 188 188 188 188 188 188
188 188 188 188 188 188 188 188 188 188 188 188 188 188 188 188 188
188 188 188 188 188 188 188 188 188 188 188 188 188 188 188 188 188
188 188 188 188 188 188 188 188 188 188 188 188 188 188 188 188 188
188 188 188 188 188 188 188 188 188 188 188 188 188 188 188 188 188
188 188 188 188 188 188 188 188 188 188 188 188 188 188 188 188 188
188 188 188 188 188 188 188 188 188 188 188 188 188 188 188 188 188
188 188 188 188 188 188 188 188 188 188 188 188 188 188 188 188 188
188 188 188 188 188 188 188 188 188 188 188 188 188 188 188 188 188
188 188 188 188 188 188 188 188 188 188 188 188 188 188 188 188 188
188 188 188 188 188 188 188 188 188 188 188 188 188 188 188 188 188
188 188 188 188 188 188 188 188 188 188 188 188 188 188 188 188 188
188 188 188 188 188 188 188 188 188 188 188 188 188 188 188 188 188
188 188 188 188 188 188 188 188 188 188 188 188 188 188 188 188 188
188 188 188 188 188 188 188 188 188 188 188 188 188 188 188 188 188
188 188 188 188 188
0 0 0 255 255 255 0 0 0 255 255 255 0 0 0 255 255 255 0 0 0 255 255
255 0 0 0 255 255 255 0 0 0 255 255 255 0 0 0 255 255 255 0 0 0 255
255 255 0 0 0 255 255 255 0 0 0 255 255 255 0 0 0 255 255 255 0 0 0
255 255 255 0 0 0 255 255 255 0 0 0 255 255 255 0 0 0 255 255 255 0 0
0 255 255 255 0 0 0 255 255 255 0 0 0 255 255 255 0 0 0 255 255 255 0
0 0 255 255 255 0 0 0 255 255 255 0 0 0 255 255 255 0 0 0 255 255 255
0 0 0 255 255 255 0 0 0 255 255 255 0 0 0 255 255 255 0 0 0 255 255
255 0 0 0 255 255 255 0 0 0 255 255 255 0 0 0 255 255 255 0 0 0 255
255 255 0 0 0 255 255 255 0 0 0 255 255 255 0 0 0 255 255 255 0 0 0
255 255 255 0 0 0 255 255 255 0 0 0 255 255 255 0 0 0 255 255 255 0 0
0 255 255 255 0 0 0 255 255 255 0 0 0 255 255 255 0 0 0 255 255 255 0
0 0 255 255 255 0 0 0 255 255 255 0 0 0 255 255 255 0 0 0 255 255 255
0 0 0 255 255 255 0 0 0 255 255 255 0 0 0 255 255 255 0 0 0 255 255
255 128 128 128 128 128 128 128 128 128 128 128 128 128 128 128 128
128 128 128 128 128 128 128 128 128 128 128 128 128 128 128 128 128
128 128 128 128 128 128 128 128 128 128 128 128 128 128 128 128 128
128 128 128 128 128 128 128 128 128 128 128 128 128 128 128 128 128
128 128 128 128 128 128 128 128 128 128 128 128 128 128 128 128 128
128 128 128 128 128 128 128 128 128 128 128 128 128 128 128 128 128
128 128 128 128 128 128 128 128 128 128 128 128 128 128 128 128 128
128 128 128 128 128 128 128 128 128 128 128 128 128 128 128 128 128
128 128 128 128 128 128 128 128 128 128 128 128 128 128 128 128 128
128 128 128 128 128 128 128 128 128 128 128 128 128 128 128 128 128
128 128 128 128 128 128 128 128 128 128 128 128 128 128 128 128 128
128 128 128 128 128 128 128 128 128 128 128 128 128 128 128 128 128
128 128 128 128 128 128 128 128 128 128 128 128 128 128 128 128 128
128 128 128 128 128 128 128 128 128 128 128 128 128 128 128 128 128
128 128 128 128 128 128 128 128 128 128 128 128 128 128 128 128 128
128 128 128 128 128 128 128 128 128 128 128 128 128 128 128 128 128
128 128 128 128 128 128 128 128 128 128 128 128 128 128 128 128 128
128 128 128 128 128 128 128 128 128 128 128 128 188 188 188 188 188
188 188 188 188 188 188 188 188 188 188 188 188 188 188 188 188 188
188 188 188 188 188 188 188 188 188 188 188 188 188 188 188 188 188
188 188 188 188 188 188 188 188 188 188 188 188 188 188 188 188 188
188 188 188 188 188 188 188 188 188 188 188 188 188 188 188 188 188
188 188 188 188 188 188 188 188 188 188 188 188 188 188 188 188 188
188 188 188 188 188 188 188 188 188 188 188 188 188 188 188 188 188
188 188 188 188 188 188 188 188 188 188 188 188 188 188 188 188 188
188 188 188 188 188 188 188 188 188 188 188 188 188 188 188 188 188
188 188 188 188 188 188 188 188 188 188 188 188 188 188 188 188 188
188 188 188 188 188 188 188 188 188 188 188 188 188 188 188 188 188
188 188 188 188 188 188 188 188 188 188 188 188 188 188 188 188 188
188 188 188 188 188 188 188 188 188 188 188 188 188 188 188 188 188
188 188 188 188 188 188 188 188 188 188 188 188 188 188 188 188 188
188 188 188 188 188 188 188 188 188 188 188 188 188 188 188 188 188
188 188 188 188 188 188 188 188 188 188 188 188 188 188 188 188 188
188 188 188 188 188 188 188 188 188 188 188 188 188 188 188 188 188
188 188 188 188 188 188 188 188 188 188 188 188 188 188 188 188 188
188 188 188 188 188 188
255 255 255 0 0 0 255 255 255 0 0 0 255 255 255 0 0 0 255 255 255 0 0
0 255 255 255 0 0 0 255 255 255 0 0 0 255 255 255 0 0 0 255 255 255 0
0 0 255 255 255 0 0 0 255 255 255 0 0 0 255 255 255 0 0 0 255 255 255
0 0 0 255 255 255 0 0 0 255 255 255 0 0 0 255 255 255 0 0 0 255 255
255 0 0 0 255 255 255 0 0 0 255 255 255 0 0 0 255 255 255 0 0 0 255
255 255 0 0 0 255 255 255 0 0 0 255 255 255 0 0 0 255 255 255 0 0 0
255 255 255 0 0 0 255 255 255 0 0 0 255 255 255 0 0 0 255 255 255 0 0
0 255 255 255 0 0 0 255 255 255 0 0 0 255 255 255 0 0 0 255 255 255 0
0 0 255 255 255 0 0 0 255 255 255 0 0 0 255 255 255 0 0 0 255 255 255
0 0 0 255 255 255 0 0 0 255 255 255 0 0 0 255 255 255 0 0 0 255 255
255 0 0 0 255 255 255 0 0 0 255 255 255 0 0 0 255 255 255 0 0 0 255
255 255 0 0 0 255 255 255 0 0 0 255 255 255 0 0 0 255 255 255 0 0 0
255 255 255 0 0 0 255 255 255 0 0 0 255 255 255 0 0 0 255 255 255 0 0
0 128 128 128 128 128 128 128 128 128 128 128 128 128 128 128 128 128
128 128 128 128 128 128 128 128 128 128 128 128 128 128 128 128 128
128 128 128 128 128 128 128 128 128 128 128 128 128 128 128 128 128
128 128 128 128 128 128 128 128 128 128 128 128 128 128 128 128 128
128 128 128 128 128 128 128 128 128 128 128 128 128 128 128 128 128
128 128 128 128 128 128 128 128 128 128 128 128 128 128 128 128 128
128 128 128 128 128 128 128 128 128 128 128 128 128 128 128 128 128
128 128 128 128 128 128 128 128 128 128 128 128 128 128 128 128 128
128 128 128 128 128 128 128 128 128 128 128 128 128 128 128 128 128
128 128 128 128 128 128 128 128 128 128 128 128 128 128 128 128 128
128 128 128 128 128 128 128 128 128 128 128 128 128 128 128 128 128
128 128 128 128 128 128 128 128 128 128 128 128 128 128 128 128 128
128 128 128 128 128 128 128 128 128 128 128 128 128 128 128 128 128
128 128 128 128 128 128 128 128 128 128 128 128 128 128 128 128 128
128 128 128 128 128 128 128 128 128 128 128 128 128 128 128 128 128
128 128 128 128 128 128 128 128 128 128 128 128 128 128 128 128 128
128 128 128 128 128 128 128 128 128 128 128 128 128 128 128 128 128
128 128 128 128 128 128 128 128 128 128 128 188 188 188 188 188 188
188 188 188 188 188 188 188 188 188 188 188 188 188 188 188 188 188
188 188 188 188 188 188 188 188 188 188 188 188 188 188 188 188 188
188 188 188 188 188 188 188 188 188 188 188 188 188 188 188 188 188
188 188 188 188 188 188 188 188 188 188 188 188 188 188 188 188 188
188 188 188 188 188 188 188 188 188 188 188 188 188 188 188 188 188
188 188 188 188 188 188 188 188 188 188 188 188 188 188 188 188 188
188 188 188 188 188 188 188 188 188 188 188 188 188 188 188 188 188
188 188 188 188 188 188 188 188 188 188 188 188 188 188 188 188 188
188 188 188 188 188 188 188 188 188 188 188 188 188 188 188 188 188
188 188 188 188 188 188 188 188 188 188 188 188 188 188 188 188 188
188 188 188 188 188 188 188 188 188 188 188 188 188 188 188 188 188
188 188 188 188 188 188 188 188 188 188 188 188 188 188 188 188 188
188 188 188 188 188 188 188 188 188 188 188 188 188 188 188 188 188
188 188 188 188 188 188 188 188 188 188 188 188 188 188 188 188 188
188 188 188 188 188 188 188 188 188 188 188 188 188 188 188 188 188
188 188 188 188 188 188 188 188 188 188 188 188 188 188 188 188 188
188 188 188 188 188 188 188 188 188 188 188 188 188 188 188 188 188
188 188 188 188 188
0 0 0 255 255 255 0 0 0 255 255 255 0 0 0 255 255 255 0 0 0 255 255
255 0 0 0 255 255 255 0 0 0 255 255 255 0 0 0 255 255 255 0 0 0 255
255 255 0 0 0 255 255 255 0 0 0 255 255 255 0 0 0 255 255 255 0 0 0
255 255 255 0 0 0 255 255 255 0 0 0 255 255 255 0 0 0 255 255 255 0 0
0 255 255 255 0 0 0 255 255 255 0 0 0 255 255 255 0 0 0 255 255 255 0
0 0 255 255 255 0 0 0 255 255 255 0 0 0 255 255 255 0 0 0 255 255 255
0 0 0 255 255 255 0 0 0 255 255 255 0 0 0 255 255 255 0 0 0 255 255
255 0 0 0 255 255 255 0 0 0 255 255 255 0 0 0 255 255 255 0 0 0 255
255 255 0 0 0 255 255 255 0 0 0 255 255 255 0 0 0 255 255 255 0 0 0
255 255 255 0 0 0 255 255 255 0 0 0 255 255 255 0 0 0 255 255 255 0 0
0 255 255 255 0 0 0 255 255 255 0 0 0 255 255 255 0 0 0 255 255 255 0
0 0 255 255 255 0 0 0 255 255 255 0 0 0 255 255 255 0 0 0 255 255 255
0 0 0 255 255 255 0 0 0 255 255 255 0 0 0 255 255 255 0 0 0 255 255
255 128 128 128 128 128 128 128 128 128 128 128 128 128 128 128 128
128 128 128 128 128 128 128 128 128 128 128 128 128 128 128 128 128
128 128 128 128 128 128 128 128 128 128 128 128 128 128 128 128 128
128 128 128 128 128 128 128 128 128 128 128 128 128 128 128 128 128
128 128 128 128 128 128 128 128 128 128 128 128 128 128 128 128 128
128 128 128 128 128 128 128 128 128 128 128 128 128 128 128 128 128
128 128 128 128 128 128 128 128 128 128 128 128 128 128 128 128 128
128 128 128 128 128 128 128 128 128 128 128 128 128 128 128 128 128
128 128 128 128 128 128 128 128 128 128 128 128 128 128 128 128 128
128 128 128 128 128 128 128 128 128 128 128 128 128 128 128 128 128
128 128 128 128 128 128 128 128 128 128 128 128 128 128 128 128 128
128 128 128 128 128 128 128 128 128 128 128 128 128 128 128 128 128
128 128 128 128 128 128 128 128 128 128 128 128 128 128 128 128 128
128 128 128 128 128 128 128 128 128 128 128 128 128 128 128 128 128
128 128 128 128 128 128 128 128 128 128 128 128 128 128 128 128 128
128 128 128 128 128 128 128 128 128 128 128 128 128 128 128 128 128
128 128 128 128 128 128 128 128 128 128 128 128 128 128 128 128 128
128 128 128 128 128 128 128 128 128 128 128 128 188 188 188 188 188
188 188 188 188 188 188 188 188 188 188 188 188 188 188 188 188 188
188 188 188 188 188 188 188 188 188 188 188 188 188 188 188 188 188
188 188 188 188 188 188 188 188 188 188 188 188 188 188 188 188 188
188 188 188 188 188 188 188 188 188 188 188 188 188 188 188 188 188
188 188 188 188 188 188 188 188 188 188 188 188 188 188 188 188 188
188 188 188 188 188 188 188 188 188 188 188 188 188 188 188 188 188
188 188 188 188 188 188 188 188 188 188 188 188 188 188 188 188 188
188 188 188 188 188 188 188 188 188 188 188 188 188 188 188 188 188
188 188 188 188 188 188 188 188 188 188 188 188 188 188 188 188 188
188 188 188 188 188 188 188 188 188 188 188 188 188 188 188 188 188
188 188 188 188 188 188 188 188 188 188 188 188 188 188 188 188 188
188 188 188 188 188 188 188 188 188 188 188 188 188 188 188 188 188
188 188 188 188 188 188 188 188 188 188 188 188 188 188 188 188 188
188 188 188 188 188 188 188 188 188 188 188 188 188 188 188 188 188
188 188 188 188 188 188 188 188 188 188 188 188 188 188 188 188 188
188 188 188 188 188 188 188 188 188 188 188 188 188 188 188 188 188
188 188 188 188 188 188 188 188 188 188 188 188 188 188 188 188 188
188 188 188 188 188 188
255 255 255 0 0 0 255 255 255 0 0 0 255 255 255 0 0 0 255 255 255 0 0
0 255 255 255 0 0 0 255 255 255 0 0 0 255 255 255 0 0 0 255 255 255 0
0 0 255 255 255 0 0 0 255 255 255 0 0 0 255 255 255 0 0 0 255 255 255
0 0 0 255 255 255 0 0 0 255 255 255 0 0 0 255 255 255 0 0 0 255 255
255 0 0 0 255 255 255 0 0 0 255 255 255 0 0 0 255 255 255 0 0 0 255
255 255 0 0 0 255 255 255 0 0 0 255 255 255 0 0 0 255 255 255 0 0 0
255 255 255 0 0 0 255 255 255 0 0 0 255 255 255 0 0 0 255 255 255 0 0
0 255 255 255 0 0 0 255 255 255 0 0 0 255 255 255 0 0 0 255 255 255 0
0 0 255 255 255 0 0 0 255 255 255 0 0 0 255 255 255 0 0 0 255 255 255
0 0 0 255 255 255 0 0 0 255 255 255 0 0 0 255 255 255 0 0 0 255 255
255 0 0 0 255 255 255 0 0 0 255 255 255 0 0 0 255 255 255 0 0 0 255
255 255 0 0 0 255 255 255 0 0 0 255 255 255 0 0 0 255 255 255 0 0 0
255 255 255 0 0 0 255 255 255 0 0 0 255 255 255 0 0 0 255 255 255 0 0
0 128 128 128 128 128 128 128 128 128 128 128 128 128 128 128 128 128
128 128 128 128 128 128 128 128 128 128 128 128 128 128 128 128 128
128 128 128 128 128 128 128 128 128 128 128 128 128 128 128 128 128
128 128 128 128 128 128 128 128 128 128 128 128 128 128 128 128 128
128 128 128 128 128 128 128 128 128 128 128 128 128 128 128 128 128
128 128 128 128 128 128 128 128 128 128 128 128 128 128 128 128 128
128 128 128 128 128 128 128 128 128 128 128 128 128 128 128 128 128
128 128 128 128 128 128 128 128 128 128 128 128 128 128 128 128 128
128 128 128 128 128 128 128 128 128 128 128 128 128 128 128 128 128
128 128 128 128 128 128 128 128 128 128 128 128 128 128 128 128 128
128 128 128 128 128 128 128 128 128 128 128 128 128 128 128 128 128
128 128 128 128 128 128 128 128 128 128 128 128 128 128 128 128 128
128 128 128 128 128 128 128 128 128 128 128 128 128 128 128 128 128
128 128 128 128 128 128 128 128 128 128 128 128 128 128 128 128 128
128 128 128 128 128 128 128 128 128 128 128 128 128 128 128 128 128
128 128 128 128 128 128 128 128 128 128 128 128 128 128 128 128 128
128 128 128 128 128 128 128 128 128 128 128 128 128 128 128 128 128
128 128 128 128 128 128 128 128 128 128 128 188 188 188 188 188 188
188 188 188 188 188 188 188 188 188 188 188 188 188 188 188 188 188
188 188 188 188 188 188 188 188 188 188 188 188 188 188 188 188 188
188 188 188 188 188 188 188 188 188 188 188 188 188 188 188 188 188
188 188 188 188 188 188 188 188 188 188 188 188 188 188 188 188 188
188 188 188 188 188 188 188 188 188 188 188 188 188 188 188 188 188
188 188 188 188 188 188 188 188 188 188 188 188 188 188 188 188 188
188 188 188 188 188 188 188 188 188 188 188 188 188 188 188 188 188
188 188 188 188 188 188 188 188 188 188 188 188 188 188 188 188 188
188 188 188 188 188 188 188 188 188 188 188 188 188 188 188 188 188
188 188 188 188 188 188 188 188 188 188 188 188 188 188 188 188 188
188 188 188 188 188 188 188 188 188 188 188 188 188 188 188 188 188
188 188 188 188 188 188 188 188 188 188 188 188 188 188 188 188 188
188 188 188 188 188 188 188 188 188 188 188 188 188 188 188 188 188
188 188 188 188 188 188 188 188 188 188 188 188 188 188 188 188 188
188 188 188 188 188 188 188 188 188 188 188 188 188 188 188 188 188
188 188 188 188 188 188 188 188 188 188 188 188 188 188 188 188 188
188 188 188 188 188 188 188 188 188 188 188 188 188 188 188 188 188
188 188 188 188 188
0 0 0 255 255 255 0 0 0 255 255 255 0 0 0 255 255 255 0 0 0 255 255
255 0 0 0 255 255 255 0 0 0 255 255 255 0 0 0 255 255 255 0 0 0 255
255 255 0 0 0 255 255 255 0 0 0 255 255 255 0 0 0 255 255 255 0 0 0
255 255 255 0 0 0 255 255 255 0 0 0 255 255 255 0 0 0 255 255 255 0 0
0 255 255 255 0 0 0 255 255 255 0 0 0 255 255 255 0 0 0 255 255 255 0
0 0 255 255 255 0 0 0 255 255 255 0 0 0 255 255 255 0 0 0 255 255 255
0 0 0 255 255 255 0 0 0 255 255 255 0 0 0 255 255 255 0 0 0 255 255
255 0 0 0 255 255 255 0 0 0 255 255 255 0 0 0 255 255 255 0 0 0 255
255 255 0 0 0 255 255 255 0 0 0 255 255 255 0 0 0 255 255 255 0 0 0
255 255 255 0 0 0 255 255 255 0 0 0 255 255 255 0 0 0 255 255 255 0 0
0 255 255 255 0 0 0 255 255 255 0 0 0 255 255 255 0 0 0 255 255 255 0
0 0 255 255 255 0 0 0 255 255 255 0 0 0 255 255 255 0 0 0 255 255 255
0 0 0 255 255 255 0 0 0 255 255 255 0 0 0 255 255 255 0 0 0 255 255
255 128 128 128 128 128 128 128 128 128 128 128 128 128 128 128 128
128 128 128 128 128 128 128 128 128 128 128 128 128 128 128 128 128
128 128 128 128 128 128 128 128 128 128 128 128 128 128 128 128 128
128 128 128 128 128 128 128 128 128 128 128 128 128 128 128 128 128
128 128 128 128 128 128 128 128 128 128 128 128 128 128 128 128 128
128 128 128 128 128 128 128 128 128 128 128 128 128 128 128 128 128
128 128 128 128 128 128 128 128 128 128 128 128 128 128 128 128 128
128 128 128 128 128 128 128 128 128 128 128 128 128 128 128 128 128
128 128 128 128 128 128 128 128 128 128 128 128 128 128 128 128 128
128 128 128 128 128 128 128 128 128 128 128 128 128 128 128 128 128
128 128 128 128 128 128 128 128 128 128 128 128 128 128 128 128 128
128 128 128 128 128 128 128 128 128 128 128 128 128 128 128 128 128
128 128 128 128 128 128 128 128 128 128 128 128 128 128 128 128 128
128 128 128 128 128 128 128 128 128 128 128 128 128 128 128 128 128
128 128 128 128 128 128 128 128 128 128 128 128 128 128 128 128 128
128 128 128 128 128 128 128 128 128 128 128 128 128 128 128 128 128
128 128 128 128 128 128 128 128 128 128 128 128 128 128 128 128 128
128 128 128 128 128 128 128 128 128 128 128 128 188 188 188 188 188
188 188 188 188 188 188 188 188 188 188 188 188 188 188 188 188 188
188 188 188 188 188 188 188 188 188 188 188 188 188 188 188 188 188
188 188 188 188 188 188 188 188 188 188 188 188 188 188 188 188 188
188 188 188 188 188 188 188 188 188 188 188 188 188 188 188 188 188
188 188 188 188 188 188 188 188 188 188 188 188 188 188 188 188 188
188 188 188 188 188 188 188 188 188 188 188 188 188 188 188 188 188
188 188 188 188 188 188 188 188 188 188 188 188 188 188 188 188 188
188 188 188 188 188 188 188 188 188 188 188 188 188 188 188 188 188
188 188 188 188 188 188 188 188 188 188 188 188 188 188 188 188 188
188 188 188 188 188 188 188 188 188 188 188 188 188 188 188 188 188
188 188 188 188 188 188 188 188 188 188 188 188 188 188 188 188 188
188 188 188 188 188 188 188 188 188 188 188 188 188 188 188 188 188
188 188 188 188 188 188 188 188 188 188 188 188 188 188 188 188 188
188 188 188 188 188 188 188 188 188 188 188 188 188 188 188 188 188
188 188 188 188 188 188 188 188 188 188 188 188 188 188 188 188 188
188 188 188 188 188 188 188 188 188 188 188 188 188 188 188 188 188
188 188 188 188 188 188 188 188 188 188 188 188 188 188 188 188 188
188 188 188 188 188 188
255 255 255 0 0 0 255 255 255 0 0 0 255 255 255 0 0 0 255 255 255 0 0
0 255 255 255 0 0 0 255 255 255 0 0 0 255 255 255 0 0 0 255 255 255 0
0 0 255 255 255 0 0 0 255 255 255 0 0 0 255 255 255 0 0 0 255 255 255
0 0 0 255 255 255 0 0 0 255 255 255 0 0 0 255 255 255 0 0 0 255 255
255 0 0 0 255 255 255 0 0 0 255 255 255 0 0 0 255 255 255 0 0 0 255
255 255 0 0 0 255 255 255 0 0 0 255 255 255 0 0 0 255 255 255 0 0 0
255 255 255 0 0 0 255 255 255 0 0 0 255 255 255 0 0 0 255 255 255 0 0
0 255 255 255 0 0 0 255 255 255 0 0 0 255 255 255 0 0 0 255 255 255 0
0 0 255 255 255 0 0 0 255 255 255 0 0 0 255 255 255 0 0 0 255 255 255
0 0 0 255 255 255 0 0 0 255 255 255 0 0 0 255 255 255 0 0 0 255 255
255 0 0 0 255 255 255 0 0 0 255 255 255 0 0 0 255 255 255 0 0 0 255
255 255 0 0 0 255 255 255 0 0 0 255 255 255 0 0 0 255 255 255 0 0 0
255 255 255 0 0 0 255 255 255 0 0 0 255 255 255 0 0 0 255 255 255 0 0
0 128 128 128 128 128 128 128 128 128 128 128 128 128 128 128 128 128
128 128 128 128 128 128 128 128 128 128 128 128 128 128 128 128 128
128 128 128 128 128 128 128 128 128 128 128 128 128 128 128 128 128
128 128 128 128 128 128 128 128 128 128 128 128 128 128 128 128 128
128 128 128 128 128 128 128 128 128 128 128 128 128 128 128 128 128
128 128 128 128 128 128 128 128 128 128 128 128 128 128 128 128 128
128 128 128 128 128 128 128 128 128 128 128 128 128 128 128 128 128
128 128 128 128 128 128 128 128 128 128 128 128 128 128 128 128 128
128 128 128 128 128 128 128 128 128 128 128 128 128 128 128 128 128
128 128 128 128 128 128 128 128 128 128 128 128 128 128 128 128 128
128 128 128 128 128 128 128 128 128 128 128 128 128 128 128 128 128
128 128 128 128 128 128 128 128 128 128 128 128 128 128 128 128 128
128 128 128 128 128 128 128 128 128 128 128 128 128 128 128 128 128
128 128 128 128 128 128 128 128 128 128 128 128 128 128 128 128 128
128 128 128 128 128 128 128 128 128 128 128 128 128 128 128 128 128
128 128 128 128 128 128 128 128 128 128 128 128 128 128 128 128 128
128 128 128 128 128 128 128 128 128 128 128 128 128 128 128 128 128
128 128 128 128 128 128 128 128 128 128 128 188 188 188 188 188 188
188 188 188 188 188 188 188 188 188 188 188 188 188 188 188 188 188
188 188 188 188 188 188 188 188 188 188 188 188 188 188 188 188 188
188 188 188 188 188 188 188 188 188 188 188 188 188 188 188 188 188
188 188 188 188 188 188 188 188 188 188 188 188 188 188 188 188 188
188 188 188 188 188 188 188 188 188 188 188 188 188 188 188 188 188
188 188 188 188 188 188 188 188 188 188 188 188 188 188 188 188 188
188 188 188 188 188 188 188 188 188 188 188 188 188 188 188 188 188
188 188 188 188 188 188 188 188 188 188 188 188 188 188 188 188 188
188 188 188 188 188 188 188 188 188 188 188 188 188 188 188 188 188
188 188 188 188 188 188 188 188 188 188 188 188 188 188 188 188 188
188 188 188 188 188 188 188 188 188 188 188 188 188 188 188 188 188
188 188 188 188 188 188 188 188 188 188 188 188 188 188 188 188 188
188 188 188 188 188 188 188 188 188 188 188 188 188 188 188 188 188
188 188 188 188 188 188 188 188 188 188 188 188 188 188 188 188 188
188 188 188 188 188 188 188 188 188 188 188 188 188 188 188 188 188
188 188 188 188 188 188 188 188 188 188 188 188 188 188 188 188 188
188 188 188 188 188 188 188 188 188 188 188 188 188 188 188 188 188
188 188 188 188 188
0 0 0 255 255 255 0 0 0 255 255 255 0 0 0 255 255 255 0 0 0 255 255
255 0 0 0 255 255 255 0 0 0 255 255 255 0 0 0 255 255 255 0 0 0 255
255 255 0 0 0 255 255 255 0 0 0 255 255 255 0 0 0 255 255 255 0 0 0
255 255 255 0 0 0 255 255 255 0 0 0 255 255 255 0 0 0 255 255 255 0 0
0 255 255 255 0 0 0 255 255 255 0 0 0 255 255 255 0 0 0 255 255 255 0
0 0 255 255 255 0 0 0 255 255 255 0 0 0 255 255 255 0 0 0 255 255 255
0 0 0 255 255 255 0 0 0 255 255 255 0 0 0 255 255 255 0 0 0 255 255
255 0 0 0 255 255 255 0 0 0 255 255 255 0 0 0 255 255 255 0 0 0 255
255 255 0 0 0 255 255 255 0 0 0 255 255 255 0 0 0 255 255 255 0 0 0
255 255 255 0 0 0 255 255 255 0 0 0 255 255 255 0 0 0 255 255 255 0 0
0 255 255 255 0 0 0 255 255 255 0 0 0 255 255 255 0 0 0 255 255 255 0
0 0 255 255 255 0 0 0 255 255 255 0 0 0 255 255 255 0 0 0 255 255 255
0 0 0 255 255 255 0 0 0 255 255 255 0 0 0 255 255 255 0 0 0 255 255
255 128 128 128 128 128 128 128 128 128 128 128 128 128 128 128 128
128 128 128 128 128 128 128 128 128 128 128 128 128 128 128 128 128
128 128 128 128 128 128 128 128 128 128 128 128 128 128 128 128 128
128 128 128 128 128 128 128 128 128 128 128 128 128 128 128 128 128
128 128 128 128 128 128 128 128 128 128 128 128 128 128 128 128 128
128 128 128 128 128 128 128 128 128 128 128 128 128 128 128 128 128
128 128 128 128 128 128 128 128 128 128 128 128 128 128 128 128 128
128 128 128 128 128 128 128 128 128 128 128 128 128 128 128 128 128
128 128 128 128 128 128 128 128 128 128 128 128 128 128 128 128 128
128 128 128 128 128 128 128 128 128 128 128 128 128 128 128 128 128
128 128 128 128 128 128 128 128 128 128 128 128 128 128 128 128 128
128 128 128 128 128 128 128 128 128 128 128 128 128 128 128 128 128
128 128 128 128 128 128 128 128 128 128 128 128 128 128 128 128 128
128 128 128 128 128 128 128 128 128 128 128 128 128 128 128 128 128
128 128 128 128 128 128 128 128 128 128 128 128 128 128 128 128 128
128 128 128 128 128 128 128 128 128 128 128 128 128 128 128 128 128
128 128 128 128 128 128 128 128 128 128 128 128 128 128 128 128 128
128 128 128 128 128 128 128 128 128 128 128 128 188 188 188 188 188
188 188 188 188 188 188 188 188 188 188 188 188 188 188 188 188 188
188 188 188 188 188 188 188 188 188 188 188 188 188 188 188 188 188
188 188 188 188 188 188 188 188 188 188 188 188 188 188 188 188 188
188 188 188 188 188 188 188 188 188 188 188 188 188 188 188 188 188
188 188 188 188 188 188 188 188 188 188 188 188 188 188 188 188 188
188 188 188 188 188 188 188 188 188 188 188 188 188 188 188 188 188
188 188 188 188 188 188 188 188 188 188 188 188 188 188 188 188 188
188 188 188 188 188 188 188 188 188 188 188 188 188 188 188 188 188
188 188 188 188 188 188 188 188 188 188 188 188 188 188 188 188 188
188 188 188 188 188 188 188 188 188 188 188 188 188 188 188 188 188
188 188 188 188 188 188 188 188 188 188 188 188 188 188 188 188 188
188 188 188 188 188 188 188 188 188 188 188 188 188 188 188 188 188
188 188 188 188 188 188 188 188 188 188 188 188 188 188 188 188 188
188 188 188 188 188 188 188 188 188 188 188 188 188 188 188 188 188
188 188 188 188 188 188 188 188 188 188 188 188 188 188 188 188 188
188 188 188 188 188 188 188 188 188 188 188 188 188 188 188 188 188
188 188 188 188 188 188 188 188 188 188 188 188 188 188 188 188 188
188 188 188 188 188 188
255 255 255 0 0 0 255 255 255 0 0 0 255 255 255 0 0 0 255 255 255 0 0
0 255 255 255 0 0 0 255 255 255 0 0 0 255 255 255 0 0 0 255 255 255 0
0 0 255 255 255 0 0 0 255 255 255 0 0 0 255 255 255 0 0 0 255 255 255
0 0 0 255 255 255 0 0 0 255 255 255 0 0 0 255 255 255 0 0 0 255 255
255 0 0 0 255 255 255 0 0 0 255 255 255 0 0 0 255 255 255 0 0 0 255
255 255 0 0 0 255 255 255 0 0 0 255 255 255 0 0 0 255 255 255 0 0 0
255 255 255 0 0 0 255 255 255 0 0 0 255 255 255 0 0 0 255 255 255 0 0
0 255 255 255 0 0 0 255 255 255 0 0 0 255 255 255 0 0 0 255 255 255 0
0 0 255 255 255 0 0 0 255 255 255 0 0 0 255 255 255 0 0 0 255 255 255
0 0 0 255 255 255 0 0 0 255 255 255 0 0 0 255 255 255 0 0 0 255 255
255 0 0 0 255 255 255 0 0 0 255 255 255 0 0 0 255 255 255 0 0 0 255
255 255 0 0 0 255 255 255 0 0 0 255 255 255 0 0 0 255 255 255 0 0 0
255 255 255 0 0 0 255 255 255 0 0 0 255 255 255 0 0 0 255 255 255 0 0
0 128 128 128 128 128 128 128 128 128 128 128 128 128 128 128 128 128
128 128 128 128 128 128 128 128 128 128 128 128 128 128 128 128 128
128 128 128 128 128 128 128 128 128 128 128 128 128 128 128 128 128
128 128 128 128 128 128 128 128 128 128 128 128 128 128 128 128 128
128 128 128 128 128 128 128 128 128 128 128 128 128 128 128 128 128
128 128 128 128 128 128 128 128 128 128 128 128 128 128 128 128 128
128 128 128 128 128 128 128 128 128 128 128 128 128 128 128 128 128
128 128 128 128 128 128 128 128 128 128 128 128 128 128 128 128 128
128 128 128 128 128 128 128 128 128 128 128 128 128 128 128 128 128
128 128 128 128 128 128 128 128 128 128 128 128 128 128 128 128 128
128 128 128 128 128 128 128 128 128 128 128 128 128 128 128 128 128
128 128 128 128 128 128 128 128 128 128 128 128 128 128 128 128 128
128 128 128 128 128 128 128 128 128 128 128 128 128 128 128 128 128
128 128 128 128 128 128 128 128 128 128 128 128 128 128 128 128 128
128 128 128 128 128 128 128 128 128 128 128 128 128 128 128 128 128
128 128 128 128 128 128 128 128 128 128 128 128 128 128 128 128 128
128 128 128 128 128 128 128 128 128 128 128 128 128 128 128 128 128
128 128 128 128 128 128 128 128 128 128 128 188 188 188 188 188 188
188 188 188 188 188 188 188 188 188 188 188 188 188 188 188 188 188
188 188 188 188 188 188 188 188 188 188 188 188 188 188 188 188 188
188 188 188 188 188 188 188 188 188 188 188 188 188 188 188 188 188
188 188 188 188 188 188 188 188 188 188 188 188 188 188 188 188 188
188 188 188 188 188 188 188 188 188 188 188 188 188 188 188 188 188
188 188 188 188 188 188 188 188 188 188 188 188 188 188 188 188 188
188 188 188 188 188 188 188 188 188 188 188 188 188 188 188 188 188
188 188 188 188 188 188 188 188 188 188 188 188 188 188 188 188 188
188 188 188 188 188 188 188 188 188 188 188 188 188 188 188 188 188
188 188 188 188 188 188 188 188 188 188 188 188 188 188 188 188 188
188 188 188 188 188 188 188 188 188 188 188 188 188 188 188 188 188
188 188 188 188 188 188 188 188 188 188 188 188 188 188 188 188 188
188 188 188 188 188 188 188 188 188 188 188 188 188 188 188 188 188
188 188 188 188 188 188 188 188 188 188 188 188 188 188 188 188 188
188 188 188 188 188 188 188 188 188 188 188 188 188 188 188 188 188
188 188 188 188 188 188 188 188 188 188 188 188 188 188 188 188 188
188 188 188 188 188 188 188 188 188 188 188 188 188 188 188 188 188
188 188 188 188 188
0 0 0 255 255 255 0 0 0 255 255 255 0 0 0 255 255 255 0 0 0 255 255
255 0 0 0 255 255 255 0 0 0 255 255 255 0 0 0 255 255 255 0 0 0 255
255 255 0 0 0 255 255 255 0 0 0 255 255 255 0 0 0 255 255 255 0 0 0
255 255 255 0 0 0 255 255 255 0 0 0 255 255 255 0 0 0 255 255 255 0 0
0 255 255 255 0 0 0 255 255 255 0 0 0 255 255 255 0 0 0 255 255 255 0
0 0 255 255 255 0 0 0 255 255 255 0 0 0 255 255 255 0 0 0 255 255 255
0 0 0 255 255 255 0 0 0 255 255 255 0 0 0 255 255 255 0 0 0 255 255
255 0 0 0 255 255 255 0 0 0 255 255 255 0 0 0 255 255 255 0 0 0 255
255 255 0 0 0 255 255 255 0 0 0 255 255 255 0 0 0 255 255 255 0 0 0
255 255 255 0 0 0 255 255 255 0 0 0 255 255 255 0 0 0 255 255 255 0 0
0 255 255 255 0 0 0 255 255 255 0 0 0 255 255 255 0 0 0 255 255 255 0
0 0 255 255 255 0 0 0 255 255 255 0 0 0 255 255 255 0 0 0 255 255 255
0 0 0 255 255 255 0 0 0 255 255 255 0 0 0 255 255 255 0 0 0 255 255
255 128 128 128 128 128 128 128 128 128 128 128 128 128 128 128 128
128 128 128 128 128 128 128 128 128 128 128 128 128 128 128 128 128
128 128 128 128 128 128 128 128 128 128 128 128 128 128 128 128 128
128 128 128 128 128 128 128 128 128 128 128 128 128 128 128 128 128
128 128 128 128 128 128 128 128 128 128 128 128 128 128 128 128 128
128 128 128 128 128 128 128 128 128 128 128 128 128 128 128 128 128
128 128 128 128 128 128 128 128 128 128 128 128 128 128 128 128 128
128 128 128 128 128 128 128 128 128 128 128 128 128 128 128 128 128
128 128 128 128 128 128 128 128 128 128 128 128 128 128 128 128 128
128 128 128 128 128 128 128 128 128 128 128 128 128 128 128 128 128
128 128 128 128 128 128 128 128 128 128 128 128 128 128 128 128 128
128 128 128 128 128 128 128 128 128 128 128 128 128 128 128 128 128
128 128 128 128 128 128 128 128 128 128 128 128 128 128 128 128 128
128 128 128 128 128 128 128 128 128 128 128 128 128 128 128 128 128
128 128 128 128 128 128 128 128 128 128 128 128 128 128 128 128 128
128 128 128 128 128 128 128 128 128 128 128 128 128 128 128 128 128
128 128 128 128 128 128 128 128 128 128 128 128 128 128 128 128 128
128 128 128 128 128 128 128 128 128 128 128 128 188 188 188 188 188
188 188 188 188 188 188 188 188 188 188 188 188 188 188 188 188 188
188 188 188 188 188 188 188 188 188 188 188 188 188 188 188 188 188
188 188 188 188 188 188 188 188 188 188 188 188 188 188 188 188 188
188 188 188 188 188 188 188 188 188 188 188 188 188 188 188 188 188
188 188 188 188 188 188 188 188 188 188 188 188 188 188 188 188 188
188 188 188 188 188 188 188 188 188 188 188 188 188 188 188 188 188
188 188 188 188 188 188 188 188 188 188 188 188 188 188 188 188 188
188 188 188 188 188 188 188 188 188 188 188 188 188 188 188 188 188
188 188 188 188 188 188 188 188 188 188 188 188 188 188 188 188 188
188 188 188 188 188 188 188 188 188 188 188 188 188 188 188 188 188
188 188 188 188 188 188 188 188 188 188 188 188 188 188 188 188 188
188 188 188 188 188 188 188 188 188 188 188 188 188 188 188 188 188
188 188 188 188 188 188 188 188 188 188 188 188 188 188 188 188 188
188 188 188 188 188 188 188 188 188 188 188 188 188 188 188 188 188
188 188 188 188 188 188 188 188 188 188 188 188 188 188 188 188 188
188 188 188 188 188 188 188 188 188 188 188 188 188 188 188 188 188
188 188 188 188 188 188 188 188 188 188 188 188 188 188 188 188 188
188 188 188 188 188 188
255 255 255 0 0 0 255 255 255 0 0 0 255 255 255 0 0 0 255 255 255 0 0
0 255 255 255 0 0 0 255 255 255 0 0 0 255 255 255 0 0 0 255 255 255 0
0 0 255 255 255 0 0 0 255 255 255 0 0 0 255 255 255 0 0 0 255 255 255
0 0 0 255 255 255 0 0 0 255 255 255 0 0 0 255 255 255 0 0 0 255 255
255 0 0 0 255 255 255 0 0 0 255 255 255 0 0 0 255 255 255 0 0 0 255
255 255 0 0 0 255 255 255 0 0 0 255 255 255 0 0 0 255 255 255 0 0 0
255 255 255 0 0 0 255 255 255 0 0 0 255 255 255 0 0 0 255 255 255 0 0
0 255 255 255 0 0 0 255 255 255 0 0 0 255 255 255 0 0 0 255 255 255 0
0 0 255 255 255 0 0 0 255 255 255 0 0 0 255 255 255 0 0 0 255 255 255
0 0 0 255 255 255 0 0 0 255 255 255 0 0 0 255 255 255 0 0 0 255 255
255 0 0 0 255 255 255 0 0 0 255 255 255 0 0 0 255 255 255 0 0 0 255
255 255 0 0 0 255 255 255 0 0 0 255 255 255 0 0 0 255 255 255 0 0 0
255 255 255 0 0 0 255 255 255 0 0 0 255 255 255 0 0 0 255 255 255 0 0
0 128 128 128 128 128 128 128 128 128 128 128 128 128 128 128 128 128
128 128 128 128 128 128 128 128 128 128 128 128 128 128 128 128 128
128 128 128 128 128 128 128 128 128 128 128 128 128 128 128 128 128
128 128 128 128 128 128 128 128 128 128 128 128 128 128 128 128 128
128 128 128 128 128 128 128 128 128 128 128 128 128 128 128 128 128
128 128 128 128 128 128 128 128 128 128 128 128 128 128 128 128 128
128 128 128 128 128 128 128 128 128 128 128 128 128 128 128 128 128
128 128 128 128 128 128 128 128 128 128 128 128 128 128 128 128 128
128 128 128 128 128 128 128 128 128 128 128 128 128 128 128 128 128
128 128 128 128 128 128 128 128 128 128 128 128 128 128 128 128 128
128 128 128 128 128 128 128 128 128 128 128 128 128 128 128 128 128
128 128 128 128 128 128 128 128 128 128 128 128 128 128 128 128 128
128 128 128 128 128 128 128 128 128 128 128 128 128 128 128 128 128
128 128 128 128 128 128 128 128 128 128 128 128 128 128 128 128 128
128 128 128 128 128 128 128 128 128 128 128 128 128 128 128 128 128
128 128 128 128 128 128 128 128 128 128 128 128 128 128 128 128 128
128 128 128 128 128 128 128 128 128 128 128 128 128 128 128 128 128
128 128 128 128 128 128 128 128 128 128 128 188 188 188 188 188 188
188 188 188 188 188 188 188 188 188 188 188 188 188 188 188 188 188
188 188 188 188 188 188 188 188 188 188 188 188 188 188 188 188 188
188 188 188 188 188 188 188 188 188 188 188 188 188 188 188 188 188
188 188 188 188 188 188 188 188 188 188 188 188 188 188 188 188 188
188 188 188 188 188 188 188 188 188 188 188 188 188 188 188 188 188
188 188 188 188 188 188 188 188 188 188 188 188 188 188 188 188 188
188 188 188 188 188 188 188 188 188 188 188 188 188 188 188 188 188
188 188 188 188 188 188 188 188 188 188 188 188 188 188 188 188 188
188 188 188 188 188 188 188 188 188 188 188 188 188 188 188 188 188
188 188 188 188 188 188 188 188 188 188 188 188 188 188 188 188 188
188 188 188 188 188 188 188 188 188 188 188 188 188 188 188 188 188
188 188 188 188 188 188 188 188 188 188 188 188 188 188 188 188 188
188 188 188 188 188 188 188 188 188 188 188 188 188 188 188 188 188
188 188 188 188 188 188 188 188 188 188 188 188 188 188 188 188 188
188 188 188 188 188 188 188 188 188 188 188 188 188 188 188 188 188
188 188 188 188 188 188 188 188 188 188 188 188 188 188 188 188 188
188 188 188 188 188 188 188 188 188 188 188 188 188 188 188 188 188
188 188 188 188 188
0 0 0 255 255 255 0 0 0 255 255 255 0 0 0 255 255 255 0 0 0 255 255
255 0 0 0 255 255 255 0 0 0 255 255 255 0 0 0 255 255 255 0 0 0 255
255 255 0 0 0 255 255 255 0 0 0 255 255 255 0 0 0 255 255 255 0 0 0
255 255 255 0 0 0 255 255 255 0 0 0 255 255 255 0 0 0 255 255 255 0 0
0 255 255 255 0 0 0 255 255 255 0 0 0 255 255 255 0 0 0 255 255 255 0
0 0 255 255 255 0 0 0 255 255 255 0 0 0 255 255 255 0 0 0 255 255 255
0 0 0 255 255 255 0 0 0 255 255 255 0 0 0 255 255 255 0 0 0 255 255
255 0 0 0 255 255 255 0 0 0 255 255 255 0 0 0 255 255 255 0 0 0 255
255 255 0 0 0 255 255 255 0 0 0 255 255 255 0 0 0 255 255 255 0 0 0
255 255 255 0 0 0 255 255 255 0 0 0 255 255 255 0 0 0 255 255 255 0 0
0 255 255 255 0 0 0 255 255 255 0 0 0 255 255 255 0 0 0 255 255 255 0
0 0 255 255 255 0 0 0 255 255 255 0 0 0 255 255 255 0 0 0 255 255 255
0 0 0 255 255 255 0 0 0 255 255 255 0 0 0 255 255 255 0 0 0 255 255
255 128 128 128 128 128 128 128 128 128 128 128 128 128 128 128 128
128 128 128 128 128 128 128 128 128 128 128 128 128 128 128 128 128
128 128 128 128 128 128 128 128 128 128 128 128 128 128 128 128 128
128 128 128 128 128 128 128 128 128 128 128 128 128 128 128 128 128
128 128 128 128 128 128 128 128 128 128 128 128 128 128 128 128 128
128 128 128 128 128 128 128 128 128 128 128 128 128 128 128 128 128
128 128 128 128 128 128 128 128 128 128 128 128 128 128 128 128 128
128 128 128 128 128 128 128 128 128 128 128 128 128 128 128 128 128
128 128 128 128 128 128 128 128 128 128 128 128 128 128 128 128 128
128 128 128 128 128 128 128 128 128 128 128 128 128 128 128 128 128
128 128 128 128 128 128 128 128 128 128 128 128 128 128 128 128 128
128 128 128 128 128 128 128 128 128 128 128 128 128 128 128 128 128
128 128 128 128 128 128 128 128 128 128 128 128 128 128 128 128 128
128 128 128 128 128 128 128 128 128 128 128 128 128 128 128 128 128
128 128 128 128 128 128 128 128 128 128 128 128 128 128 128 128 128
128 128 128 128 128 128 128 128 128 128 128 128 128 128 128 128 128
128 128 128 128 128 128 128 128 128 128 128 128 128 128 128 128 128
128 128 128 128 128 128 128 128 128 128 128 128 188 188 188 188 188
188 188 188 188 188 188 188 188 188 188 188 188 188 188 188 188 188
188 188 188 188 188 188 188 188 188 188 188 188 188 188 188 188 188
188 188 188 188 188 188 188 188 188 188 188 188 188 188 188 188 188
188 188 188 188 188 188 188 188 188 188 188 188 188 188 188 188 188
188 188 188 188 188 188 188 188 188 188 188 188 188 188 188 188 188
188 188 188 188 188 188 188 188 188 188 188 188 188 188 188 188 188
188 188 188 188 188 188 188 188 188 188 188 188 188 188 188 188 188
188 188 188 188 188 188 188 188 188 188 188 188 188 188 188 188 188
188 188 188 188 188 188 188 188 188 188 188 188 188 188 188 188 188
188 188 188 188 188 188 188 188 188 188 188 188 188 188 188 188 188
188 188 188 188 188 188 188 188 188 188 188 188 188 188 188 188 188
188 188 188 188 188 188 188 188 188 188 188 188 188 188 188 188 188
188 188 188 188 188 188 188 188 188 188 188 188 188 188 188 188 188
188 188 188 188 188 188 188 188 188 188 188 188 188 188 188 188 188
188 188 188 188 188 188 188 188 188 188 188 188 188 188 188 188 188
188 188 188 188 188 188 188 188 188 188 188 188 188 188 188 188 188
188 188 188 188 188 188 188 188 188 188 188 188 188 188 188 188 188
188 188 188 188 188 188
255 255 255 0 0 0 255 255 255 0 0 0 255 255 255 0 0 0 255 255 255 0 0
0 255 255 255 0 0 0 255 255 255 0 0 0 255 255 255 0 0 0 255 255 255 0
0 0 255 255 255 0 0 0 255 255 255 0 0 0 255 255 255 0 0 0 255 255 255
0 0 0 255 255 255 0 0 0 255 255 255 0 0 0 255 255 255 0 0 0 255 255
255 0 0 0 255 255 255 0 0 0 255 255 255 0 0 0 255 255 255 0 0 0 255
255 255 0 0 0 255 255 255 0 0 0 255 255 255 0 0 0 255 255 255 0 0 0
255 255 255 0 0 0 255 255 255 0 0 0 255 255 255 0 0 0 255 255 255 0 0
0 255 255 255 0 0 0 255 255 255 0 0 0 255 255 255 0 0 0 255 255 255 0
0 0 255 255 255 0 0 0 255 255 255 0 0 0 255 255 255 0 0 0 255 255 255
0 0 0 255 255 255 0 0 0 255 255 255 0 0 0 255 255 255 0 0 0 255 255
255 0 0 0 255 255 255 0 0 0 255 255 255 0 0 0 255 255 255 0 0 0 255
255 255 0 0 0 255 255 255 0 0 0 255 255 255 0 0 0 255 255 255 0 0 0
255 255 255 0 0 0 255 255 255 0 0 0 255 255 255 0 0 0 255 255 255 0 0
0 128 128 128 128 128 128 128 128 128 128 128 128 128 128 128 128 128
128 128 128 128 128 128 128 128 128 128 128 128 128 128 128 128 128
128 128 128 128 128 128 128 128 128 128 128 128 128 128 128 128 128
128 128 128 128 128 128 128 128 128 128 128 128 128 128 128 128 128
128 128 128 128 128 128 128 128 128 128 128 128 128 128 128 128 128
128 128 128 128 128 128 128 128 128 128 128 128 128 128 128 128 128
128 128 128 128 128 128 128 128 128 128 128 128 128 128 128 128 128
128 128 128 128 128 128 128 128 128 128 128 128 128 128 128 128 128
128 128 128 128 128 128 128 128 128 128 128 128 128 128 128 128 128
128 128 128 128 128 128 128 128 128 128 128 128 128 128 128 128 128
128 128 128 128 128 128 128 128 128 128 128 128 128 128 128 128 128
128 128 128 128 128 128 128 128 128 128 128 128 128 128 128 128 128
128 128 128 128 128 128 128 128 128 128 128 128 128 128 128 128 128
128 128 128 128 128 128 128 128 128 128 128 128 128 128 128 128 128
128 128 128 128 128 128 128 128 128 128 128 128 128 128 128 128 128
128 128 128 128 128 128 128 128 128 128 128 128 128 128 128 128 128
128 128 128 128 128 128 128 128 128 128 128 128 128 128 128 128 128
128 128 128 128 128 128 128 128 128 128 128 188 188 188 188 188 188
188 188 188 188 188 188 188 188 188 188 188 188 188 188 188 188 188
188 188 188 188 188 188 188 188 188 188 188 188 188 188 188 188 188
188 188 188 188 188 188 188 188 188 188 188 188 188 188 188 188 188
188 188 188 188 188 188 188 188 188 188 188 188 188 188 188 188 188
188 188 188 188 188 188 188 188 188 188 188 188 188 188 188 188 188
188 188 188 188 188 188 188 188 188 188 188 188 188 188 188 188 188
188 188 188 188 188 188 188 188 188 188 188 188 188 188 188 188 188
188 188 188 188 188 188 188 188 188 188 188 188 188 188 188 188 188
188 188 188 188 188 188 188 188 188 188 188 188 188 188 188 188 188
188 188 188 188 188 188 188 188 188 188 188 188 188 188 188 188 188
188 188 188 188 188 188 188 188 188 188 188 188 188 188 188 188 188
188 188 188 188 188 188 188 188 188 188 188 188 188 188 188 188 188
188 188 188 188 188 188 188 188 188 188 188 188 188 188 188 188 188
188 188 188 188 188 188 188 188 188 188 188 188 188 188 188 188 188
188 188 188 188 188 188 188 188 188 188 188 188 188 188 188 188 188
188 188 188 188 188 188 188 188 188 188 188 188 188 188 188 188 188
188 188 188 188 188 188 188 188 188 188 188 188 188 188 188 188 188
188 188 188 188 188
0 0 0 255 255 255 0 0 0 255 255 255 0 0 0 255 255 255 0 0 0 255 255
255 0 0 0 255 255 255 0 0 0 255 255 255 0 0 0 255 255 255 0 0 0 255
255 255 0 0 0 255 255 255 0 0 0 255 255 255 0 0 0 255 255 255 0 0 0
255 255 255 0 0 0 255 255 255 0 0 0 255 255 255 0 0 0 255 255 255 0 0
0 255 255 255 0 0 0 255 255 255 0 0 0 255 255 255 0 0 0 255 255 255 0
0 0 255 255 255 0 0 0 255 255 255 0 0 0 255 255 255 0 0 0 255 255 255
0 0 0 255 255 255 0 0 0 255 255 255 0 0 0 255 255 255 0 0 0 255 255
255 0 0 0 255 255 255 0 0 0 255 255 255 0 0 0 255 255 255 0 0 0 255
255 255 0 0 0 255 255 255 0 0 0 255 255 255 0 0 0 255 255 255 0 0 0
255 255 255 0 0 0 255 255 255 0 0 0 255 255 255 0 0 0 255 255 255 0 0
0 255 255 255 0 0 0 255 255 255 0 0 0 255 255 255 0 0 0 255 255 255 0
0 0 255 255 255 0 0 0 255 255 255 0 0 0 255 255 255 0 0 0 255 255 255
0 0 0 255 255 255 0 0 0 255 255 255 0 0 0 255 255 255 0 0 0 255 255
255 128 128 128 128 128 128 128 128 128 128 128 128 128 128 128 128
128 128 128 128 128 128 128 128 128 128 128 128 128 128 128 128 128
128 128 128 128 128 128 128 128 128 128 128 128 128 128 128 128 128
128 128 128 128 128 128 128 128 128 128 128 128 128 128 128 128 128
128 128 128 128 128 128 128 128 128 128 128 128 128 128 128 128 128
128 128 128 128 128 128 128 128 128 128 128 128 128 128 128 128 128
128 128 128 128 128 128 128 128 128 128 128 128 128 128 128 128 128
128 128 128 128 128 128 128 128 128 128 128 128 128 128 128 128 128
128 128 128 128 128 128 128 128 128 128 128 128 128 128 128 128 128
128 128 128 128 128 128 128 128 128 128 128 128 128 128 128 128 128
128 128 128 128 128 128 128 128 128 128 128 128 128 128 128 128 128
128 128 128 128 128 128 128 128 128 128 128 128 128 128 128 128 128
128 128 128 128 128 128 128 128 128 128 128 128 128 128 128 128 128
128 128 128 128 128 128 128 128 128 128 128 128 128 128 128 128 128
128 128 128 128 128 128 128 128 128 128 128 128 128 128 128 128 128
128 128 128 128 128 128 128 128 128 128 128 128 128 128 128 128 128
128 128 128 128 128 128 128 128 128 128 128 128 128 128 128 128 128
128 128 128 128 128 128 128 128 128 128 128 128 188 188 188 188 188
188 188 188 188 188 188 188 188 188 188 188 188 188 188 188 188 188
188 188 188 188 188 188 188 188 188 188 188 188 188 188 188 188 188
188 188 188 188 188 188 188 188 188 188 188 188 188 188 188 188 188
188 188 188 188 188 188 188 188 188 188 188 188 188 188 188 188 188
188 188 188 188 188 188 188 188 188 188 188 188 188 188 188 188 188
188 188 188 188 188 188 188 188 188 188 188 188 188 188 188 188 188
188 188 188 188 188 188 188 188 188 188 188 188 188 188 188 188 188
188 188 188 188 188 188 188 188 188 188 188 188 188 188 188 188 188
188 188 188 188 188 188 188 188 188 188 188 188 188 188 188 188 188
188 188 188 188 188 188 188 188 188 188 188 188 188 188 188 188 188
188 188 188 188 188 188 188 188 188 188 188 188 188 188 188 188 188
188 188 188 188 188 188 188 188 188 188 188 188 188 188 188 188 188
188 188 188 188 188 188 188 188 188 188 188 188 188 188 188 188 188
188 188 188 188 188 188 188 188 188 188 188 188 188 188 188 188 188
188 188 188 188 188 188 188 188 188 188 188 188 188 188 188 188 188
188 188 188 188 188 188 188 188 188 188 188 188 188 188 188 188 188
188 188 188 188 188 188 188 188 188 188 188 188 188 188 188 188 188
188 188 188 188 188 188
255 255 255 0 0 0 255 255 255 0 0 0 255 255 255 0 0 0 255 255 255 0 0
0 255 255 255 0 0 0 255 255 255 0 0 0 255 255 255 0 0 0 255 255 255 0
0 0 255 255 255 0 0 0 255 255 255 0 0 0 255 255 255 0 0 0 255 255 255
0 0 0 255 255 255 0 0 0 255 255 255 0 0 0 255 255 255 0 0 0 255 255
255 0 0 0 255 255 255 0 0 0 255 255 255 0 0 0 255 255 255 0 0 0 255
255 255 0 0 0 255 255 255 0 0 0 255 255 255 0 0 0 255 255 255 0 0 0
255 255 255 0 0 0 255 255 255 0 0 0 255 255 255 0 0 0 255 255 255 0 0
0 255 255 255 0 0 0 255 255 255 0 0 0 255 255 255 0 0 0 255 255 255 0
0 0 255 255 255 0 0 0 255 255 255 0 0 0 255 255 255 0 0 0 255 255 255
0 0 0 255 255 255 0 0 0 255 255 255 0 0 0 255 255 255 0 0 0 255 255
255 0 0 0 255 255 255 0 0 0 255 255 255 0 0 0 255 255 255 0 0 0 255
255 255 0 0 0 255 255 255 0 0 0 255 255 255 0 0 0 255 255 255 0 0 0
255 255 255 0 0 0 255 255 255 0 0 0 255 255 255 0 0 0 255 255 255 0 0
0 128 128 128 128 128 128 128 128 128 128 128 128 128 128 128 128 128
128 128 128 128 128 128 128 128 128 128 128 128 128 128 128 128 128
128 128 128 128 128 128 128 128 128 128 128 128 128 128 128 128 128
128 128 128 128 128 128 128 128 128 128 128 128 128 128 128 128 128
128 128 128 128 128 128 128 128 128 128 128 128 128 128 128 128 128
128 128 128 128 128 128 128 128 128 128 128 128 128 128 128 128 128
128 128 128 128 128 128 128 128 128 128 128 128 128 128 128 128 128
128 128 128 128 128 128 128 128 128 128 128 128 128 128 128 128 128
128 128 128 128 128 128 128 128 128 128 128 128 128 128 128 128 128
128 128 128 128 128 128 128 128 128 128 128 128 128 128 128 128 128
128 128 128 128 128 128 128 128 128 128 128 128 128 128 128 128 128
128 128 128 128 128 128 128 128 128 128 128 128 128 128 128 128 128
128 128 128 128 128 128 128 128 128 128 128 128 128 128 128 128 128
128 128 128 128 128 128 128 128 128 128 128 128 128 128 128 128 128
128 128 128 128 128 128 128 128 128 128 128 128 128 128 128 128 128
128 128 128 128 128 128 128 128 128 128 128 128 128 128 128 128 128
128 128 128 128 128 128 128 128 128 128 128 128 128 128 128 128 128
128 128 128 128 128 128 128 128 128 128 128 188 188 188 188 188 188
188 188 188 188 188 188 188 188 188 188 188 188 188 188 188 188 188
188 188 188 188 188 188 188 188 188 188 188 188 188 188 188 188 188
188 188 188 188 188 188 188 188 188 188 188 188 188 188 188 188 188
188 188 188 188 188 188 188 188 188 188 188 188 188 188 188 188 188
188 188 188 188 188 188 188 188 188 188 188 188 188 188 188 188 188
188 188 188 188 188 188 188 188 188 188 188 188 188 188 188 188 188
188 188 188 188 188 188 188 188 188 188 188 188 188 188 188 188 188
188 188 188 188 188 188 188 188 188 188 188 188 188 188 188 188 188
188 188 188 188 188 188 188 188 188 188 188 188 188 188 188 188 188
188 188 188 188 188 188 188 188 188 188 188 188 188 188 188 188 188
188 188 188 188 188 188 188 188 188 188 188 188 188 188 188 188 188
188 188 188 188 188 188 188 188 188 188 188 188 188 188 188 188 188
188 188 188 188 188 188 188 188 188 188 188 188 188 188 188 188 188
188 188 188 188 188 188 188 188 188 188 188 188 188 188 188 188 188
188 188 188 188 188 188 188 188 188 188 188 188 188 188 188 188 188
188 188 188 188 188 188 188 188 188 188 188 188 188 188 188 188 188
188 188 188 188 188 188 188 188 188 188 188 188 188 188 188 188 188
188 188 188 188 188
0 0 0 255 255 255 0 0 0 255 255 255 0 0 0 255 255 255 0 0 0 255 255
255 0 0 0 255 255 255 0 0 0 255 255 255 0 0 0 255 255 255 0 0 0 255
255 255 0 0 0 255 255 255 0 0 0 255 255 255 0 0 0 255 255 255 0 0 0
255 255 255 0 0 0 255 255 255 0 0 0 255 255 255 0 0 0 255 255 255 0 0
0 255 255 255 0 0 0 255 255 255 0 0 0 255 255 255 0 0 0 255 255 255 0
0 0 255 255 255 0 0 0 255 255 255 0 0 0 255 255 255 0 0 0 255 255 255
0 0 0 255 255 255 0 0 0 255 255 255 0 0 0 255 255 255 0 0 0 255 255
255 0 0 0 255 255 255 0 0 0 255 255 255 0 0 0 255 255 255 0 0 0 255
255 255 0 0 0 255 255 255 0 0 0 255 255 255 0 0 0 255 255 255 0 0 0
255 255 255 0 0 0 255 255 255 0 0 0 255 255 255 0 0 0 255 255 255 0 0
0 255 255 255 0 0 0 255 255 255 0 0 0 255 255 255 0 0 0 255 255 255 0
0 0 255 255 255 0 0 0 255 255 255 0 0 0 255 255 255 0 0 0 255 255 255
0 0 0 255 255 255 0 0 0 255 255 255 0 0 0 255 255 255 0 0 0 255 255
255 128 128 128 128 128 128 128 128 128 128 128 128 128 128 128 128
128 128 128 128 128 128 128 128 128 128 128 128 128 128 128 128 128
128 128 128 128 128 128 128 128 128 128 128 128 128 128 128 128 128
128 128 128 128 128 128 128 128 128 128 128 128 128 128 128 128 128
128 128 128 128 128 128 128 128 128 128 128 128 128 128 128 128 128
128 128 128 128 128 128 128 128 128 128 128 128 128 128 128 128 128
128 128 128 128 128 128 128 128 128 128 128 128 128 128 128 128 128
128 128 128 128 128 128 128 128 128 128 128 128 128 128 128 128 128
128 128 128 128 128 128 128 128 128 128 128 128 128 128 128 128 128
128 128 128 128 128 128 128 128 128 128 128 128 128 128 128 128 128
128 128 128 128 128 128 128 128 128 128 128 128 128 128 128 128 128
128 128 128 128 128 128 128 128 128 128 128 128 128 128 128 128 128
128 128 128 128 128 128 128 128 128 128 128 128 128 128 128 128 128
128 128 128 128 128 128 128 128 128 128 128 128 128 128 128 128 128
128 128 128 128 128 128 128 128 128 128 128 128 128 128 128 128 128
128 128 128 128 128 128 128 128 128 128 128 128 128 128 128 128 128
128 128 128 128 128 128 128 128 128 128 128 128 128 128 128 128 128
128 128 128 128 128 128 128 128 128 128 128 128 188 188 188 188 188
188 188 188 188 188 188 188 188 188 188 188 188 188 188 188 188 188
188 188 188 188 188 188 188 188 188 188 188 188 188 188 188 188 188
188 188 188 188 188 188 188 188 188 188 188 188 188 188 188 188 188
188 188 188 188 188 188 188 188 188 188 188 188 188 188 188 188 188
188 188 188 188 188 188 188 188 188 188 188 188 188 188 188 188 188
188 188 188 188 188 188 188 188 188 188 188 188 188 188 188 188 188
188 188 188 188 188 188 188 188 188 188 188 188 188 188 188 188 188
188 188 188 188 188 188 188 188 188 188 188 188 188 188 188 188 188
188 188 188 188 188 188 188 188 188 188 188 188 188 188 188 188 188
188 188 188 188 188 188 188 188 188 188 188 188 188 188 188 188 188
188 188 188 188 188 188 188 188 188 188 188 188 188 188 188 188 188
188 188 188 188 188 188 188 188 188 188 188 188 188 188 188 188 188
188 188 188 188 188 188 188 188 188 188 188 188 188 188 188 188 188
188 188 188 188 188 188 188 188 188 188 188 188 188 188 188 188 188
188 188 188 188 188 188 188 188 188 188 188 188 188 188 188 188 188
188 188 188 188 188 188 188 188 188 188 188 188 188 188 188 188 188
188 188 188 188 188 188 188 188 188 188 188 188 188 188 188 188 188
188 188 188 188 188 188
255 255 255 0 0 0 255 255 255 0 0 0 255 255 255 0 0 0 255 255 255 0 0
0 255 255 255 0 0 0 255 255 255 0 0 0 255 255 255 0 0 0 255 255 255 0
0 0 255 255 255 0 0 0 255 255 255 0 0 0 255 255 255 0 0 0 255 255 255
0 0 0 255 255 255 0 0 0 255 255 255 0 0 0 255 255 255 0 0 0 255 255
255 0 0 0 255 255 255 0 0 0 255 255 255 0 0 0 255 255 255 0 0 0 255
255 255 0 0 0 255 255 255 0 0 0 255 255 255 0 0 0 255 255 255 0 0 0
255 255 255 0 0 0 255 255 255 0 0 0 255 255 255 0 0 0 255 255 255 0 0
0 255 255 255 0 0 0 255 255 255 0 0 0 255 255 255 0 0 0 255 255 255 0
0 0 255 255 255 0 0 0 255 255 255 0 0 0 255 255 255 0 0 0 255 255 255
0 0 0 255 255 255 0 0 0 255 255 255 0 0 0 255 255 255 0 0 0 255 255
255 0 0 0 255 255 255 0 0 0 255 255 255 0 0 0 255 255 255 0 0 0 255
255 255 0 0 0 255 255 255 0 0 0 255 255 255 0 0 0 255 255 255 0 0 0
255 255 255 0 0 0 255 255 255 0 0 0 255 255 255 0 0 0 255 255 255 0 0
0 128 128 128 128 128 128 128 128 128 128 128 128 128 128 128 128 128
128 128 128 128 128 128 128 128 128 128 128 128 128 128 128 128 128
128 128 128 128 128 128 128 128 128 128 128 128 128 128 128 128 128
128 128 128 128 128 128 128 128 128 128 128 128 128 128 128 128 128
128 128 128 128 128 128 128 128 128 128 128 128 128 128 128 128 128
128 128 128 128 128 128 128 128 128 128 128 128 128 128 128 128 128
128 128 128 128 128 128 128 128 128 128 128 128 128 128 128 128 128
128 128 128 128 128 128 128 128 128 128 128 128 128 128 128 128 128
128 128 128 128 128 128 128 128 128 128 128 128 128 128 128 128 128
128 128 128 128 128 128 128 128 128 128 128 128 128 128 128 128 128
128 128 128 128 128 128 128 128 128 128 128 128 128 128 128 128 128
128 128 128 128 128 128 128 128 128 128 128 128 128 128 128 128 128
128 128 128 128 128 128 128 128 128 128 128 128 128 128 128 128 128
128 128 128 128 128 128 128 128 128 128 128 128 128 128 128 128 128
128 128 128 128 128 128 128 128 128 128 128 128 128 128 128 128 128
128 128 128 128 128 128 128 128 128 128 128 128 128 128 128 128 128
128 128 128 128 128 128 128 128 128 128 128 128 128 128 128 128 128
128 128 128 128 128 128 128 128 128 128 128 188 188 188 188 188 188
188 188 188 188 188 188 188 188 188 188 188 188 188 188 188 188 188
188 188 188 188 188 188 188 188 188 188 188 188 188 188 188 188 188
188 188 188 188 188 188 188 188 188 188 188 188 188 188 188 188 188
188 188 188 188 188 188 188 188 188 188 188 188 188 188 188 188 188
188 188 188 188 188 188 188 188 188 188 188 188 188 188 188 188 188
188 188 188 188 188 188 188 188 188 188 188 188 188 188 188 188 188
188 188 188 188 188 188 188 188 188 188 188 188 188 188 188 188 188
188 188 188 188 188 188 188 188 188 188 188 188 188 188 188 188 188
188 188 188 188 188 188 188 188 188 188 188 188 188 188 188 188 188
188 188 188 188 188 188 188 188 188 188 188 188 188 188 188 188 188
188 188 188 188 188 188 188 188 188 188 188 188 188 188 188 188 188
188 188 188 188 188 188 188 188 188 188 188 188 188 188 188 188 188
188 188 188 188 188 188 188 188 188 188 188 188 188 188 188 188 188
188 188 188 188 188 188 188 188 188 188 188 188 188 188 188 188 188
188 188 188 188 188 188 188 188 188 188 188 188 188 188 188 188 188
188 188 188 188 188 188 188 188 188 188 188 188 188 188 188 188 188
188 188 188 188 188 188 188 188 188 188 188 188 188 188 188 188 188
188 188 188 188 188
0 0 0 255 255 255 0 0 0 255 255 255 0 0 0 255 255 255 0 0 0 255 255
255 0 0 0 255 255 255 0 0 0 255 255 255 0 0 0 255 255 255 0 0 0 255
255 255 0 0 0 255 255 255 0 0 0 255 255 255 0 0 0 255 255 255 0 0 0
255 255 255 0 0 0 255 255 255 0 0 0 255 255 255 0 0 0 255 255 255 0 0
0 255 255 255 0 0 0 255 255 255 0 0 0 255 255 255 0 0 0 255 255 255 0
0 0 255 255 255 0 0 0 255 255 255 0 0 0 255 255 255 0 0 0 255 255 255
0 0 0 255 255 255 0 0 0 255 255 255 0 0 0 255 255 255 0 0 0 255 255
255 0 0 0 255 255 255 0 0 0 255 255 255 0 0 0 255 255 255 0 0 0 255
255 255 0 0 0 255 255 255 0 0 0 255 255 255 0 0 0 255 255 255 0 0 0
255 255 255 0 0 0 255 255 255 0 0 0 255 255 255 0 0 0 255 255 255 0 0
0 255 255 255 0 0 0 255 255 255 0 0 0 255 255 255 0 0 0 255 255 255 0
0 0 255 255 255 0 0 0 255 255 255 0 0 0 255 255 255 0 0 0 255 255 255
0 0 0 255 255 255 0 0 0 255 255 255 0 0 0 255 255 255 0 0 0 255 255
255 128 128 128 128 128 128 128 128 128 128 128 128 128 128 128 128
128 128 128 128 128 128 128 128 128 128 128 128 128 128 128 128 128
128 128 128 128 128 128 128 128 128 128 128 128 128 128 128 128 128
128 128 128 128 128 128 128 128 128 128 128 128 128 128 128 128 128
128 128 128 128 128 128 128 128 128 128 128 128 128 128 128 128 128
128 128 128 128 128 128 128 128 128 128 128 128 128 128 128 128 128
128 128 128 128 128 128 128 128 128 128 128 128 128 128 128 128 128
128 128 128 128 128 128 128 128 128 128 128 128 128 128 128 128 128
128 128 128 128 128 128 128 128 128 128 128 128 128 128 128 128 128
128 128 128 128 128 128 128 128 128 128 128 128 128 128 128 128 128
128 128 128 128 128 128 128 128 128 128 128 128 128 128 128 128 128
128 128 128 128 128 128 128 128 128 128 128 128 128 128 128 128 128
128 128 128 128 128 128 128 128 128 128 128 128 128 128 128 128 128
128 128 128 128 128 128 128 128 128 128 128 128 128 128 128 128 128
128 128 128 128 128 128 128 128 128 128 128 128 128 128 128 128 128
128 128 128 128 128 128 128 128 128 128 128 128 128 128 128 128 128
128 128 128 128 128 128 128 128 128 128 128 128 128 128 128 128 128
128 128 128 128 128 128 128 128 128 128 128 128 188 188 188 188 188
188 188 188 188 188 188 188 188 188 188 188 188 188 188 188 188 188
188 188 188 188 188 188 188 188 188 188 188 188 188 188 188 188 188
188 188 188 188 188 188 188 188 188 188 188 188 188 188 188 188 188
188 188 188 188 188 188 188 188 188 188 188 188 188 188 188 188 188
188 188 188 188 188 188 188 188 188 188 188 188 188 188 188 188 188
188 188 188 188 188 188 188 188 188 188 188 188 188 188 188 188 188
188 188 188 188 188 188 188 188 188 188 188 188 188 188 188 188 188
188 188 188 188 188 188 188 188 188 188 188 188 188 188 188 188 188
188 188 188 188 188 188 188 188 188 188 188 188 188 188 188 188 188
188 188 188 188 188 188 188 188 188 188 188 188 188 188 188 188 188
188 188 188 188 188 188 188 188 188 188 188 188 188 188 188 188 188
188 188 188 188 188 188 188 188 188 188 188 188 188 188 188 188 188
188 188 188 188 188 188 188 188 188 188 188 188 188 188 188 188 188
188 188 188 188 188 188 188 188 188 188 188 188 188 188 188 188 188
188 188 188 188 188 188 188 188 188 188 188 188 188 188 188 188 188
188 188 188 188 188 188 188 188 188 188 188 188 188 188 188 188 188
188 188 188 188 188 188 188 188 188 188 188 188 188 188 188 188 188
188 188 188 188 188 188
255 255 255 0 0 0 255 255 255 0 0 0 255 255 255 0 0 0 255 255 255 0 0
0 255 255 255 0 0 0 255 255 255 0 0 0 255 255 255 0 0 0 255 255 255 0
0 0 255 255 255 0 0 0 255 255 255 0 0 0 255 255 255 0 0 0 255 255 255
0 0 0 255 255 255 0 0 0 255 255 255 0 0 0 255 255 255 0 0 0 255 255
255 0 0 0 255 255 255 0 0 0 255 255 255 0 0 0 255 255 255 0 0 0 255
255 255 0 0 0 255 255 255 0 0 0 255 255 255 0 0 0 255 255 255 0 0 0
255 255 255 0 0 0 255 255 255 0 0 0 255 255 255 0 0 0 255 255 255 0 0
0 255 255 255 0 0 0 255 255 255 0 0 0 255 255 255 0 0 0 255 255 255 0
0 0 255 255 255 0 0 0 255 255 255 0 0 0 255 255 255 0 0 0 255 255 255
0 0 0 255 255 255 0 0 0 255 255 255 0 0 0 255 255 255 0 0 0 255 255
255 0 0 0 255 255 255 0 0 0 255 255 255 0 0 0 255 255 255 0 0 0 255
255 255 0 0 0 255 255 255 0 0 0 255 255 255 0 0 0 255 255 255 0 0 0
255 255 255 0 0 0 255 255 255 0 0 0 255 255 255 0 0 0 255 255 255 0 0
0 128 128 128 128 128 128 128 128 128 128 128 128 128 128 128 128 128
128 128 128 128 128 128 128 128 128 128 128 128 128 128 128 128 128
128 128 128 128 128 128 128 128 128 128 128 128 128 128 128 128 128
128 128 128 128 128 128 128 128 128 128 128 128 128 128 128 128 128
128 128 128 128 128 128 128 128 128 128 128 128 128 128 128 128 128
128 128 128 128 128 128 128 128 128 128 128 128 128 128 128 128 128
128 128 128 128 128 128 128 128 128 128 128 128 128 128 128 128 128
128 128 128 128 128 128 128 128 128 128 128 128 128 128 128 128 128
128 128 128 128 128 128 128 128 128 128 128 128 128 128 128 128 128
128 128 128 128 128 128 128 128 128 128 128 128 128 128 128 128 128
128 128 128 128 128 128 128 128 128 128 128 128 128 128 128 128 128
128 128 128 128 128 128 128 128 128 128 128 128 128 128 128 128 128
128 128 128 128 128 128 128 128 128 128 128 128 128 128 128 128 128
128 128 128 128 128 128 128 128 128 128 128 128 128 128 128 128 128
128 128 128 128 128 128 128 128 128 128 128 128 128 128 128 128 128
128 128 128 128 128 128 128 128 128 128 128 128 128 128 128 128 128
128 128 128 128 128 128 128 128 128 128 128 128 128 128 128 128 128
128 128 128 128 128 128 128 128 128 128 128 188 188 188 188 188 188
188 188 188 188 188 188 188 188 188 188 188 188 188 188 188 188 188
188 188 188 188 188 188 188 188 188 188 188 188 188 188 188 188 188
188 188 188 188 188 188 188 188 188 188 188 188 188 188 188 188 188
188 188 188 188 188 188 188 188 188 188 188 188 188 188 188 188 188
188 188 188 188 188 188 188 188 188 188 188 188 188 188 188 188 188
188 188 188 188 188 188 188 188 188 188 188 188 188 188 188 188 188
188 188 188 188 188 188 188 188 188 188 188 188 188 188 188 188 188
188 188 188 188 188 188 188 188 188 188 188 188 188 188 188 188 188
188 188 188 188 188 188 188 188 188 188 188 188 188 188 188 188 188
188 188 188 188 188 188 188 188 188 188 188 188 188 188 188 188 188
188 188 188 188 188 188 188 188 188 188 188 188 188 188 188 188 188
188 188 188 188 188 188 188 188 188 188 188 188 188 188 188 188 188
188 188 188 188 188 188 188 188 188 188 188 188 188 188 188 188 188
188 188 188 188 188 188 188 188 188 188 188 188 188 188 188 188 188
188 188 188 188 188 188 188 188 188 188 188 188 188 188 188 188 188
188 188 188 188 188 188 188 188 188 188 188 188 188 188 188 188 188
188 188 188 188 188 188 188 188 188 188 188 188 188 188 188 188 188
188 188 188 188 188
0 0 0 255 255 255 0 0 0 255 255 255 0 0 0 255 255 255 0 0 0 255 255
255 0 0 0 255 255 255 0 0 0 255 255 255 0 0 0 255 255 255 0 0 0 255
255 255 0 0 0 255 255 255 0 0 0 255 255 255 0 0 0 255 255 255 0 0 0
255 255 255 0 0 0 255 255 255 0 0 0 255 255 255 0 0 0 255 255 255 0 0
0 255 255 255 0 0 0 255 255 255 0 0 0 255 255 255 0 0 0 255 255 255 0
0 0 255 255 255 0 0 0 255 255 255 0 0 0 255 255 255 0 0 0 255 255 255
0 0 0 255 255 255 0 0 0 255 255 255 0 0 0 255 255 255 0 0 0 255 255
255 0 0 0 255 255 255 0 0 0 255 255 255 0 0 0 255 255 255 0 0 0 255
255 255 0 0 0 255 255 255 0 0 0 255 255 255 0 0 0 255 255 255 0 0 0
255 255 255 0 0 0 255 255 255 0 0 0 255 255 255 0 0 0 255 255 255 0 0
0 255 255 255 0 0 0 255 255 255 0 0 0 255 255 255 0 0 0 255 255 255 0
0 0 255 255 255 0 0 0 255 255 255 0 0 0 255 255 255 0 0 0 255 255 255
0 0 0 255 255 255 0 0 0 255 255 255 0 0 0 255 255 255 0 0 0 255 255
255 128 128 128 128 128 128 128 128 128 128 128 128 128 128 128 128
128 128 128 128 128 128 128 128 128 128 128 128 128 128 128 128 128
128 128 128 128 128 128 128 128 128 128 128 128 128 128 128 128 128
128 128 128 128 128 128 128 128 128 128 128 128 128 128 128 128 128
128 128 128 128 128 128 128 128 128 128 128 128 128 128 128 128 128
128 128 128 128 128 128 128 128 128 128 128 128 128 128 128 128 128
128 128 128 128 128 128 128 128 128 128 128 128 128 128 128 128 128
128 128 128 128 128 128 128 128 128 128 128 128 128 128 128 128 128
128 128 128 128 128 128 128 128 128 128 128 128 128 128 128 128 128
128 128 128 128 128 128 128 128 128 128 128 128 128 128 128 128 128
128 128 128 128 128 128 128 128 128 128 128 128 128 128 128 128 128
128 128 128 128 128 128 128 128 128 128 128 128 128 128 128 128 128
128 128 128 128 128 128 128 128 128 128 128 128 128 128 128 128 128
128 128 128 128 128 128 128 128 128 128 128 128 128 128 128 128 128
128 128 128 128 128 128 128 128 128 128 128 128 128 128 128 128 128
128 128 128 128 128 128 128 128 128 128 128 128 128 128 128 128 128
128 128 128 128 128 128 128 128 128 128 128 128 128 128 128 128 128
128 128 128 128 128 128 128 128 128 128 128 128 188 188 188 188 188
188 188 188 188 188 188 188 188 188 188 188 188 188 188 188 188 188
188 188 188 188 188 188 188 188 188 188 188 188 188 188 188 188 188
188 188 188 188 188 188 188 188 188 188 188 188 188 188 188 188 188
188 188 188 188 188 188 188 188 188 188 188 188 188 188 188 188 188
188 188 188 188 188 188 188 188 188 188 188 188 188 188 188 188 188
188 188 188 188 188 188 188 188 188 188 188 188 188 188 188 188 188
188 188 188 188 188 188 188 188 188 188 188 188 188 188 188 188 188
188 188 188 188 188 188 188 188 188 188 188 188 188 188 188 188 188
188 188 188 188 188 188 188 188 188 188 188 188 188 188 188 188 188
188 188 188 188 188 188 188 188 188 188 188 188 188 188 188 188 188
188 188 188 188 188 188 188 188 188 188 188 188 188 188 188 188 188
188 188 188 188 188 188 188 188 188 188 188 188 188 188 188 188 188
188 188 188 188 188 188 188 188 188 188 188 188 188 188 188 188 188
188 188 188 188 188 188 188 188 188 188 188 188 188 188 188 188 188
188 188 188 188 188 188 188 188 188 188 188 188 188 188 188 188 188
188 188 188 188 188 188 188 188 188 188 188 188 188 188 188 188 188
188 188 188 188 188 188 188 188 188 188 188 188 188 188 188 188 188
188 188 188 188 188 188
255 255 255 0 0 0 255 255 255 0 0 0 255 255 255 0 0 0 255 255 255 0 0
0 255 255 255 0 0 0 255 255 255 0 0 0 255 255 255 0 0 0 255 255 255 0
0 0 255 255 255 0 0 0 255 255 255 0 0 0 255 255 255 0 0 0 255 255 255
0 0 0 255 255 255 0 0 0 255 255 255 0 0 0 255 255 255 0 0 0 255 255
255 0 0 0 255 255 255 0 0 0 255 255 255 0 0 0 255 255 255 0 0 0 255
255 255 0 0 0 255 255 255 0 0 0 255 255 255 0 0 0 255 255 255 0 0 0
255 255 255 0 0 0 255 255 255 0 0 0 255 255 255 0 0 0 255 255 255 0 0
0 255 255 255 0 0 0 255 255 255 0 0 0 255 255 255 0 0 0 255 255 255 0
0 0 255 255 255 0 0 0 255 255 255 0 0 0 255 255 255 0 0 0 255 255 255
0 0 0 255 255 255 0 0 0 255 255 255 0 0 0 255 255 255 0 0 0 255 255
255 0 0 0 255 255 255 0 0 0 255 255 255 0 0 0 255 255 255 0 0 0 255
255 255 0 0 0 255 255 255 0 0 0 255 255 255 0 0 0 255 255 255 0 0 0
255 255 255 0 0 0 255 255 255 0 0 0 255 255 255 0 0 0 255 255 255 0 0
0 128 128 128 128 128 128 128 128 128 128 128 128 128 128 128 128 128
128 128 128 128 128 128 128 128 128 128 128 128 128 128 128 128 128
128 128 128 128 128 128 128 128 128 128 128 128 128 128 128 128 128
128 128 128 128 128 128 128 128 128 128 128 128 128 128 128 128 128
128 128 128 128 128 128 128 128 128 128 128 128 128 128 128 128 128
128 128 128 128 128 128 128 128 128 128 128 128 128 128 128 128 128
128 128 128 128 128 128 128 128 128 128 128 128 128 128 128 128 128
128 128 128 128 128 128 128 128 128 128 128 128 128 128 128 128 128
128 128 128 128 128 128 128 128 128 128 128 128 128 128 128 128 128
128 128 128 128 128 128 128 128 128 128 128 128 128 128 128 128 128
128 128 128 128 128 128 128 128 128 128 128 128 128 128 128 128 128
128 128 128 128 128 128 128 128 128 128 128 128 128 128 128 128 128
128 128 128 128 128 128 128 128 128 128 128 128 128 128 128 128 128
128 128 128 128 128 128 128 128 128 128 128 128 128 128 128 128 128
128 128 128 128 128 128 128 128 128 128 128 128 128 128 128 128 128
128 128 128 128 128 128 128 128 128 128 128 128 128 128 128 128 128
128 128 128 128 128 128 128 128 128 128 128 128 128 128 128 128 128
128 128 128 128 128 128 128 128 128 128 128 188 188 188 188 188 188
188 188 188 188 188 188 188 188 188 188 188 188 188 188 188 188 188
188 188 188 188 188 188 188 188 188 188 188 188 188 188 188 188 188
188 188 188 188 188 188 188 188 188 188 188 188 188 188 188 188 188
188 188 188 188 188 188 188 188 188 188 188 188 188 188 188 188 188
188 188 188 188 188 188 188 188 188 188 188 188 188 188 188 188 188
188 188 188 188 188 188 188 188 188 188 188 188 188 188 188 188 188
188 188 188 188 188 188 188 188 188 188 188 188 188 188 188 188 188
188 188 188 188 188 188 188 188 188 188 188 188 188 188 188 188 188
188 188 188 188 188 188 188 188 188 188 188 188 188 188 188 188 188
188 188 188 188 188 188 188 188 188 188 188 188 188 188 188 188 188
188 188 188 188 188 188 188 188 188 188 188 188 188 188 188 188 188
188 188 188 188 188 188 188 188 188 188 188 188 188 188 188 188 188
188 188 188 188 188 188 188 188 188 188 188 188 188 188 188 188 188
188 188 188 188 188 188 188 188 188 188 188 188 188 188 188 188 188
188 188 188 188 188 188 188 188 188 188 188 188 188 188 188 188 188
188 188 188 188 188 188 188 188 188 188 188 188 188 188 188 188 188
188 188 188 188 188 188 188 188 188 188 188 188 188 188 188 188 188
188 188 188 188 188
0 0 0 255 255 255 0 0 0 255 255 255 0 0 0 255 255 255 0 0 0 255 255
255 0 0 0 255 255 255 0 0 0 255 255 255 0 0 0 255 255 255 0 0 0 255
255 255 0 0 0 255 255 255 0 0 0 255 255 255 0 0 0 255 255 255 0 0 0
255 255 255 0 0 0 255 255 255 0 0 0 255 255 255 0 0 0 255 255 255 0 0
0 255 255 255 0 0 0 255 255 255 0 0 0 255 255 255 0 0 0 255 255 255 0
0 0 255 255 255 0 0 0 255 255 255 0 0 0 255 255 255 0 0 0 255 255 255
0 0 0 255 255 255 0 0 0 255 255 255 0 0 0 255 255 255 0 0 0 255 255
255 0 0 0 255 255 255 0 0 0 255 255 255 0 0 0 255 255 255 0 0 0 255
255 255 0 0 0 255 255 255 0 0 0 255 255 255 0 0 0 255 255 255 0 0 0
255 255 255 0 0 0 255 255 255 0 0 0 255 255 255 0 0 0 255 255 255 0 0
0 255 255 255 0 0 0 255 255 255 0 0 0 255 255 255 0 0 0 255 255 255 0
0 0 255 255 255 0 0 0 255 255 255 0 0 0 255 255 255 0 0 0 255 255 255
0 0 0 255 255 255 0 0 0 255 255 255 0 0 0 255 255 255 0 0 0 255 255
255 128 128 128 128 128 128 128 128 128 128 128 128 128 128 128 128
128 128 128 128 128 128 128 128 128 128 128 128 128 128 128 128 128
128 128 128 128 128 128 128 128 128 128 128 128 128 128 128 128 128
128 128 128 128 128 128 128 128 128 128 128 128 128 128 128 128 128
128 128 128 128 128 128 128 128 128 128 128 128 128 128 128 128 128
128 128 128 128 128 128 128 128 128 128 128 128 128 128 128 128 128
128 128 128 128 128 128 128 128 128 128 128 128 128 128 128 128 128
128 128 128 128 128 128 128 128 128 128 128 128 128 128 128 128 128
128 128 128 128 128 128 128 128 128 128 128 128 128 128 128 128 128
128 128 128 128 128 128 128 128 128 128 128 128 128 128 128 128 128
128 128 128 128 128 128 128 128 128 128 128 128 128 128 128 128 128
128 128 128 128 128 128 128 128 128 128 128 128 128 128 128 128 128
128 128 128 128 128 128 128 128 128 128 128 128 128 128 128 128 128
128 128 128 128 128 128 128 128 128 128 128 128 128 128 128 128 128
128 128 128 128 128 128 128 128 128 128 128 128 128 128 128 128 128
128 128 128 128 128 128 128 128 128 128 128 128 128 128 128 128 128
128 128 128 128 128 128 128 128 128 128 128 128 128 128 128 128 128
128 128 128 128 128 128 128 128 128 128 128 128 188 188 188 188 188
188 188 188 188 188 188 188 188 188 188 188 188 188 188 188 188 188
188 188 188 188 188 188 188 188 188 188 188 188 188 188 188 188 188
188 188 188 188 188 188 188 188 188 188 188 188 188 188 188 188 188
188 188 188 188 188 188 188 188 188 188 188 188 188 188 188 188 188
188 188 188 188 188 188 188 188 188 188 188 188 188 188 188 188 188
188 188 188 188 188 188 188 188 188 188 188 188 188 188 188 188 188
188 188 188 188 188 188 188 188 188 188 188 188 188 188 188 188 188
188 188 188 188 188 188 188 188 188 188 188 188 188 188 188 188 188
188 188 188 188 188 188 188 188 188 188 188 188 188 188 188 188 188
188 188 188 188 188 188 188 188 188 188 188 188 188 188 188 188 188
188 188 188 188 188 188 188 188 188 188 188 188 188 188 188 188 188
188 188 188 188 188 188 188 188 188 188 188 188 188 188 188 188 188
188 188 188 188 188 188 188 188 188 188 188 188 188 188 188 188 188
188 188 188 188 188 188 188 188 188 188 188 188 188 188 188 188 188
188 188 188 188 188 188 188 188 188 188 188 188 188 188 188 188 188
188 188 188 188 188 188 188 188 188 188 188 188 188 188 188 188 188
188 188 188 188 188 188 188 188 188 188 188 188 188 188 188 188 188
188 188 188 188 188 188
255 255 255 0 0 0 255 255 255 0 0 0 255 255 255 0 0 0 255 255 255 0 0
0 255 255 255 0 0 0 255 255 255 0 0 0 255 255 255 0 0 0 255 255 255 0
0 0 255 255 255 0 0 0 255 255 255 0 0 0 255 255 255 0 0 0 255 255 255
0 0 0 255 255 255 0 0 0 255 255 255 0 0 0 255 255 255 0 0 0 255 255
255 0 0 0 255 255 255 0 0 0 255 255 255 0 0 0 255 255 255 0 0 0 255
255 255 0 0 0 255 255 255 0 0 0 255 255 255 0 0 0 255 255 255 0 0 0
255 255 255 0 0 0 255 255 255 0 0 0 255 255 255 0 0 0 255 255 255 0 0
0 255 255 255 0 0 0 255 255 255 0 0 0 255 255 255 0 0 0 255 255 255 0
0 0 255 255 255 0 0 0 255 255 255 0 0 0 255 255 255 0 0 0 255 255 255
0 0 0 255 255 255 0 0 0 255 255 255 0 0 0 255 255 255 0 0 0 255 255
255 0 0 0 255 255 255 0 0 0 255 255 255 0 0 0 255 255 255 0 0 0 255
255 255 0 0 0 255 255 255 0 0 0 255 255 255 0 0 0 255 255 255 0 0 0
255 255 255 0 0 0 255 255 255 0 0 0 255 255 255 0 0 0 255 255 255 0 0
0 128 128 128 128 128 128 128 128 128 128 128 128 128 128 128 128 128
128 128 128 128 128 128 128 128 128 128 128 128 128 128 128 128 128
128 128 128 128 128 128 128 128 128 128 128 128 128 128 128 128 128
128 128 128 128 128 128 128 128 128 128 128 128 128 128 128 128 128
128 128 128 128 128 128 128 128 128 128 128 128 128 128 128 128 128
128 128 128 128 128 128 128 128 128 128 128 128 128 128 128 128 128
128 128 128 128 128 128 128 128 128 128 128 128 128 128 128 128 128
128 128 128 128 128 128 128 128 128 128 128 128 128 128 128 128 128
128 128 128 128 128 128 128 128 128 128 128 128 128 128 128 128 128
128 128 128 128 128 128 128 128 128 128 128 128 128 128 128 128 128
128 128 128 128 128 128 128 128 128 128 128 128 128 128 128 128 128
128 128 128 128 128 128 128 128 128 128 128 128 128 128 128 128 128
128 128 128 128 128 128 128 128 128 128 128 128 128 128 128 128 128
128 128 128 128 128 128 128 128 128 128 128 128 128 128 128 128 128
128 128 128 128 128 128 128 128 128 128 128 128 128 128 128 128 128
128 128 128 128 128 128 128 128 128 128 128 128 128 128 128 128 128
128 128 128 128 128 128 128 128 128 128 128 128 128 128 128 128 128
128 128 128 128 128 128 128 128 128 128 128 188 188 188 188 188 188
188 188 188 188 188 188 188 188 188 188 188 188 188 188 188 188 188
188 188 188 188 188 188 188 188 188 188 188 188 188 188 188 188 188
188 188 188 188 188 188 188 188 188 188 188 188 188 188 188 188 188
188 188 188 188 188 188 188 188 188 188 188 188 188 188 188 188 188
188 188 188 188 188 188 188 188 188 188 188 188 188 188 188 188 188
188 188 188 188 188 188 188 188 188 188 188 188 188 188 188 188 188
188 188 188 188 188 188 188 188 188 188 188 188 188 188 188 188 188
188 188 188 188 188 188 188 188 188 188 188 188 188 188 188 188 188
188 188 188 188 188 188 188 188 188 188 188 188 188 188 188 188 188
188 188 188 188 188 188 188 188 188 188 188 188 188 188 188 188 188
188 188 188 188 188 188 188 188 188 188 188 188 188 188 188 188 188
188 188 188 188 188 188 188 188 188 188 188 188 188 188 188 188 188
188 188 188 188 188 188 188 188 188 188 188 188 188 188 188 188 188
188 188 188 188 188 188 188 188 188 188 188 188 188 188 188 188 188
188 188 188 188 188 188 188 188 188 188 188 188 188 188 188 188 188
188 188 188 188 188 188 188 188 188 188 188 188 188 188 188 188 188
188 188 188 188 188 188 188 188 188 188 188 188 188 188 188 188 188
188 188 188 188 188
0 0 0 255 255 255 0 0 0 255 255 255 0 0 0 255 255 255 0 0 0 255 255
255 0 0 0 255 255 255 0 0 0 255 255 255 0 0 0 255 255 255 0 0 0 255
255 255 0 0 0 255 255 255 0 0 0 255 255 255 0 0 0 255 255 255 0 0 0
255 255 255 0 0 0 255 255 255 0 0 0 255 255 255 0 0 0 255 255 255 0 0
0 255 255 255 0 0 0 255 255 255 0 0 0 255 255 255 0 0 0 255 255 255 0
0 0 255 255 255 0 0 0 255 255 255 0 0 0 255 255 255 0 0 0 255 255 255
0 0 0 255 255 255 0 0 0 255 255 255 0 0 0 255 255 255 0 0 0 255 255
255 0 0 0 255 255 255 0 0 0 255 255 255 0 0 0 255 255 255 0 0 0 255
255 255 0 0 0 255 255 255 0 0 0 255 255 255 0 0 0 255 255 255 0 0 0
255 255 255 0 0 0 255 255 255 0 0 0 255 255 255 0 0 0 255 255 255 0 0
0 255 255 255 0 0 0 255 255 255 0 0 0 255 255 255 0 0 0 255 255 255 0
0 0 255 255 255 0 0 0 255 255 255 0 0 0 255 255 255 0 0 0 255 255 255
0 0 0 255 255 255 0 0 0 255 255 255 0 0 0 255 255 255 0 0 0 255 255
255 128 128 128 128 128 128 128 128 128 128 128 128 128 128 128 128
128 128 128 128 128 128 128 128 128 128 128 128 128 128 128 128 128
128 128 128 128 128 128 128 128 128 128 128 128 128 128 128 128 128
128 128 128 128 128 128 128 128 128 128 128 128 128 128 128 128 128
128 128 128 128 128 128 128 128 128 128 128 128 128 128 128 128 128
128 128 128 128 128 128 128 128 128 128 128 128 128 128 128 128 128
128 128 128 128 128 128 128 128 128 128 128 128 128 128 128 128 128
128 128 128 128 128 128 128 128 128 128 128 128 128 128 128 128 128
128 128 128 128 128 128 128 128 128 128 128 128 128 128 128 128 128
128 128 128 128 128 128 128 128 128 128 128 128 128 128 128 128 128
128 128 128 128 128 128 128 128 128 128 128 128 128 128 128 128 128
128 128 128 128 128 128 128 128 128 128 128 128 128 128 128 128 128
128 128 128 128 128 128 128 128 128 128 128 128 128 128 128 128 128
128 128 128 128 128 128 128 128 128 128 128 128 128 128 128 128 128
128 128 128 128 128 128 128 128 128 128 128 128 128 128 128 128 128
128 128 128 128 128 128 128 128 128 128 128 128 128 128 128 128 128
128 128 128 128 128 128 128 128 128 128 128 128 128 128 128 128 128
128 128 128 128 128 128 128 128 128 128 128 128 188 188 188 188 188
188 188 188 188 188 188 188 188 188 188 188 188 188 188 188 188 188
188 188 188 188 188 188 188 188 188 188 188 188 188 188 188 188 188
188 188 188 188 188 188 188 188 188 188 188 188 188 188 188 188 188
188 188 188 188 188 188 188 188 188 188 188 188 188 188 188 188 188
188 188 188 188 188 188 188 188 188 188 188 188 188 188 188 188 188
188 188 188 188 188 188 188 188 188 188 188 188 188 188 188 188 188
188 188 188 188 188 188 188 188 188 188 188 188 188 188 188 188 188
188 188 188 188 188 188 188 188 188 188 188 188 188 188 188 188 188
188 188 188 188 188 188 188 188 188 188 188 188 188 188 188 188 188
188 188 188 188 188 188 188 188 188 188 188 188 188 188 188 188 188
188 188 188 188 188 188 188 188 188 188 188 188 188 188 188 188 188
188 188 188 188 188 188 188 188 188 188 188 188 188 188 188 188 188
188 188 188 188 188 188 188 188 188 188 188 188 188 188 188 188 188
188 188 188 188 188 188 188 188 188 188 188 188 188 188 188 188 188
188 188 188 188 188 188 188 188 188 188 188 188 188 188 188 188 188
188 188 188 188 188 188 188 188 188 188 188 188 188 188 188 188 188
188 188 188 188 188 188 188 188 188 188 188 188 188 188 188 188 188
188 188 188 188 188 188
255 255 255 0 0 0 255 255 255 0 0 0 255 255 255 0 0 0 255 255 255 0 0
0 255 255 255 0 0 0 255 255 255 0 0 0 255 255 255 0 0 0 255 255 255 0
0 0 255 255 255 0 0 0 255 255 255 0 0 0 255 255 255 0 0 0 255 255 255
0 0 0 255 255 255 0 0 0 255 255 255 0 0 0 255 255 255 0 0 0 255 255
255 0 0 0 255 255 255 0 0 0 255 255 255 0 0 0 255 255 255 0 0 0 255
255 255 0 0 0 255 255 255 0 0 0 255 255 255 0 0 0 255 255 255 0 0 0
255 255 255 0 0 0 255 255 255 0 0 0 255 255 255 0 0 0 255 255 255 0 0
0 255 255 255 0 0 0 255 255 255 0 0 0 255 255 255 0 0 0 255 255 255 0
0 0 255 255 255 0 0 0 255 255 255 0 0 0 255 255 255 0 0 0 255 255 255
0 0 0 255 255 255 0 0 0 255 255 255 0 0 0 255 255 255 0 0 0 255 255
255 0 0 0 255 255 255 0 0 0 255 255 255 0 0 0 255 255 255 0 0 0 255
255 255 0 0 0 255 255 255 0 0 0 255 255 255 0 0 0 255 255 255 0 0 0
255 255 255 0 0 0 255 255 255 0 0 0 255 255 255 0 0 0 255 255 255 0 0
0 128 128 128 128 128 128 128 128 128 128 128 128 128 128 128 128 128
128 128 128 128 128 128 128 128 128 128 128 128 128 128 128 128 128
128 128 128 128 128 128 128 128 128 128 128 128 128 128 128 128 128
128 128 128 128 128 128 128 128 128 128 128 128 128 128 128 128 128
128 128 128 128 128 128 128 128 128 128 128 128 128 128 128 128 128
128 128 128 128 128 128 128 128 128 128 128 128 128 128 128 128 128
128 128 128 128 128 128 128 128 128 128 128 128 128 128 128 128 128
128 128 128 128 128 128 128 128 128 128 128 128 128 128 128 128 128
128 128 128 128 128 128 128 128 128 128 128 128 128 128 128 128 128
128 128 128 128 128 128 128 128 128 128 128 128 128 128 128 128 128
128 128 128 128 128 128 128 128 128 128 128 128 128 128 128 128 128
128 128 128 128 128 128 128 128 128 128 128 128 128 128 128 128 128
128 128 128 128 128 128 128 128 128 128 128 128 128 128 128 128 128
128 128 128 128 128 128 128 128 128 128 128 128 128 128 128 128 128
128 128 128 128 128 128 128 128 128 128 128 128 128 128 128 128 128
128 128 128 128 128 128 128 128 128 128 128 128 128 128 128 128 128
128 128 128 128 128 128 128 128 128 128 128 128 128 128 128 128 128
128 128 128 128 128 128 128 128 128 128 128 188 188 188 188 188 188
188 188 188 188 188 188 188 188 188 188 188 188 188 188 188 188 188
188 188 188 188 188 188 188 188 188 188 188 188 188 188 188 188 188
188 188 188 188 188 188 188 188 188 188 188 188 188 188 188 188 188
188 188 188 188 188 188 188 188 188 188 188 188 188 188 188 188 188
188 188 188 188 188 188 188 188 188 188 188 188 188 188 188 188 188
188 188 188 188 188 188 188 188 188 188 188 188 188 188 188 188 188
188 188 188 188 188 188 188 188 188 188 188 188 188 188 188 188 188
188 188 188 188 188 188 188 188 188 188 188 188 188 188 188 188 188
188 188 188 188 188 188 188 188 188 188 188 188 188 188 188 188 188
188 188 188 188 188 188 188 188 188 188 188 188 188 188 188 188 188
188 188 188 188 188 188 188 188 188 188 188 188 188 188 188 188 188
188 188 188 188 188 188 188 188 188 188 188 188 188 188 188 188 188
188 188 188 188 188 188 188 188 188 188 188 188 188 188 188 188 188
188 188 188 188 188 188 188 188 188 188 188 188 188 188 188 188 188
188 188 188 188 188 188 188 188 188 188 188 188 188 188 188 188 188
188 188 188 188 188 188 188 188 188 188 188 188 188 188 188 188 188
188 188 188 188 188 188 188 188 188 188 188 188 188 188 188 188 188
188 188 188 188 188
0 0 0 255 255 255 0 0 0 255 255 255 0 0 0 255 255 255 0 0 0 255 255
255 0 0 0 255 255 255 0 0 0 255 255 255 0 0 0 255 255 255 0 0 0 255
255 255 0 0 0 255 255 255 0 0 0 255 255 255 0 0 0 255 255 255 0 0 0
255 255 255 0 0 0 255 255 255 0 0 0 255 255 255 0 0 0 255 255 255 0 0
0 255 255 255 0 0 0 255 255 255 0 0 0 255 255 255 0 0 0 255 255 255 0
0 0 255 255 255 0 0 0 255 255 255 0 0 0 255 255 255 0 0 0 255 255 255
0 0 0 255 255 255 0 0 0 255 255 255 0 0 0 255 255 255 0 0 0 255 255
255 0 0 0 255 255 255 0 0 0 255 255 255 0 0 0 255 255 255 0 0 0 255
255 255 0 0 0 255 255 255 0 0 0 255 255 255 0 0 0 255 255 255 0 0 0
255 255 255 0 0 0 255 255 255 0 0 0 255 255 255 0 0 0 255 255 255 0 0
0 255 255 255 0 0 0 255 255 255 0 0 0 255 255 255 0 0 0 255 255 255 0
0 0 255 255 255 0 0 0 255 255 255 0 0 0 255 255 255 0 0 0 255 255 255
0 0 0 255 255 255 0 0 0 255 255 255 0 0 0 255 255 255 0 0 0 255 255
255 128 128 128 128 128 128 128 128 128 128 128 128 128 128 128 128
128 128 128 128 128 128 128 128 128 128 128 128 128 128 128 128 128
128 128 128 128 128 128 128 128 128 128 128 128 128 128 128 128 128
128 128 128 128 128 128 128 128 128 128 128 128 128 128 128 128 128
128 128 128 128 128 128 128 128 128 128 128 128 128 128 128 128 128
128 128 128 128 128 128 128 128 128 128 128 128 128 128 128 128 128
128 128 128 128 128 128 128 128 128 128 128 128 128 128 128 128 128
128 128 128 128 128 128 128 128 128 128 128 128 128 128 128 128 128
128 128 128 128 128 128 128 128 128 128 128 128 128 128 128 128 128
128 128 128 128 128 128 128 128 128 128 128 128 128 128 128 128 128
128 128 128 128 128 128 128 128 128 128 128 128 128 128 128 128 128
128 128 128 128 128 128 128 128 128 128 128 128 128 128 128 128 128
128 128 128 128 128 128 128 128 128 128 128 128 128 128 128 128 128
128 128 128 128 128 128 128 128 128 128 128 128 128 128 128 128 128
128 128 128 128 128 128 128 128 128 128 128 128 128 128 128 128 128
128 128 128 128 128 128 128 128 128 128 128 128 128 128 128 128 128
128 128 128 128 128 128 128 128 128 128 128 128 128 128 128 128 128
128 128 128 128 128 128 128 128 128 128 128 128 188 188 188 188 188
188 188 188 188 188 188 188 188 188 188 188 188 188 188 188 188 188
188 188 188 188 188 188 188 188 188 188 188 188 188 188 188 188 188
188 188 188 188 188 188 188 188 188 188 188 188 188 188 188 188 188
188 188 188 188 188 188 188 188 188 188 188 188 188 188 188 188 188
188 188 188 188 188 188 188 188 188 188 188 188 188 188 188 188 188
188 188 188 188 188 188 188 188 188 188 188 188 188 188 188 188 188
188 188 188 188 188 188 188 188 188 188 188 188 188 188 188 188 188
188 188 188 188 188 188 188 188 188 188 188 188 188 188 188 188 188
188 188 188 188 188 188 188 188 188 188 188 188 188 188 188 188 188
188 188 188 188 188 188 188 188 188 188 188 188 188 188 188 188 188
188 188 188 188 188 188 188 188 188 188 188 188 188 188 188 188 188
188 188 188 188 188 188 188 188 188 188 188 188 188 188 188 188 188
188 188 188 188 188 188 188 188 188 188 188 188 188 188 188 188 188
188 188 188 188 188 188 188 188 188 188 188 188 188 188 188 188 188
188 188 188 188 188 188 188 188 188 188 188 188 188 188 188 188 188
188 188 188 188 188 188 188 188 188 188 188 188 188 188 188 188 188
188 188 188 188 188 188 188 188 188 188 188 188 188 188 188 188 188
188 188 188 188 188 188
255 255 255 0 0 0 255 255 255 0 0 0 255 255 255 0 0 0 255 255 255 0 0
0 255 255 255 0 0 0 255 255 255 0 0 0 255 255 255 0 0 0 255 255 255 0
0 0 255 255 255 0 0 0 255 255 255 0 0 0 255 255 255 0 0 0 255 255 255
0 0 0 255 255 255 0 0 0 255 255 255 0 0 0 255 255 255 0 0 0 255 255
255 0 0 0 255 255 255 0 0 0 255 255 255 0 0 0 255 255 255 0 0 0 255
255 255 0 0 0 255 255 255 0 0 0 255 255 255 0 0 0 255 255 255 0 0 0
255 255 255 0 0 0 255 255 255 0 0 0 255 255 255 0 0 0 255 255 255 0 0
0 255 255 255 0 0 0 255 255 255 0 0 0 255 255 255 0 0 0 255 255 255 0
0 0 255 255 255 0 0 0 255 255 255 0 0 0 255 255 255 0 0 0 255 255 255
0 0 0 255 255 255 0 0 0 255 255 255 0 0 0 255 255 255 0 0 0 255 255
255 0 0 0 255 255 255 0 0 0 255 255 255 0 0 0 255 255 255 0 0 0 255
255 255 0 0 0 255 255 255 0 0 0 255 255 255 0 0 0 255 255 255 0 0 0
255 255 255 0 0 0 255 255 255 0 0 0 255 255 255 0 0 0 255 255 255 0 0
0 128 128 128 128 128 128 128 128 128 128 128 128 128 128 128 128 128
128 128 128 128 128 128 128 128 128 128 128 128 128 128 128 128 128
128 128 128 128 128 128 128 128 128 128 128 128 128 128 128 128 128
128 128 128 128 128 128 128 128 128 128 128 128 128 128 128 128 128
128 128 128 128 128 128 128 128 128 128 128 128 128 128 128 128 128
128 128 128 128 128 128 128 128 128 128 128 128 128 128 128 128 128
128 128 128 128 128 128 128 128 128 128 128 128 128 128 128 128 128
128 128 128 128 128 128 128 128 128 128 128 128 128 128 128 128 128
128 128 128 128 128 128 128 128 128 128 128 128 128 128 128 128 128
128 128 128 128 128 128 128 128 128 128 128 128 128 128 128 128 128
128 128 128 128 128 128 128 128 128 128 128 128 128 128 128 128 128
128 128 128 128 128 128 128 128 128 128 128 128 128 128 128 128 128
128 128 128 128 128 128 128 128 128 128 128 128 128 128 128 128 128
128 128 128 128 128 128 128 128 128 128 128 128 128 128 128 128 128
128 128 128 128 128 128 128 128 128 128 128 128 128 128 128 128 128
128 128 128 128 128 128 128 128 128 128 128 128 128 128 128 128 128
128 128 128 128 128 128 128 128 128 128 128 128 128 128 128 128 128
128 128 128 128 128 128 128 128 128 128 128 188 188 188 188 188 188
188 188 188 188 188 188 188 188 188 188 188 188 188 188 188 188 188
188 188 188 188 188 188 188 188 188 188 188 188 188 188 188 188 188
188 188 188 188 188 188 188 188 188 188 188 188 188 188 188 188 188
188 188 188 188 188 188 188 188 188 188 188 188 188 188 188 188 188
188 188 188 188 188 188 188 188 188 188 188 188 188 188 188 188 188
188 188 188 188 188 188 188 188 188 188 188 188 188 188 188 188 188
188 188 188 188 188 188 188 188 188 188 188 188 188 188 188 188 188
188 188 188 188 188 188 188 188 188 188 188 188 188 188 188 188 188
188 188 188 188 188 188 188 188 188 188 188 188 188 188 188 188 188
188 188 188 188 188 188 188 188 188 188 188 188 188 188 188 188 188
188 188 188 188 188 188 188 188 188 188 188 188 188 188 188 188 188
188 188 188 188 188 188 188 188 188 188 188 188 188 188 188 188 188
188 188 188 188 188 188 188 188 188 188 188 188 188 188 188 188 188
188 188 188 188 188 188 188 188 188 188 188 188 188 188 188 188 188
188 188 188 188 188 188 188 188 188 188 188 188 188 188 188 188 188
188 188 188 188 188 188 188 188 188 188 188 188 188 188 188 188 188
188 188 188 188 188 188 188 188 188 188 188 188 188 188 188 188 188
188 188 188 188 188
0 0 0 255 255 255 0 0 0 255 255 255 0 0 0 255 255 255 0 0 0 255 255
255 0 0 0 255 255 255 0 0 0 255 255 255 0 0 0 255 255 255 0 0 0 255
255 255 0 0 0 255 255 255 0 0 0 255 255 255 0 0 0 255 255 255 0 0 0
255 255 255 0 0 0 255 255 255 0 0 0 255 255 255 0 0 0 255 255 255 0 0
0 255 255 255 0 0 0 255 255 255 0 0 0 255 255 255 0 0 0 255 255 255 0
0 0 255 255 255 0 0 0 255 255 255 0 0 0 255 255 255 0 0 0 255 255 255
0 0 0 255 255 255 0 0 0 255 255 255 0 0 0 255 255 255 0 0 0 255 255
255 0 0 0 255 255 255 0 0 0 255 255 255 0 0 0 255 255 255 0 0 0 255
255 255 0 0 0 255 255 255 0 0 0 255 255 255 0 0 0 255 255 255 0 0 0
255 255 255 0 0 0 255 255 255 0 0 0 255 255 255 0 0 0 255 255 255 0 0
0 255 255 255 0 0 0 255 255 255 0 0 0 255 255 255 0 0 0 255 255 255 0
0 0 255 255 255 0 0 0 255 255 255 0 0 0 255 255 255 0 0 0 255 255 255
0 0 0 255 255 255 0 0 0 255 255 255 0 0 0 255 255 255 0 0 0 255 255
255 128 128 128 128 128 128 128 128 128 128 128 128 128 128 128 128
128 128 128 128 128 128 128 128 128 128 128 128 128 128 128 128 128
128 128 128 128 128 128 128 128 128 128 128 128 128 128 128 128 128
128 128 128 128 128 128 128 128 128 128 128 128 128 128 128 128 128
128 128 128 128 128 128 128 128 128 128 128 128 128 128 128 128 128
128 128 128 128 128 128 128 128 128 128 128 128 128 128 128 128 128
128 128 128 128 128 128 128 128 128 128 128 128 128 128 128 128 128
128 128 128 128 128 128 128 128 128 128 128 128 128 128 128 128 128
128 128 128 128 128 128 128 128 128 128 128 128 128 128 128 128 128
128 128 128 128 128 128 128 128 128 128 128 128 128 128 128 128 128
128 128 128 128 128 128 128 128 128 128 128 128 128 128 128 128 128
128 128 128 128 128 128 128 128 128 128 128 128 128 128 128 128 128
128 128 128 128 128 128 128 128 128 128 128 128 128 128 128 128 128
128 128 128 128 128 128 128 128 128 128 128 128 128 128 128 128 128
128 128 128 128 128 128 128 128 128 128 128 128 128 128 128 128 128
128 128 128 128 128 128 128 128 128 128 128 128 128 128 128 128 128
128 128 128 128 128 128 128 128 128 128 128 128 128 128 128 128 128
128 128 128 128 128 128 128 128 128 128 128 128 188 188 188 188 188
188 188 188 188 188 188 188 188 188 188 188 188 188 188 188 188 188
188 188 188 188 188 188 188 188 188 188 188 188 188 188 188 188 188
188 188 188 188 188 188 188 188 188 188 188 188 188 188 188 188 188
188 188 188 188 188 188 188 188 188 188 188 188 188 188 188 188 188
188 188 188 188 188 188 188 188 188 188 188 188 188 188 188 188 188
188 188 188 188 188 188 188 188 188 188 188 188 188 188 188 188 188
188 188 188 188 188 188 188 188 188 188 188 188 188 188 188 188 188
188 188 188 188 188 188 188 188 188 188 188 188 188 188 188 188 188
188 188 188 188 188 188 188 188 188 188 188 188 188 188 188 188 188
188 188 188 188 188 188 188 188 188 188 188 188 188 188 188 188 188
188 188 188 188 188 188 188 188 188 188 188 188 188 188 188 188 188
188 188 188 188 188 188 188 188 188 188 188 188 188 188 188 188 188
188 188 188 188 188 188 188 188 188 188 188 188 188 188 188 188 188
188 188 188 188 188 188 188 188 188 188 188 188 188 188 188 188 188
188 188 188 188 188 188 188 188 188 188 188 188 188 188 188 188 188
188 188 188 188 188 188 188 188 188 188 188 188 188 188 188 188 188
188 188 188 188 188 188 188 188 188 188 188 188 188 188 188 188 188
188 188 188 188 188 188
255 255 255 0 0 0 255 255 255 0 0 0 255 255 255 0 0 0 255 255 255 0 0
0 255 255 255 0 0 0 255 255 255 0 0 0 255 255 255 0 0 0 255 255 255 0
0 0 255 255 255 0 0 0 255 255 255 0 0 0 255 255 255 0 0 0 255 255 255
0 0 0 255 255 255 0 0 0 255 255 255 0 0 0 255 255 255 0 0 0 255 255
255 0 0 0 255 255 255 0 0 0 255 255 255 0 0 0 255 255 255 0 0 0 255
255 255 0 0 0 255 255 255 0 0 0 255 255 255 0 0 0 255 255 255 0 0 0
255 255 255 0 0 0 255 255 255 0 0 0 255 255 255 0 0 0 255 255 255 0 0
0 255 255 255 0 0 0 255 255 255 0 0 0 255 255 255 0 0 0 255 255 255 0
0 0 255 255 255 0 0 0 255 255 255 0 0 0 255 255 255 0 0 0 255 255 255
0 0 0 255 255 255 0 0 0 255 255 255 0 0 0 255 255 255 0 0 0 255 255
255 0 0 0 255 255 255 0 0 0 255 255 255 0 0 0 255 255 255 0 0 0 255
255 255 0 0 0 255 255 255 0 0 0 255 255 255 0 0 0 255 255 255 0 0 0
255 255 255 0 0 0 255 255 255 0 0 0 255 255 255 0 0 0 255 255 255 0 0
0 128 128 128 128 128 128 128 128 128 128 128 128 128 128 128 128 128
128 128 128 128 128 128 128 128 128 128 128 128 128 128 128 128 128
128 128 128 128 128 128 128 128 128 128 128 128 128 128 128 128 128
128 128 128 128 128 128 128 128 128 128 128 128 128 128 128 128 128
128 128 128 128 128 128 128 128 128 128 128 128 128 128 128 128 128
128 128 128 128 128 128 128 128 128 128 128 128 128 128 128 128 128
128 128 128 128 128 128 128 128 128 128 128 128 128 128 128 128 128
128 128 128 128 128 128 128 128 128 128 128 128 128 128 128 128 128
128 128 128 128 128 128 128 128 128 128 128 128 128 128 128 128 128
128 128 128 128 128 128 128 128 128 128 128 128 128 128 128 128 128
128 128 128 128 128 128 128 128 128 128 128 128 128 128 128 128 128
128 128 128 128 128 128 128 128 128 128 128 128 128 128 128 128 128
128 128 128 128 128 128 128 128 128 128 128 128 128 128 128 128 128
128 128 128 128 128 128 128 128 128 128 128 128 128 128 128 128 128
128 128 128 128 128 128 128 128 128 128 128 128 128 128 128 128 128
128 128 128 128 128 128 128 128 128 128 128 128 128 128 128 128 128
128 128 128 128 128 128 128 128 128 128 128 128 128 128 128 128 128
128 128 128 128 128 128 128 128 128 128 128 188 188 188 188 188 188
188 188 188 188 188 188 188 188 188 188 188 188 188 188 188 188 188
188 188 188 188 188 188 188 188 188 188 188 188 188 188 188 188 188
188 188 188 188 188 188 188 188 188 188 188 188 188 188 188 188 188
188 188 188 188 188 188 188 188 188 188 188 188 188 188 188 188 188
188 188 188 188 188 188 188 188 188 188 188 188 188 188 188 188 188
188 188 188 188 188 188 188 188 188 188 188 188 188 188 188 188 188
188 188 188 188 188 188 188 188 188 188 188 188 188 188 188 188 188
188 188 188 188 188 188 188 188 188 188 188 188 188 188 188 188 188
188 188 188 188 188 188 188 188 188 188 188 188 188 188 188 188 188
188 188 188 188 188 188 188 188 188 188 188 188 188 188 188 188 188
188 188 188 188 188 188 188 188 188 188 188 188 188 188 188 188 188
188 188 188 188 188 188 188 188 188 188 188 188 188 188 188 188 188
188 188 188 188 188 188 188 188 188 188 188 188 188 188 188 188 188
188 188 188 188 188 188 188 188 188 188 188 188 188 188 188 188 188
188 188 188 188 188 188 188 188 188 188 188 188 188 188 188 188 188
188 188 188 188 188 188 188 188 188 188 188 188 188 188 188 188 188
188 188 188 188 188 188 188 188 188 188 188 188 188 188 188 188 188
188 188 188 188 188
0 0 0 255 255 255 0 0 0 255 255 255 0 0 0 255 255 255 0 0 0 255 255
255 0 0 0 255 255 255 0 0 0 255 255 255 0 0 0 255 255 255 0 0 0 255
255 255 0 0 0 255 255 255 0 0 0 255 255 255 0 0 0 255 255 255 0 0 0
255 255 255 0 0 0 255 255 255 0 0 0 255 255 255 0 0 0 255 255 255 0 0
0 255 255 255 0 0 0 255 255 255 0 0 0 255 255 255 0 0 0 255 255 255 0
0 0 255 255 255 0 0 0 255 255 255 0 0 0 255 255 255 0 0 0 255 255 255
0 0 0 255 255 255 0 0 0 255 255 255 0 0 0 255 255 255 0 0 0 255 255
255 0 0 0 255 255 255 0 0 0 255 255 255 0 0 0 255 255 255 0 0 0 255
255 255 0 0 0 255 255 255 0 0 0 255 255 255 0 0 0 255 255 255 0 0 0
255 255 255 0 0 0 255 255 255 0 0 0 255 255 255 0 0 0 255 255 255 0 0
0 255 255 255 0 0 0 255 255 255 0 0 0 255 255 255 0 0 0 255 255 255 0
0 0 255 255 255 0 0 0 255 255 255 0 0 0 255 255 255 0 0 0 255 255 255
0 0 0 255 255 255 0 0 0 255 255 255 0 0 0 255 255 255 0 0 0 255 255
255 128 128 128 128 128 128 128 128 128 128 128 128 128 128 128 128
128 128 128 128 128 128 128 128 128 128 128 128 128 128 128 128 128
128 128 128 128 128 128 128 128 128 128 128 128 128 128 128 128 128
128 128 128 128 128 128 128 128 128 128 128 128 128 128 128 128 128
128 128 128 128 128 128 128 128 128 128 128 128 128 128 128 128 128
128 128 128 128 128 128 128 128 128 128 128 128 128 128 128 128 128
128 128 128 128 128 128 128 128 128 128 128 128 128 128 128 128 128
128 128 128 128 128 128 128 128 128 128 128 128 128 128 128 128 128
128 128 128 128 128 128 128 128 128 128 128 128 128 128 128 128 128
128 128 128 128 128 128 128 128 128 128 128 128 128 128 128 128 128
128 128 128 128 128 128 128 128 128 128 128 128 128 128 128 128 128
128 128 128 128 128 128 128 128 128 128 128 128 128 128 128 128 128
128 128 128 128 128 128 128 128 128 128 128 128 128 128 128 128 128
128 128 128 128 128 128 128 128 128 128 128 128 128 128 128 128 128
128 128 128 128 128 128 128 128 128 128 128 128 128 128 128 128 128
128 128 128 128 128 128 128 128 128 128 128 128 128 128 128 128 128
128 128 128 128 128 128 128 128 128 128 128 128 128 128 128 128 128
128 128 128 128 128 128 128 128 128 128 128 128 188 188 188 188 188
188 188 188 188 188 188 188 188 188 188 188 188 188 188 188 188 188
188 188 188 188 188 188 188 188 188 188 188 188 188 188 188 188 188
188 188 188 188 188 188 188 188 188 188 188 188 188 188 188 188 188
188 188 188 188 188 188 188 188 188 188 188 188 188 188 188 188 188
188 188 188 188 188 188 188 188 188 188 188 188 188 188 188 188 188
188 188 188 188 188 188 188 188 188 188 188 188 188 188 188 188 188
188 188 188 188 188 188 188 188 188 188 188 188 188 188 188 188 188
188 188 188 188 188 188 188 188 188 188 188 188 188 188 188 188 188
188 188 188 188 188 188 188 188 188 188 188 188 188 188 188 188 188
188 188 188 188 188 188 188 188 188 188 188 188 188 188 188 188 188
188 188 188 188 188 188 188 188 188 188 188 188 188 188 188 188 188
188 188 188 188 188 188 188 188 188 188 188 188 188 188 188 188 188
188 188 188 188 188 188 188 188 188 188 188 188 188 188 188 188 188
188 188 188 188 188 188 188 188 188 188 188 188 188 188 188 188 188
188 188 188 188 188 188 188 188 188 188 188 188 188 188 188 188 188
188 188 188 188 188 188 188 188 188 188 188 188 188 188 188 188 188
188 188 188 188 188 188 188 188 188 188 188 188 188 188 188 188 188
188 188 188 188 188 188
255 255 255 0 0 0 255 255 255 0 0 0 255 255 255 0 0 0 255 255 255 0 0
0 255 255 255 0 0 0 255 255 255 0 0 0 255 255 255 0 0 0 255 255 255 0
0 0 255 255 255 0 0 0 255 255 255 0 0 0 255 255 255 0 0 0 255 255 255
0 0 0 255 255 255 0 0 0 255 255 255 0 0 0 255 255 255 0 0 0 255 255
255 0 0 0 255 255 255 0 0 0 255 255 255 0 0 0 255 255 255 0 0 0 255
255 255 0 0 0 255 255 255 0 0 0 255 255 255 0 0 0 255 255 255 0 0 0
255 255 255 0 0 0 255 255 255 0 0 0 255 255 255 0 0 0 255 255 255 0 0
0 255 255 255 0 0 0 255 255 255 0 0 0 255 255 255 0 0 0 255 255 255 0
0 0 255 255 255 0 0 0 255 255 255 0 0 0 255 255 255 0 0 0 255 255 255
0 0 0 255 255 255 0 0 0 255 255 255 0 0 0 255 255 255 0 0 0 255 255
255 0 0 0 255 255 255 0 0 0 255 255 255 0 0 0 255 255 255 0 0 0 255
255 255 0 0 0 255 255 255 0 0 0 255 255 255 0 0 0 255 255 255 0 0 0
255 255 255 0 0 0 255 255 255 0 0 0 255 255 255 0 0 0 255 255 255 0 0
0 128 128 128 128 128 128 128 128 128 128 128 128 128 128 128 128 128
128 128 128 128 128 128 128 128 128 128 128 128 128 128 128 128 128
128 128 128 128 128 128 128 128 128 128 128 128 128 128 128 128 128
128 128 128 128 128 128 128 128 128 128 128 128 128 128 128 128 128
128 128 128 128 128 128 128 128 128 128 128 128 128 128 128 128 128
128 128 128 128 128 128 128 128 128 128 128 128 128 128 128 128 128
128 128 128 128 128 128 128 128 128 128 128 128 128 128 128 128 128
128 128 128 128 128 128 128 128 128 128 128 128 128 128 128 128 128
128 128 128 128 128 128 128 128 128 128 128 128 128 128 128 128 128
128 128 128 128 128 128 128 128 128 128 128 128 128 128 128 128 128
128 128 128 128 128 128 128 128 128 128 128 128 128 128 128 128 128
128 128 128 128 128 128 128 128 128 128 128 128 128 128 128 128 128
128 128 128 128 128 128 128 128 128 128 128 128 128 128 128 128 128
128 128 128 128 128 128 128 128 128 128 128 128 128 128 128 128 128
128 128 128 128 128 128 128 128 128 128 128 128 128 128 128 128 128
128 128 128 128 128 128 128 128 128 128 128 128 128 128 128 128 128
128 128 128 128 128 128 128 128 128 128 128 128 128 128 128 128 128
128 128 128 128 128 128 128 128 128 128 128 188 188 188 188 188 188
188 188 188 188 188 188 188 188 188 188 188 188 188 188 188 188 188
188 188 188 188 188 188 188 188 188 188 188 188 188 188 188 188 188
188 188 188 188 188 188 188 188 188 188 188 188 188 188 188 188 188
188 188 188 188 188 188 188 188 188 188 188 188 188 188 188 188 188
188 188 188 188 188 188 188 188 188 188 188 188 188 188 188 188 188
188 188 188 188 188 188 188 188 188 188 188 188 188 188 188 188 188
188 188 188 188 188 188 188 188 188 188 188 188 188 188 188 188 188
188 188 188 188 188 188 188 188 188 188 188 188 188 188 188 188 188
188 188 188 188 188 188 188 188 188 188 188 188 188 188 188 188 188
188 188 188 188 188 188 188 188 188 188 188 188 188 188 188 188 188
188 188 188 188 188 188 188 188 188 188 188 188 188 188 188 188 188
188 188 188 188 188 188 188 188 188 188 188 188 188 188 188 188 188
188 188 188 188 188 188 188 188 188 188 188 188 188 188 188 188 188
188 188 188 188 188 188 188 188 188 188 188 188 188 188 188 188 188
188 188 188 188 188 188 188 188 188 188 188 188 188 188 188 188 188
188 188 188 188 188 188 188 188 188 188 188 188 188 188 188 188 188
188 188 188 188 188 188 188 188 188 188 188 188 188 188 188 188 188
188 188 188 188 188
0 0 0 255 255 255 0 0 0 255 255 255 0 0 0 255 255 255 0 0 0 255 255
255 0 0 0 255 255 255 0 0 0 255 255 255 0 0 0 255 255 255 0 0 0 255
255 255 0 0 0 255 255 255 0 0 0 255 255 255 0 0 0 255 255 255 0 0 0
255 255 255 0 0 0 255 255 255 0 0 0 255 255 255 0 0 0 255 255 255 0 0
0 255 255 255 0 0 0 255 255 255 0 0 0 255 255 255 0 0 0 255 255 255 0
0 0 255 255 255 0 0 0 255 255 255 0 0 0 255 255 255 0 0 0 255 255 255
0 0 0 255 255 255 0 0 0 255 255 255 0 0 0 255 255 255 0 0 0 255 255
255 0 0 0 255 255 255 0 0 0 255 255 255 0 0 0 255 255 255 0 0 0 255
255 255 0 0 0 255 255 255 0 0 0 255 255 255 0 0 0 255 255 255 0 0 0
255 255 255 0 0 0 255 255 255 0 0 0 255 255 255 0 0 0 255 255 255 0 0
0 255 255 255 0 0 0 255 255 255 0 0 0 255 255 255 0 0 0 255 255 255 0
0 0 255 255 255 0 0 0 255 255 255 0 0 0 255 255 255 0 0 0 255 255 255
0 0 0 255 255 255 0 0 0 255 255 255 0 0 0 255 255 255 0 0 0 255 255
255 128 128 128 128 128 128 128 128 128 128 128 128 128 128 128 128
128 128 128 128 128 128 128 128 128 128 128 128 128 128 128 128 128
128 128 128 128 128 128 128 128 128 128 128 128 128 128 128 128 128
128 128 128 128 128 128 128 128 128 128 128 128 128 128 128 128 128
128 128 128 128 128 128 128 128 128 128 128 128 128 128 128 128 128
128 128 128 128 128 128 128 128 128 128 128 128 128 128 128 128 128
128 128 128 128 128 128 128 128 128 128 128 128 128 128 128 128 128
128 128 128 128 128 128 128 128 128 128 128 128 128 128 128 128 128
128 128 128 128 128 128 128 128 128 128 128 128 128 128 128 128 128
128 128 128 128 128 128 128 128 128 128 128 128 128 128 128 128 128
128 128 128 128 128 128 128 128 128 128 128 128 128 128 128 128 128
128 128 128 128 128 128 128 128 128 128 128 128 128 128 128 128 128
128 128 128 128 128 128 128 128 128 128 128 128 128 128 128 128 128
128 128 128 128 128 128 128 128 128 128 128 128 128 128 128 128 128
128 128 128 128 128 128 128 128 128 128 128 128 128 128 128 128 128
128 128 128 128 128 128 128 128 128 128 128 128 128 128 128 128 128
128 128 128 128 128 128 128 128 128 128 128 128 128 128 128 128 128
128 128 128 128 128 128 128 128 128 128 128 128 188 188 188 188 188
188 188 188 188 188 188 188 188 188 188 188 188 188 188 188 188 188
188 188 188 188 188 188 188 188 188 188 188 188 188 188 188 188 188
188 188 188 188 188 188 188 188 188 188 188 188 188 188 188 188 188
188 188 188 188 188 188 188 188 188 188 188 188 188 188 188 188 188
188 188 188 188 188 188 188 188 188 188 188 188 188 188 188 188 188
188 188 188 188 188 188 188 188 188 188 188 188 188 188 188 188 188
188 188 188 188 188 188 188 188 188 188 188 188 188 188 188 188 188
188 188 188 188 188 188 188 188 188 188 188 188 188 188 188 188 188
188 188 188 188 188 188 188 188 188 188 188 188 188 188 188 188 188
188 188 188 188 188 188 188 188 188 188 188 188 188 188 188 188 188
188 188 188 188 188 188 188 188 188 188 188 188 188 188 188 188 188
188 188 188 188 188 188 188 188 188 188 188 188 188 188 188 188 188
188 188 188 188 188 188 188 188 188 188 188 188 188 188 188 188 188
188 188 188 188 188 188 188 188 188 188 188 188 188 188 188 188 188
188 188 188 188 188 188 188 188 188 188 188 188 188 188 188 188 188
188 188 188 188 188 188 188 188 188 188 188 188 188 188 188 188 188
188 188 188 188 188 188 188 188 188 188 188 188 188 188 188 188 188
188 188 188 188 188 188
255 255 255 0 0 0 255 255 255 0 0 0 255 255 255 0 0 0 255 255 255 0 0
0 255 255 255 0 0 0 255 255 255 0 0 0 255 255 255 0 0 0 255 255 255 0
0 0 255 255 255 0 0 0 255 255 255 0 0 0 255 255 255 0 0 0 255 255 255
0 0 0 255 255 255 0 0 0 255 255 255 0 0 0 255 255 255 0 0 0 255 255
255 0 0 0 255 255 255 0 0 0 255 255 255 0 0 0 255 255 255 0 0 0 255
255 255 0 0 0 255 255 255 0 0 0 255 255 255 0 0 0 255 255 255 0 0 0
255 255 255 0 0 0 255 255 255 0 0 0 255 255 255 0 0 0 255 255 255 0 0
0 255 255 255 0 0 0 255 255 255 0 0 0 255 255 255 0 0 0 255 255 255 0
0 0 255 255 255 0 0 0 255 255 255 0 0 0 255 255 255 0 0 0 255 255 255
0 0 0 255 255 255 0 0 0 255 255 255 0 0 0 255 255 255 0 0 0 255 255
255 0 0 0 255 255 255 0 0 0 255 255 255 0 0 0 255 255 255 0 0 0 255
255 255 0 0 0 255 255 255 0 0 0 255 255 255 0 0 0 255 255 255 0 0 0
255 255 255 0 0 0 255 255 255 0 0 0 255 255 255 0 0 0 255 255 255 0 0
0 128 128 128 128 128 128 128 128 128 128 128 128 128 128 128 128 128
128 128 128 128 128 128 128 128 128 128 128 128 128 128 128 128 128
128 128 128 128 128 128 128 128 128 128 128 128 128 128 128 128 128
128 128 128 128 128 128 128 128 128 128 128 128 128 128 128 128 128
128 128 128 128 128 128 128 128 128 128 128 128 128 128 128 128 128
128 128 128 128 128 128 128 128 128 128 128 128 128 128 128 128 128
128 128 128 128 128 128 128 128 128 128 128 128 128 128 128 128 128
128 128 128 128 128 128 128 128 128 128 128 128 128 128 128 128 128
128 128 128 128 128 128 128 128 128 128 128 128 128 128 128 128 128
128 128 128 128 128 128 128 128 128 128 128 128 128 128 128 128 128
128 128 128 128 128 128 128 128 128 128 128 128 128 128 128 128 128
128 128 128 128 128 128 128 128 128 128 128 128 128 128 128 128 128
128 128 128 128 128 128 128 128 128 128 128 128 128 128 128 128 128
128 128 128 128 128 128 128 128 128 128 128 128 128 128 128 128 128
128 128 128 128 128 128 128 128 128 128 128 128 128 128 128 128 128
128 128 128 128 128 128 128 128 128 128 128 128 128 128 128 128 128
128 128 128 128 128 128 128 128 128 128 128 128 128 128 128 128 128
128 128 128 128 128 128 128 128 128 128 128 188 188 188 188 188 188
188 188 188 188 188 188 188 188 188 188 188 188 188 188 188 188 188
188 188 188 188 188 188 188 188 188 188 188 188 188 188 188 188 188
188 188 188 188 188 188 188 188 188 188 188 188 188 188 188 188 188
188 188 188 188 188 188 188 188 188 188 188 188 188 188 188 188 188
188 188 188 188 188 188 188 188 188 188 188 188 188 188 188 188 188
188 188 188 188 188 188 188 188 188 188 188 188 188 188 188 188 188
188 188 188 188 188 188 188 188 188 188 188 188 188 188 188 188 188
188 188 188 188 188 188 188 188 188 188 188 188 188 188 188 188 188
188 188 188 188 188 188 188 188 188 188 188 188 188 188 188 188 188
188 188 188 188 188 188 188 188 188 188 188 188 188 188 188 188 188
188 188 188 188 188 188 188 188 188 188 188 188 188 188 188 188 188
188 188 188 188 188 188 188 188 188 188 188 188 188 188 188 188 188
188 188 188 188 188 188 188 188 188 188 188 188 188 188 188 188 188
188 188 188 188 188 188 188 188 188 188 188 188 188 188 188 188 188
188 188 188 188 188 188 188 188 188 188 188 188 188 188 188 188 188
188 188 188 188 188 188 188 188 188 188 188 188 188 188 188 188 188
188 188 188 188 188 188 188 188 188 188 188 188 188 188 188 188 188
188 188 188 188 188
0 0 0 255 255 255 0 0 0 255 255 255 0 0 0 255 255 255 0 0 0 255 255
255 0 0 0 255 255 255 0 0 0 255 255 255 0 0 0 255 255 255 0 0 0 255
255 255 0 0 0 255 255 255 0 0 0 255 255 255 0 0 0 255 255 255 0 0 0
255 255 255 0 0 0 255 255 255 0 0 0 255 255 255 0 0 0 255 255 255 0 0
0 255 255 255 0 0 0 255 255 255 0 0 0 255 255 255 0 0 0 255 255 255 0
0 0 255 255 255 0 0 0 255 255 255 0 0 0 255 255 255 0 0 0 255 255 255
0 0 0 255 255 255 0 0 0 255 255 255 0 0 0 255 255 255 0 0 0 255 255
255 0 0 0 255 255 255 0 0 0 255 255 255 0 0 0 255 255 255 0 0 0 255
255 255 0 0 0 255 255 255 0 0 0 255 255 255 0 0 0 255 255 255 0 0 0
255 255 255 0 0 0 255 255 255 0 0 0 255 255 255 0 0 0 255 255 255 0 0
0 255 255 255 0 0 0 255 255 255 0 0 0 255 255 255 0 0 0 255 255 255 0
0 0 255 255 255 0 0 0 255 255 255 0 0 0 255 255 255 0 0 0 255 255 255
0 0 0 255 255 255 0 0 0 255 255 255 0 0 0 255 255 255 0 0 0 255 255
255 128 128 128 128 128 128 128 128 128 128 128 128 128 128 128 128
128 128 128 128 128 128 128 128 128 128 128 128 128 128 128 128 128
128 128 128 128 128 128 128 128 128 128 128 128 128 128 128 128 128
128 128 128 128 128 128 128 128 128 128 128 128 128 128 128 128 128
128 128 128 128 128 128 128 128 128 128 128 128 128 128 128 128 128
128 128 128 128 128 128 128 128 128 128 128 128 128 128 128 128 128
128 128 128 128 128 128 128 128 128 128 128 128 128 128 128 128 128
128 128 128 128 128 128 128 128 128 128 128 128 128 128 128 128 128
128 128 128 128 128 128 128 128 128 128 128 128 128 128 128 128 128
128 128 128 128 128 128 128 128 128 128 128 128 128 128 128 128 128
128 128 128 128 128 128 128 128 128 128 128 128 128 128 128 128 128
128 128 128 128 128 128 128 128 128 128 128 128 128 128 128 128 128
128 128 128 128 128 128 128 128 128 128 128 128 128 128 128 128 128
128 128 128 128 128 128 128 128 128 128 128 128 128 128 128 128 128
128 128 128 128 128 128 128 128 128 128 128 128 128 128 128 128 128
128 128 128 128 128 128 128 128 128 128 128 128 128 128 128 128 128
128 128 128 128 128 128 128 128 128 128 128 128 128 128 128 128 128
128 128 128 128 128 128 128 128 128 128 128 128 188 188 188 188 188
188 188 188 188 188 188 188 188 188 188 188 188 188 188 188 188 188
188 188 188 188 188 188 188 188 188 188 188 188 188 188 188 188 188
188 188 188 188 188 188 188 188 188 188 188 188 188 188 188 188 188
188 188 188 188 188 188 188 188 188 188 188 188 188 188 188 188 188
188 188 188 188 188 188 188 188 188 188 188 188 188 188 188 188 188
188 188 188 188 188 188 188 188 188 188 188 188 188 188 188 188 188
188 188 188 188 188 188 188 188 188 188 188 188 188 188 188 188 188
188 188 188 188 188 188 188 188 188 188 188 188 188 188 188 188 188
188 188 188 188 188 188 188 188 188 188 188 188 188 188 188 188 188
188 188 188 188 188 188 188 188 188 188 188 188 188 188 188 188 188
188 188 188 188 188 188 188 188 188 188 188 188 188 188 188 188 188
188 188 188 188 188 188 188 188 188 188 188 188 188 188 188 188 188
188 188 188 188 188 188 188 188 188 188 188 188 188 188 188 188 188
188 188 188 188 188 188 188 188 188 188 188 188 188 188 188 188 188
188 188 188 188 188 188 188 188 188 188 188 188 188 188 188 188 188
188 188 188 188 188 188 188 188 188 188 188 188 188 188 188 188 188
188 188 188 188 188 188 188 188 188 188 188 188 188 188 188 188 188
188 188 188 188 188 188
255 255 255 0 0 0 255 255 255 0 0 0 255 255 255 0 0 0 255 255 255 0 0
0 255 255 255 0 0 0 255 255 255 0 0 0 255 255 255 0 0 0 255 255 255 0
0 0 255 255 255 0 0 0 255 255 255 0 0 0 255 255 255 0 0 0 255 255 255
0 0 0 255 255 255 0 0 0 255 255 255 0 0 0 255 255 255 0 0 0 255 255
255 0 0 0 255 255 255 0 0 0 255 255 255 0 0 0 255 255 255 0 0 0 255
255 255 0 0 0 255 255 255 0 0 0 255 255 255 0 0 0 255 255 255 0 0 0
255 255 255 0 0 0 255 255 255 0 0 0 255 255 255 0 0 0 255 255 255 0 0
0 255 255 255 0 0 0 255 255 255 0 0 0 255 255 255 0 0 0 255 255 255 0
0 0 255 255 255 0 0 0 255 255 255 0 0 0 255 255 255 0 0 0 255 255 255
0 0 0 255 255 255 0 0 0 255 255 255 0 0 0 255 255 255 0 0 0 255 255
255 0 0 0 255 255 255 0 0 0 255 255 255 0 0 0 255 255 255 0 0 0 255
255 255 0 0 0 255 255 255 0 0 0 255 255 255 0 0 0 255 255 255 0 0 0
255 255 255 0 0 0 255 255 255 0 0 0 255 255 255 0 0 0 255 255 255 0 0
0 128 128 128 128 128 128 128 128 128 128 128 128 128 128 128 128 128
128 128 128 128 128 128 128 128 128 128 128 128 128 128 128 128 128
128 128 128 128 128 128 128 128 128 128 128 128 128 128 128 128 128
128 128 128 128 128 128 128 128 128 128 128 128 128 128 128 128 128
128 128 128 128 128 128 128 128 128 128 128 128 128 128 128 128 128
128 128 128 128 128 128 128 128 128 128 128 128 128 128 128 128 128
128 128 128 128 128 128 128 128 128 128 128 128 128 128 128 128 128
128 128 128 128 128 128 128 128 128 128 128 128 128 128 128 128 128
128 128 128 128 128 128 128 128 128 128 128 128 128 128 128 128 128
128 128 128 128 128 128 128 128 128 128 128 128 128 128 128 128 128
128 128 128 128 128 128 128 128 128 128 128 128 128 128 128 128 128
128 128 128 128 128 128 128 128 128 128 128 128 128 128 128 128 128
128 128 128 128 128 128 128 128 128 128 128 128 128 128 128 128 128
128 128 128 128 128 128 128 128 128 128 128 128 128 128 128 128 128
128 128 128 128 128 128 128 128 128 128 128 128 128 128 128 128 128
128 128 128 128 128 128 128 128 128 128 128 128 128 128 128 128 128
128 128 128 128 128 128 128 128 128 128 128 128 128 128 128 128 128
128 128 128 128 128 128 128 128 128 128 128 188 188 188 188 188 188
188 188 188 188 188 188 188 188 188 188 188 188 188 188 188 188 188
188 188 188 188 188 188 188 188 188 188 188 188 188 188 188 188 188
188 188 188 188 188 188 188 188 188 188 188 188 188 188 188 188 188
188 188 188 188 188 188 188 188 188 188 188 188 188 188 188 188 188
188 188 188 188 188 188 188 188 188 188 188 188 188 188 188 188 188
188 188 188 188 188 188 188 188 188 188 188 188 188 188 188 188 188
188 188 188 188 188 188 188 188 188 188 188 188 188 188 188 188 188
188 188 188 188 188 188 188 188 188 188 188 188 188 188 188 188 188
188 188 188 188 188 188 188 188 188 188 188 188 188 188 188 188 188
188 188 188 188 188 188 188 188 188 188 188 188 188 188 188 188 188
188 188 188 188 188 188 188 188 188 188 188 188 188 188 188 188 188
188 188 188 188 188 188 188 188 188 188 188 188 188 188 188 188 188
188 188 188 188 188 188 188 188 188 188 188 188 188 188 188 188 188
188 188 188 188 188 188 188 188 188 188 188 188 188 188 188 188 188
188 188 188 188 188 188 188 188 188 188 188 188 188 188 188 188 188
188 188 188 188 188 188 188 188 188 188 188 188 188 188 188 188 188
188 188 188 188 188 188 188 188 188 188 188 188 188 188 188 188 188
188 188 188 188 188
0 0 0 255 255 255 0 0 0 255 255 255 0 0 0 255 255 255 0 0 0 255 255
255 0 0 0 255 255 255 0 0 0 255 255 255 0 0 0 255 255 255 0 0 0 255
255 255 0 0 0 255 255 255 0 0 0 255 255 255 0 0 0 255 255 255 0 0 0
255 255 255 0 0 0 255 255 255 0 0 0 255 255 255 0 0 0 255 255 255 0 0
0 255 255 255 0 0 0 255 255 255 0 0 0 255 255 255 0 0 0 255 255 255 0
0 0 255 255 255 0 0 0 255 255 255 0 0 0 255 255 255 0 0 0 255 255 255
0 0 0 255 255 255 0 0 0 255 255 255 0 0 0 255 255 255 0 0 0 255 255
255 0 0 0 255 255 255 0 0 0 255 255 255 0 0 0 255 255 255 0 0 0 255
255 255 0 0 0 255 255 255 0 0 0 255 255 255 0 0 0 255 255 255 0 0 0
255 255 255 0 0 0 255 255 255 0 0 0 255 255 255 0 0 0 255 255 255 0 0
0 255 255 255 0 0 0 255 255 255 0 0 0 255 255 255 0 0 0 255 255 255 0
0 0 255 255 255 0 0 0 255 255 255 0 0 0 255 255 255 0 0 0 255 255 255
0 0 0 255 255 255 0 0 0 255 255 255 0 0 0 255 255 255 0 0 0 255 255
255 128 128 128 128 128 128 128 128 128 128 128 128 128 128 128 128
128 128 128 128 128 128 128 128 128 128 128 128 128 128 128 128 128
128 128 128 128 128 128 128 128 128 128 128 128 128 128 128 128 128
128 128 128 128 128 128 128 128 128 128 128 128 128 128 128 128 128
128 128 128 128 128 128 128 128 128 128 128 128 128 128 128 128 128
128 128 128 128 128 128 128 128 128 128 128 128 128 128 128 128 128
128 128 128 128 128 128 128 128 128 128 128 128 128 128 128 128 128
128 128 128 128 128 128 128 128 128 128 128 128 128 128 128 128 128
128 128 128 128 128 128 128 128 128 128 128 128 128 128 128 128 128
128 128 128 128 128 128 128 128 128 128 128 128 128 128 128 128 128
128 128 128 128 128 128 128 128 128 128 128 128 128 128 128 128 128
128 128 128 128 128 128 128 128 128 128 128 128 128 128 128 128 128
128 128 128 128 128 128 128 128 128 128 128 128 128 128 128 128 128
128 128 128 128 128 128 128 128 128 128 128 128 128 128 128 128 128
128 128 128 128 128 128 128 128 128 128 128 128 128 128 128 128 128
128 128 128 128 128 128 128 128 128 128 128 128 128 128 128 128 128
128 128 128 128 128 128 128 128 128 128 128 128 128 128 128 128 128
128 128 128 128 128 128 128 128 128 128 128 128 188 188 188 188 188
188 188 188 188 188 188 188 188 188 188 188 188 188 188 188 188 188
188 188 188 188 188 188 188 188 188 188 188 188 188 188 188 188 188
188 188 188 188 188 188 188 188 188 188 188 188 188 188 188 188 188
188 188 188 188 188 188 188 188 188 188 188 188 188 188 188 188 188
188 188 188 188 188 188 188 188 188 188 188 188 188 188 188 188 188
188 188 188 188 188 188 188 188 188 188 188 188 188 188 188 188 188
188 188 188 188 188 188 188 188 188 188 188 188 188 188 188 188 188
188 188 188 188 188 188 188 188 188 188 188 188 188 188 188 188 188
188 188 188 188 188 188 188 188 188 188 188 188 188 188 188 188 188
188 188 188 188 188 188 188 188 188 188 188 188 188 188 188 188 188
188 188 188 188 188 188 188 188 188 188 188 188 188 188 188 188 188
188 188 188 188 188 188 188 188 188 188 188 188 188 188 188 188 188
188 188 188 188 188 188 188 188 188 188 188 188 188 188 188 188 188
188 188 188 188 188 188 188 188 188 188 188 188 188 188 188 188 188
188 188 188 188 188 188 188 188 188 188 188 188 188 188 188 188 188
188 188 188 188 188 188 188 188 188 188 188 188 188 188 188 188 188
188 188 188 188 188 188 188 188 188 188 188 188 188 188 188 188 188
188 188 188 188 188 188
255 255 255 0 0 0 255 255 255 0 0 0 255 255 255 0 0 0 255 255 255 0 0
0 255 255 255 0 0 0 255 255 255 0 0 0 255 255 255 0 0 0 255 255 255 0
0 0 255 255 255 0 0 0 255 255 255 0 0 0 255 255 255 0 0 0 255 255 255
0 0 0 255 255 255 0 0 0 255 255 255 0 0 0 255 255 255 0 0 0 255 255
255 0 0 0 255 255 255 0 0 0 255 255 255 0 0 0 255 255 255 0 0 0 255
255 255 0 0 0 255 255 255 0 0 0 255 255 255 0 0 0 255 255 255 0 0 0
255 255 255 0 0 0 255 255 255 0 0 0 255 255 255 0 0 0 255 255 255 0 0
0 255 255 255 0 0 0 255 255 255 0 0 0 255 255 255 0 0 0 255 255 255 0
0 0 255 255 255 0 0 0 255 255 255 0 0 0 255 255 255 0 0 0 255 255 255
0 0 0 255 255 255 0 0 0 255 255 255 0 0 0 255 255 255 0 0 0 255 255
255 0 0 0 255 255 255 0 0 0 255 255 255 0 0 0 255 255 255 0 0 0 255
255 255 0 0 0 255 255 255 0 0 0 255 255 255 0 0 0 255 255 255 0 0 0
255 255 255 0 0 0 255 255 255 0 0 0 255 255 255 0 0 0 255 255 255 0 0
0 128 128 128 128 128 128 128 128 128 128 128 128 128 128 128 128 128
128 128 128 128 128 128 128 128 128 128 128 128 128 128 128 128 128
128 128 128 128 128 128 128 128 128 128 128 128 128 128 128 128 128
128 128 128 128 128 128 128 128 128 128 128 128 128 128 128 128 128
128 128 128 128 128 128 128 128 128 128 128 128 128 128 128 128 128
128 128 128 128 128 128 128 128 128 128 128 128 128 128 128 128 128
128 128 128 128 128 128 128 128 128 128 128 128 128 128 128 128 128
128 128 128 128 128 128 128 128 128 128 128 128 128 128 128 128 128
128 128 128 128 128 128 128 128 128 128 128 128 128 128 128 128 128
128 128 128 128 128 128 128 128 128 128 128 128 128 128 128 128 128
128 128 128 128 128 128 128 128 128 128 128 128 128 128 128 128 128
128 128 128 128 128 128 128 128 128 128 128 128 128 128 128 128 128
128 128 128 128 128 128 128 128 128 128 128 128 128 128 128 128 128
128 128 128 128 128 128 128 128 128 128 128 128 128 128 128 128 128
128 128 128 128 128 128 128 128 128 128 128 128 128 128 128 128 128
128 128 128 128 128 128 128 128 128 128 128 128 128 128 128 128 128
128 128 128 128 128 128 128 128 128 128 128 128 128 128 128 128 128
128 128 128 128 128 128 128 128 128 128 128 188 188 188 188 188 188
188 188 188 188 188 188 188 188 188 188 188 188 188 188 188 188 188
188 188 188 188 188 188 188 188 188 188 188 188 188 188 188 188 188
188 188 188 188 188 188 188 188 188 188 188 188 188 188 188 188 188
188 188 188 188 188 188 188 188 188 188 188 188 188 188 188 188 188
188 188 188 188 188 188 188 188 188 188 188 188 188 188 188 188 188
188 188 188 188 188 188 188 188 188 188 188 188 188 188 188 188 188
188 188 188 188 188 188 188 188 188 188 188 188 188 188 188 188 188
188 188 188 188 188 188 188 188 188 188 188 188 188 188 188 188 188
188 188 188 188 188 188 188 188 188 188 188 188 188 188 188 188 188
188 188 188 188 188 188 188 188 188 188 188 188 188 188 188 188 188
188 188 188 188 188 188 188 188 188 188 188 188 188 188 188 188 188
188 188 188 188 188 188 188 188 188 188 188 188 188 188 188 188 188
188 188 188 188 188 188 188 188 188 188 188 188 188 188 188 188 188
188 188 188 188 188 188 188 188 188 188 188 188 188 188 188 188 188
188 188 188 188 188 188 188 188 188 188 188 188 188 188 188 188 188
188 188 188 188 188 188 188 188 188 188 188 188 188 188 188 188 188
188 188 188 188 188 188 188 188 188 188 188 188 188 188 188 188 188
188 188 188 188 188
0 0 0 255 255 255 0 0 0 255 255 255 0 0 0 255 255 255 0 0 0 255 255
255 0 0 0 255 255 255 0 0 0 255 255 255 0 0 0 255 255 255 0 0 0 255
255 255 0 0 0 255 255 255 0 0 0 255 255 255 0 0 0 255 255 255 0 0 0
255 255 255 0 0 0 255 255 255 0 0 0 255 255 255 0 0 0 255 255 255 0 0
0 255 255 255 0 0 0 255 255 255 0 0 0 255 255 255 0 0 0 255 255 255 0
0 0 255 255 255 0 0 0 255 255 255 0 0 0 255 255 255 0 0 0 255 255 255
0 0 0 255 255 255 0 0 0 255 255 255 0 0 0 255 255 255 0 0 0 255 255
255 0 0 0 255 255 255 0 0 0 255 255 255 0 0 0 255 255 255 0 0 0 255
255 255 0 0 0 255 255 255 0 0 0 255 255 255 0 0 0 255 255 255 0 0 0
255 255 255 0 0 0 255 255 255 0 0 0 255 255 255 0 0 0 255 255 255 0 0
0 255 255 255 0 0 0 255 255 255 0 0 0 255 255 255 0 0 0 255 255 255 0
0 0 255 255 255 0 0 0 255 255 255 0 0 0 255 255 255 0 0 0 255 255 255
0 0 0 255 255 255 0 0 0 255 255 255 0 0 0 255 255 255 0 0 0 255 255
255 128 128 128 128 128 128 128 128 128 128 128 128 128 128 128 128
128 128 128 128 128 128 128 128 128 128 128 128 128 128 128 128 128
128 128 128 128 128 128 128 128 128 128 128 128 128 128 128 128 128
128 128 128 128 128 128 128 128 128 128 128 128 128 128 128 128 128
128 128 128 128 128 128 128 128 128 128 128 128 128 128 128 128 128
128 128 128 128 128 128 128 128 128 128 128 128 128 128 128 128 128
128 128 128 128 128 128 128 128 128 128 128 128 128 128 128 128 128
128 128 128 128 128 128 128 128 128 128 128 128 128 128 128 128 128
128 128 128 128 128 128 128 128 128 128 128 128 128 128 128 128 128
128 128 128 128 128 128 128 128 128 128 128 128 128 128 128 128 128
128 128 128 128 128 128 128 128 128 128 128 128 128 128 128 128 128
128 128 128 128 128 128 128 128 128 128 128 128 128 128 128 128 128
128 128 128 128 128 128 128 128 128 128 128 128 128 128 128 128 128
128 128 128 128 128 128 128 128 128 128 128 128 128 128 128 128 128
128 128 128 128 128 128 128 128 128 128 128 128 128 128 128 128 128
128 128 128 128 128 128 128 128 128 128 128 128 128 128 128 128 128
128 128 128 128 128 128 128 128 128 128 128 128 128 128 128 128 128
128 128 128 128 128 128 128 128 128 128 128 128 188 188 188 188 188
188 188 188 188 188 188 188 188 188 188 188 188 188 188 188 188 188
188 188 188 188 188 188 188 188 188 188 188 188 188 188 188 188 188
188 188 188 188 188 188 188 188 188 188 188 188 188 188 188 188 188
188 188 188 188 188 188 188 188 188 188 188 188 188 188 188 188 188
188 188 188 188 188 188 188 188 188 188 188 188 188 188 188 188 188
188 188 188 188 188 188 188 188 188 188 188 188 188 188 188 188 188
188 188 188 188 188 188 188 188 188 188 188 188 188 188 188 188 188
188 188 188 188 188 188 188 188 188 188 188 188 188 188 188 188 188
188 188 188 188 188 188 188 188 188 188 188 188 188 188 188 188 188
188 188 188 188 188 188 188 188 188 188 188 188 188 188 188 188 188
188 188 188 188 188 188 188 188 188 188 188 188 188 188 188 188 188
188 188 188 188 188 188 188 188 188 188 188 188 188 188 188 188 188
188 188 188 188 188 188 188 188 188 188 188 188 188 188 188 188 188
188 188 188 188 188 188 188 188 188 188 188 188 188 188 188 188 188
188 188 188 188 188 188 188 188 188 188 188 188 188 188 188 188 188
188 188 188 188 188 188 188 188 188 188 188 188 188 188 188 188 188
188 188 188 188 188 188 188 188 188 188 188 188 188 188 188 188 188
188 188 188 188 188 188
255 255 255 0 0 0 255 255 255 0 0 0 255 255 255 0 0 0 255 255 255 0 0
0 255 255 255 0 0 0 255 255 255 0 0 0 255 255 255 0 0 0 255 255 255 0
0 0 255 255 255 0 0 0 255 255 255 0 0 0 255 255 255 0 0 0 255 255 255
0 0 0 255 255 255 0 0 0 255 255 255 0 0 0 255 255 255 0 0 0 255 255
255 0 0 0 255 255 255 0 0 0 255 255 255 0 0 0 255 255 255 0 0 0 255
255 255 0 0 0 255 255 255 0 0 0 255 255 255 0 0 0 255 255 255 0 0 0
255 255 255 0 0 0 255 255 255 0 0 0 255 255 255 0 0 0 255 255 255 0 0
0 255 255 255 0 0 0 255 255 255 0 0 0 255 255 255 0 0 0 255 255 255 0
0 0 255 255 255 0 0 0 255 255 255 0 0 0 255 255 255 0 0 0 255 255 255
0 0 0 255 255 255 0 0 0 255 255 255 0 0 0 255 255 255 0 0 0 255 255
255 0 0 0 255 255 255 0 0 0 255 255 255 0 0 0 255 255 255 0 0 0 255
255 255 0 0 0 255 255 255 0 0 0 255 255 255 0 0 0 255 255 255 0 0 0
255 255 255 0 0 0 255 255 255 0 0 0 255 255 255 0 0 0 255 255 255 0 0
0 128 128 128 128 128 128 128 128 128 128 128 128 128 128 128 128 128
128 128 128 128 128 128 128 128 128 128 128 128 128 128 128 128 128
128 128 128 128 128 128 128 128 128 128 128 128 128 128 128 128 128
128 128 128 128 128 128 128 128 128 128 128 128 128 128 128 128 128
128 128 128 128 128 128 128 128 128 128 128 128 128 128 128 128 128
128 128 128 128 128 128 128 128 128 128 128 128 128 128 128 128 128
128 128 128 128 128 128 128 128 128 128 128 128 128 128 128 128 128
128 128 128 128 128 128 128 128 128 128 128 128 128 128 128 128 128
128 128 128 128 128 128 128 128 128 128 128 128 128 128 128 128 128
128 128 128 128 128 128 128 128 128 128 128 128 128 128 128 128 128
128 128 128 128 128 128 128 128 128 128 128 128 128 128 128 128 128
128 128 128 128 128 128 128 128 128 128 128 128 128 128 128 128 128
128 128 128 128 128 128 128 128 128 128 128 128 128 128 128 128 128
128 128 128 128 128 128 128 128 128 128 128 128 128 128 128 128 128
128 128 128 128 128 128 128 128 128 128 128 128 128 128 128 128 128
128 128 128 128 128 128 128 128 128 128 128 128 128 128 128 128 128
128 128 128 128 128 128 128 128 128 128 128 128 128 128 128 128 128
128 128 128 128 128 128 128 128 128 128 128 188 188 188 188 188 188
188 188 188 188 188 188 188 188 188 188 188 188 188 188 188 188 188
188 188 188 188 188 188 188 188 188 188 188 188 188 188 188 188 188
188 188 188 188 188 188 188 188 188 188 188 188 188 188 188 188 188
188 188 188 188 188 188 188 188 188 188 188 188 188 188 188 188 188
188 188 188 188 188 188 188 188 188 188 188 188 188 188 188 188 188
188 188 188 188 188 188 188 188 188 188 188 188 188 188 188 188 188
188 188 188 188 188 188 188 188 188 188 188 188 188 188 188 188 188
188 188 188 188 188 188 188 188 188 188 188 188 188 188 188 188 188
188 188 188 188 188 188 188 188 188 188 188 188 188 188 188 188 188
188 188 188 188 188 188 188 188 188 188 188 188 188 188 188 188 188
188 188 188 188 188 188 188 188 188 188 188 188 188 188 188 188 188
188 188 188 188 188 188 188 188 188 188 188 188 188 188 188 188 188
188 188 188 188 188 188 188 188 188 188 188 188 188 188 188 188 188
188 188 188 188 188 188 188 188 188 188 188 188 188 188 188 188 188
188 188 188 188 188 188 188 188 188 188 188 188 188 188 188 188 188
188 188 188 188 188 188 188 188 188 188 188 188 188 188 188 188 188
188 188 188 188 188 188 188 188 188 188 188 188 188 188 188 188 188
188 188 188 188 188
0 0 0 255 255 255 0 0 0 255 255 255 0 0 0 255 255 255 0 0 0 255 255
255 0 0 0 255 255 255 0 0 0 255 255 255 0 0 0 255 255 255 0 0 0 255
255 255 0 0 0 255 255 255 0 0 0 255 255 255 0 0 0 255 255 255 0 0 0
255 255 255 0 0 0 255 255 255 0 0 0 255 255 255 0 0 0 255 255 255 0 0
0 255 255 255 0 0 0 255 255 255 0 0 0 255 255 255 0 0 0 255 255 255 0
0 0 255 255 255 0 0 0 255 255 255 0 0 0 255 255 255 0 0 0 255 255 255
0 0 0 255 255 255 0 0 0 255 255 255 0 0 0 255 255 255 0 0 0 255 255
255 0 0 0 255 255 255 0 0 0 255 255 255 0 0 0 255 255 255 0 0 0 255
255 255 0 0 0 255 255 255 0 0 0 255 255 255 0 0 0 255 255 255 0 0 0
255 255 255 0 0 0 255 255 255 0 0 0 255 255 255 0 0 0 255 255 255 0 0
0 255 255 255 0 0 0 255 255 255 0 0 0 255 255 255 0 0 0 255 255 255 0
0 0 255 255 255 0 0 0 255 255 255 0 0 0 255 255 255 0 0 0 255 255 255
0 0 0 255 255 255 0 0 0 255 255 255 0 0 0 255 255 255 0 0 0 255 255
255 128 128 128 128 128 128 128 128 128 128 128 128 128 128 128 128
128 128 128 128 128 128 128 128 128 128 128 128 128 128 128 128 128
128 128 128 128 128 128 128 128 128 128 128 128 128 128 128 128 128
128 128 128 128 128 128 128 128 128 128 128 128 128 128 128 128 128
128 128 128 128 128 128 128 128 128 128 128 128 128 128 128 128 128
128 128 128 128 128 128 128 128 128 128 128 128 128 128 128 128 128
128 128 128 128 128 128 128 128 128 128 128 128 128 128 128 128 128
128 128 128 128 128 128 128 128 128 128 128 128 128 128 128 128 128
128 128 128 128 128 128 128 128 128 128 128 128 128 128 128 128 128
128 128 128 128 128 128 128 128 128 128 128 128 128 128 128 128 128
128 128 128 128 128 128 128 128 128 128 128 128 128 128 128 128 128
128 128 128 128 128 128 128 128 128 128 128 128 128 128 128 128 128
128 128 128 128 128 128 128 128 128 128 128 128 128 128 128 128 128
128 128 128 128 128 128 128 128 128 128 128 128 128 128 128 128 128
128 128 128 128 128 128 128 128 128 128 128 128 128 128 128 128 128
128 128 128 128 128 128 128 128 128 128 128 128 128 128 128 128 128
128 128 128 128 128 128 128 128 128 128 128 128 128 128 128 128 128
128 128 128 128 128 128 128 128 128 128 128 128 188 188 188 188 188
188 188 188 188 188 188 188 188 188 188 188 188 188 188 188 188 188
188 188 188 188 188 188 188 188 188 188 188 188 188 188 188 188 188
188 188 188 188 188 188 188 188 188 188 188 188 188 188 188 188 188
188 188 188 188 188 188 188 188 188 188 188 188 188 188 188 188 188
188 188 188 188 188 188 188 188 188 188 188 188 188 188 188 188 188
188 188 188 188 188 188 188 188 188 188 188 188 188 188 188 188 188
188 188 188 188 188 188 188 188 188 188 188 188 188 188 188 188 188
188 188 188 188 188 188 188 188 188 188 188 188 188 188 188 188 188
188 188 188 188 188 188 188 188 188 188 188 188 188 188 188 188 188
188 188 188 188 188 188 188 188 188 188 188 188 188 188 188 188 188
188 188 188 188 188 188 188 188 188 188 188 188 188 188 188 188 188
188 188 188 188 188 188 188 188 188 188 188 188 188 188 188 188 188
188 188 188 188 188 188 188 188 188 188 188 188 188 188 188 188 188
188 188 188 188 188 188 188 188 188 188 188 188 188 188 188 188 188
188 188 188 188 188 188 188 188 188 188 188 188 188 188 188 188 188
188 188 188 188 188 188 188 188 188 188 188 188 188 188 188 188 188
188 188 188 188 188 188 188 188 188 188 188 188 188 188 188 188 188
188 188 188 188 188 188
255 255 255 0 0 0 255 255 255 0 0 0 255 255 255 0 0 0 255 255 255 0 0
0 255 255 255 0 0 0 255 255 255 0 0 0 255 255 255 0 0 0 255 255 255 0
0 0 255 255 255 0 0 0 255 255 255 0 0 0 255 255 255 0 0 0 255 255 255
0 0 0 255 255 255 0 0 0 255 255 255 0 0 0 255 255 255 0 0 0 255 255
255 0 0 0 255 255 255 0 0 0 255 255 255 0 0 0 255 255 255 0 0 0 255
255 255 0 0 0 255 255 255 0 0 0 255 255 255 0 0 0 255 255 255 0 0 0
255 255 255 0 0 0 255 255 255 0 0 0 255 255 255 0 0 0 255 255 255 0 0
0 255 255 255 0 0 0 255 255 255 0 0 0 255 255 255 0 0 0 255 255 255 0
0 0 255 255 255 0 0 0 255 255 255 0 0 0 255 255 255 0 0 0 255 255 255
0 0 0 255 255 255 0 0 0 255 255 255 0 0 0 255 255 255 0 0 0 255 255
255 0 0 0 255 255 255 0 0 0 255 255 255 0 0 0 255 255 255 0 0 0 255
255 255 0 0 0 255 255 255 0 0 0 255 255 255 0 0 0 255 255 255 0 0 0
255 255 255 0 0 0 255 255 255 0 0 0 255 255 255 0 0 0 255 255 255 0 0
0 128 128 128 128 128 128 128 128 128 128 128 128 128 128 128 128 128
128 128 128 128 128 128 128 128 128 128 128 128 128 128 128 128 128
128 128 128 128 128 128 128 128 128 128 128 128 128 128 128 128 128
128 128 128 128 128 128 128 128 128 128 128 128 128 128 128 128 128
128 128 128 128 128 128 128 128 128 128 128 128 128 128 128 128 128
128 128 128 128 128 128 128 128 128 128 128 128 128 128 128 128 128
128 128 128 128 128 128 128 128 128 128 128 128 128 128 128 128 128
128 128 128 128 128 128 128 128 128 128 128 128 128 128 128 128 128
128 128 128 128 128 128 128 128 128 128 128 128 128 128 128 128 128
128 128 128 128 128 128 128 128 128 128 128 128 128 128 128 128 128
128 128 128 128 128 128 128 128 128 128 128 128 128 128 128 128 128
128 128 128 128 128 128 128 128 128 128 128 128 128 128 128 128 128
128 128 128 128 128 128 128 128 128 128 128 128 128 128 128 128 128
128 128 128 128 128 128 128 128 128 128 128 128 128 128 128 128 128
128 128 128 128 128 128 128 128 128 128 128 128 128 128 128 128 128
128 128 128 128 128 128 128 128 128 128 128 128 128 128 128 128 128
128 128 128 128 128 128 128 128 128 128 128 128 128 128 128 128 128
128 128 128 128 128 128 128 128 128 128 128 188 188 188 188 188 188
188 188 188 188 188 188 188 188 188 188 188 188 188 188 188 188 188
188 188 188 188 188 188 188 188 188 188 188 188 188 188 188 188 188
188 188 188 188 188 188 188 188 188 188 188 188 188 188 188 188 188
188 188 188 188 188 188 188 188 188 188 188 188 188 188 188 188 188
188 188 188 188 188 188 188 188 188 188 188 188 188 188 188 188 188
188 188 188 188 188 188 188 188 188 188 188 188 188 188 188 188 188
188 188 188 188 188 188 188 188 188 188 188 188 188 188 188 188 188
188 188 188 188 188 188 188 188 188 188 188 188 188 188 188 188 188
188 188 188 188 188 188 188 188 188 188 188 188 188 188 188 188 188
188 188 188 188 188 188 188 188 188 188 188 188 188 188 188 188 188
188 188 188 188 188 188 188 188 188 188 188 188 188 188 188 188 188
188 188 188 188 188 188 188 188 188 188 188 188 188 188 188 188 188
188 188 188 188 188 188 188 188 188 188 188 188 188 188 188 188 188
188 188 188 188 188 188 188 188 188 188 188 188 188 188 188 188 188
188 188 188 188 188 188 188 188 188 188 188 188 188 188 188 188 188
188 188 188 188 188 188 188 188 188 188 188 188 188 188 188 188 188
188 188 188 188 188 188 188 188 188 188 188 188 188 188 188 188 188
188 188 188 188 188
0 0 0 255 255 255 0 0 0 255 255 255 0 0 0 255 255 255 0 0 0 255 255
255 0 0 0 255 255 255 0 0 0 255 255 255 0 0 0 255 255 255 0 0 0 255
255 255 0 0 0 255 255 255 0 0 0 255 255 255 0 0 0 255 255 255 0 0 0
255 255 255 0 0 0 255 255 255 0 0 0 255 255 255 0 0 0 255 255 255 0 0
0 255 255 255 0 0 0 255 255 255 0 0 0 255 255 255 0 0 0 255 255 255 0
0 0 255 255 255 0 0 0 255 255 255 0 0 0 255 255 255 0 0 0 255 255 255
0 0 0 255 255 255 0 0 0 255 255 255 0 0 0 255 255 255 0 0 0 255 255
255 0 0 0 255 255 255 0 0 0 255 255 255 0 0 0 255 255 255 0 0 0 255
255 255 0 0 0 255 255 255 0 0 0 255 255 255 0 0 0 255 255 255 0 0 0
255 255 255 0 0 0 255 255 255 0 0 0 255 255 255 0 0 0 255 255 255 0 0
0 255 255 255 0 0 0 255 255 255 0 0 0 255 255 255 0 0 0 255 255 255 0
0 0 255 255 255 0 0 0 255 255 255 0 0 0 255 255 255 0 0 0 255 255 255
0 0 0 255 255 255 0 0 0 255 255 255 0 0 0 255 255 255 0 0 0 255 255
255 128 128 128 128 128 128 128 128 128 128 128 128 128 128 128 128
128 128 128 128 128 128 128 128 128 128 128 128 128 128 128 128 128
128 128 128 128 128 128 128 128 128 128 128 128 128 128 128 128 128
128 128 128 128 128 128 128 128 128 128 128 128 128 128 128 128 128
128 128 128 128 128 128 128 128 128 128 128 128 128 128 128 128 128
128 128 128 128 128 128 128 128 128 128 128 128 128 128 128 128 128
128 128 128 128 128 128 128 128 128 128 128 128 128 128 128 128 128
128 128 128 128 128 128 128 128 128 128 128 128 128 128 128 128 128
128 128 128 128 128 128 128 128 128 128 128 128 128 128 128 128 128
128 128 128 128 128 128 128 128 128 128 128 128 128 128 128 128 128
128 128 128 128 128 128 128 128 128 128 128 128 128 128 128 128 128
128 128 128 128 128 128 128 128 128 128 128 128 128 128 128 128 128
128 128 128 128 128 128 128 128 128 128 128 128 128 128 128 128 128
128 128 128 128 128 128 128 128 128 128 128 128 128 128 128 128 128
128 128 128 128 128 128 128 128 128 128 128 128 128 128 128 128 128
128 128 128 128 128 128 128 128 128 128 128 128 128 128 128 128 128
128 128 128 128 128 128 128 128 128 128 128 128 128 128 128 128 128
128 128 128 128 128 128 128 128 128 128 128 128 188 188 188 188 188
188 188 188 188 188 188 188 188 188 188 188 188 188 188 188 188 188
188 188 188 188 188 188 188 188 188 188 188 188 188 188 188 188 188
188 188 188 188 188 188 188 188 188 188 188 188 188 188 188 188 188
188 188 188 188 188 188 188 188 188 188 188 188 188 188 188 188 188
188 188 188 188 188 188 188 188 188 188 188 188 188 188 188 188 188
188 188 188 188 188 188 188 188 188 188 188 188 188 188 188 188 188
188 188 188 188 188 188 188 188 188 188 188 188 188 188 188 188 188
188 188 188 188 188 188 188 188 188 188 188 188 188 188 188 188 188
188 188 188 188 188 188 188 188 188 188 188 188 188 188 188 188 188
188 188 188 188 188 188 188 188 188 188 188 188 188 188 188 188 188
188 188 188 188 188 188 188 188 188 188 188 188 188 188 188 188 188
188 188 188 188 188 188 188 188 188 188 188 188 188 188 188 188 188
188 188 188 188 188 188 188 188 188 188 188 188 188 188 188 188 188
188 188 188 188 188 188 188 188 188 188 188 188 188 188 188 188 188
188 188 188 188 188 188 188 188 188 188 188 188 188 188 188 188 188
188 188 188 188 188 188 188 188 188 188 188 188 188 188 188 188 188
188 188 188 188 188 188 188 188 188 188 188 188 188 188 188 188 188
188 188 188 188 188 188
255 255 255 0 0 0 255 255 255 0 0 0 255 255 255 0 0 0 255 255 255 0 0
0 255 255 255 0 0 0 255 255 255 0 0 0 255 255 255 0 0 0 255 255 255 0
0 0 255 255 255 0 0 0 255 255 255 0 0 0 255 255 255 0 0 0 255 255 255
0 0 0 255 255 255 0 0 0 255 255 255 0 0 0 255 255 255 0 0 0 255 255
255 0 0 0 255 255 255 0 0 0 255 255 255 0 0 0 255 255 255 0 0 0 255
255 255 0 0 0 255 255 255 0 0 0 255 255 255 0 0 0 255 255 255 0 0 0
255 255 255 0 0 0 255 255 255 0 0 0 255 255 255 0 0 0 255 255 255 0 0
0 255 255 255 0 0 0 255 255 255 0 0 0 255 255 255 0 0 0 255 255 255 0
0 0 255 255 255 0 0 0 255 255 255 0 0 0 255 255 255 0 0 0 255 255 255
0 0 0 255 255 255 0 0 0 255 255 255 0 0 0 255 255 255 0 0 0 255 255
255 0 0 0 255 255 255 0 0 0 255 255 255 0 0 0 255 255 255 0 0 0 255
255 255 0 0 0 255 255 255 0 0 0 255 255 255 0 0 0 255 255 255 0 0 0
255 255 255 0 0 0 255 255 255 0 0 0 255 255 255 0 0 0 255 255 255 0 0
0 128 128 128 128 128 128 128 128 128 128 128 128 128 128 128 128 128
128 128 128 128 128 128 128 128 128 128 128 128 128 128 128 128 128
128 128 128 128 128 128 128 128 128 128 128 128 128 128 128 128 128
128 128 128 128 128 128 128 128 128 128 128 128 128 128 128 128 128
128 128 128 128 128 128 128 128 128 128 128 128 128 128 128 128 128
128 128 128 128 128 128 128 128 128 128 128 128 128 128 128 128 128
128 128 128 128 128 128 128 128 128 128 128 128 128 128 128 128 128
128 128 128 128 128 128 128 128 128 128 128 128 128 128 128 128 128
128 128 128 128 128 128 128 128 128 128 128 128 128 128 128 128 128
128 128 128 128 128 128 128 128 128 128 128 128 128 128 128 128 128
128 128 128 128 128 128 128 128 128 128 128 128 128 128 128 128 128
128 128 128 128 128 128 128 128 128 128 128 128 128 128 128 128 128
128 128 128 128 128 128 128 128 128 128 128 128 128 128 128 128 128
128 128 128 128 128 128 128 128 128 128 128 128 128 128 128 128 128
128 128 128 128 128 128 128 128 128 128 128 128 128 128 128 128 128
128 128 128 128 128 128 128 128 128 128 128 128 128 128 128 128 128
128 128 128 128 128 128 128 128 128 128 128 128 128 128 128 128 128
128 128 128 128 128 128 128 128 128 128 128 188 188 188 188 188 188
188 188 188 188 188 188 188 188 188 188 188 188 188 188 188 188 188
188 188 188 188 188 188 188 188 188 188 188 188 188 188 188 188 188
188 188 188 188 188 188 188 188 188 188 188 188 188 188 188 188 188
188 188 188 188 188 188 188 188 188 188 188 188 188 188 188 188 188
188 188 188 188 188 188 188 188 188 188 188 188 188 188 188 188 188
188 188 188 188 188 188 188 188 188 188 188 188 188 188 188 188 188
188 188 188 188 188 188 188 188 188 188 188 188 188 188 188 188 188
188 188 188 188 188 188 188 188 188 188 188 188 188 188 188 188 188
188 188 188 188 188 188 188 188 188 188 188 188 188 188 188 188 188
188 188 188 188 188 188 188 188 188 188 188 188 188 188 188 188 188
188 188 188 188 188 188 188 188 188 188 188 188 188 188 188 188 188
188 188 188 188 188 188 188 188 188 188 188 188 188 188 188 188 188
188 188 188 188 188 188 188 188 188 188 188 188 188 188 188 188 188
188 188 188 188 188 188 188 188 188 188 188 188 188 188 188 188 188
188 188 188 188 188 188 188 188 188 188 188 188 188 188 188 188 188
188 188 188 188 188 188 188 188 188 188 188 188 188 188 188 188 188
188 188 188 188 188 188 188 188 188 188 188 188 188 188 188 188 188
188 188 188 188 188
0 0 0 255 255 255 0 0 0 255 255 255 0 0 0 255 255 255 0 0 0 255 255
255 0 0 0 255 255 255 0 0 0 255 255 255 0 0 0 255 255 255 0 0 0 255
255 255 0 0 0 255 255 255 0 0 0 255 255 255 0 0 0 255 255 255 0 0 0
255 255 255 0 0 0 255 255 255 0 0 0 255 255 255 0 0 0 255 255 255 0 0
0 255 255 255 0 0 0 255 255 255 0 0 0 255 255 255 0 0 0 255 255 255 0
0 0 255 255 255 0 0 0 255 255 255 0 0 0 255 255 255 0 0 0 255 255 255
0 0 0 255 255 255 0 0 0 255 255 255 0 0 0 255 255 255 0 0 0 255 255
255 0 0 0 255 255 255 0 0 0 255 255 255 0 0 0 255 255 255 0 0 0 255
255 255 0 0 0 255 255 255 0 0 0 255 255 255 0 0 0 255 255 255 0 0 0
255 255 255 0 0 0 255 255 255 0 0 0 255 255 255 0 0 0 255 255 255 0 0
0 255 255 255 0 0 0 255 255 255 0 0 0 255 255 255 0 0 0 255 255 255 0
0 0 255 255 255 0 0 0 255 255 255 0 0 0 255 255 255 0 0 0 255 255 255
0 0 0 255 255 255 0 0 0 255 255 255 0 0 0 255 255 255 0 0 0 255 255
255 128 128 128 128 128 128 128 128 128 128 128 128 128 128 128 128
128 128 128 128 128 128 128 128 128 128 128 128 128 128 128 128 128
128 128 128 128 128 128 128 128 128 128 128 128 128 128 128 128 128
128 128 128 128 128 128 128 128 128 128 128 128 128 128 128 128 128
128 128 128 128 128 128 128 128 128 128 128 128 128 128 128 128 128
128 128 128 128 128 128 128 128 128 128 128 128 128 128 128 128 128
128 128 128 128 128 128 128 128 128 128 128 128 128 128 128 128 128
128 128 128 128 128 128 128 128 128 128 128 128 128 128 128 128 128
128 128 128 128 128 128 128 128 128 128 128 128 128 128 128 128 128
128 128 128 128 128 128 128 128 128 128 128 128 128 128 128 128 128
128 128 128 128 128 128 128 128 128 128 128 128 128 128 128 128 128
128 128 128 128 128 128 128 128 128 128 128 128 128 128 128 128 128
128 128 128 128 128 128 128 128 128 128 128 128 128 128 128 128 128
128 128 128 128 128 128 128 128 128 128 128 128 128 128 128 128 128
128 128 128 128 128 128 128 128 128 128 128 128 128 128 128 128 128
128 128 128 128 128 128 128 128 128 128 128 128 128 128 128 128 128
128 128 128 128 128 128 128 128 128 128 128 128 128 128 128 128 128
128 128 128 128 128 128 128 128 128 128 128 128 188 188 188 188 188
188 188 188 188 188 188 188 188 188 188 188 188 188 188 188 188 188
188 188 188 188 188 188 188 188 188 188 188 188 188 188 188 188 188
188 188 188 188 188 188 188 188 188 188 188 188 188 188 188 188 188
188 188 188 188 188 188 188 188 188 188 188 188 188 188 188 188 188
188 188 188 188 188 188 188 188 188 188 188 188 188 188 188 188 188
188 188 188 188 188 188 188 188 188 188 188 188 188 188 188 188 188
188 188 188 188 188 188 188 188 188 188 188 188 188 188 188 188 188
188 188 188 188 188 188 188 188 188 188 188 188 188 188 188 188 188
188 188 188 188 188 188 188 188 188 188 188 188 188 188 188 188 188
188 188 188 188 188 188 188 188 188 188 188 188 188 188 188 188 188
188 188 188 188 188 188 188 188 188 188 188 188 188 188 188 188 188
188 188 188 188 188 188 188 188 188 188 188 188 188 188 188 188 188
188 188 188 188 188 188 188 188 188 188 188 188 188 188 188 188 188
188 188 188 188 188 188 188 188 188 188 188 188 188 188 188 188 188
188 188 188 188 188 188 188 188 188 188 188 188 188 188 188 188 188
188 188 188 188 188 188 188 188 188 188 188 188 188 188 188 188 188
188 188 188 188 188 188 188 188 188 188 188 188 188 188 188 188 188
188 188 188 188 188 188
255 255 255 0 0 0 255 255 255 0 0 0 255 255 255 0 0 0 255 255 255 0 0
0 255 255 255 0 0 0 255 255 255 0 0 0 255 255 255 0 0 0 255 255 255 0
0 0 255 255 255 0 0 0 255 255 255 0 0 0 255 255 255 0 0 0 255 255 255
0 0 0 255 255 255 0 0 0 255 255 255 0 0 0 255 255 255 0 0 0 255 255
255 0 0 0 255 255 255 0 0 0 255 255 255 0 0 0 255 255 255 0 0 0 255
255 255 0 0 0 255 255 255 0 0 0 255 255 255 0 0 0 255 255 255 0 0 0
255 255 255 0 0 0 255 255 255 0 0 0 255 255 255 0 0 0 255 255 255 0 0
0 255 255 255 0 0 0 255 255 255 0 0 0 255 255 255 0 0 0 255 255 255 0
0 0 255 255 255 0 0 0 255 255 255 0 0 0 255 255 255 0 0 0 255 255 255
0 0 0 255 255 255 0 0 0 255 255 255 0 0 0 255 255 255 0 0 0 255 255
255 0 0 0 255 255 255 0 0 0 255 255 255 0 0 0 255 255 255 0 0 0 255
255 255 0 0 0 255 255 255 0 0 0 255 255 255 0 0 0 255 255 255 0 0 0
255 255 255 0 0 0 255 255 255 0 0 0 255 255 255 0 0 0 255 255 255 0 0
0 128 128 128 128 128 128 128 128 128 128 128 128 128 128 128 128 128
128 128 128 128 128 128 128 128 128 128 128 128 128 128 128 128 128
128 128 128 128 128 128 128 128 128 128 128 128 128 128 128 128 128
128 128 128 128 128 128 128 128 128 128 128 128 128 128 128 128 128
128 128 128 128 128 128 128 128 128 128 128 128 128 128 128 128 128
128 128 128 128 128 128 128 128 128 128 128 128 128 128 128 128 128
128 128 128 128 128 128 128 128 128 128 128 128 128 128 128 128 128
128 128 128 128 128 128 128 128 128 128 128 128 128 128 128 128 128
128 128 128 128 128 128 128 128 128 128 128 128 128 128 128 128 128
128 128 128 128 128 128 128 128 128 128 128 128 128 128 128 128 128
128 128 128 128 128 128 128 128 128 128 128 128 128 128 128 128 128
128 128 128 128 128 128 128 128 128 128 128 128 128 128 128 128 128
128 128 128 128 128 128 128 128 128 128 128 128 128 128 128 128 128
128 128 128 128 128 128 128 128 128 128 128 128 128 128 128 128 128
128 128 128 128 128 128 128 128 128 128 128 128 128 128 128 128 128
128 128 128 128 128 128 128 128 128 128 128 128 128 128 128 128 128
128 128 128 128 128 128 128 128 128 128 128 128 128 128 128 128 128
128 128 128 128 128 128 128 128 128 128 128 188 188 188 188 188 188
188 188 188 188 188 188 188 188 188 188 188 188 188 188 188 188 188
188 188 188 188 188 188 188 188 188 188 188 188 188 188 188 188 188
188 188 188 188 188 188 188 188 188 188 188 188 188 188 188 188 188
188 188 188 188 188 188 188 188 188 188 188 188 188 188 188 188 188
188 188 188 188 188 188 188 188 188 188 188 188 188 188 188 188 188
188 188 188 188 188 188 188 188 188 188 188 188 188 188 188 188 188
188 188 188 188 188 188 188 188 188 188 188 188 188 188 188 188 188
188 188 188 188 188 188 188 188 188 188 188 188 188 188 188 188 188
188 188 188 188 188 188 188 188 188 188 188 188 188 188 188 188 188
188 188 188 188 188 188 188 188 188 188 188 188 188 188 188 188 188
188 188 188 188 188 188 188 188 188 188 188 188 188 188 188 188 188
188 188 188 188 188 188 188 188 188 188 188 188 188 188 188 188 188
188 188 188 188 188 188 188 188 188 188 188 188 188 188 188 188 188
188 188 188 188 188 188 188 188 188 188 188 188 188 188 188 188 188
188 188 188 188 188 188 188 188 188 188 188 188 188 188 188 188 188
188 188 188 188 188 188 188 188 188 188 188 188 188 188 188 188 188
188 188 188 188 188 188 188 188 188 188 188 188 188 188 188 188 188
188 188 188 188 188
0 0 0 255 255 255 0 0 0 255 255 255 0 0 0 255 255 255 0 0 0 255 255
255 0 0 0 255 255 255 0 0 0 255 255 255 0 0 0 255 255 255 0 0 0 255
255 255 0 0 0 255 255 255 0 0 0 255 255 255 0 0 0 255 255 255 0 0 0
255 255 255 0 0 0 255 255 255 0 0 0 255 255 255 0 0 0 255 255 255 0 0
0 255 255 255 0 0 0 255 255 255 0 0 0 255 255 255 0 0 0 255 255 255 0
0 0 255 255 255 0 0 0 255 255 255 0 0 0 255 255 255 0 0 0 255 255 255
0 0 0 255 255 255 0 0 0 255 255 255 0 0 0 255 255 255 0 0 0 255 255
255 0 0 0 255 255 255 0 0 0 255 255 255 0 0 0 255 255 255 0 0 0 255
255 255 0 0 0 255 255 255 0 0 0 255 255 255 0 0 0 255 255 255 0 0 0
255 255 255 0 0 0 255 255 255 0 0 0 255 255 255 0 0 0 255 255 255 0 0
0 255 255 255 0 0 0 255 255 255 0 0 0 255 255 255 0 0 0 255 255 255 0
0 0 255 255 255 0 0 0 255 255 255 0 0 0 255 255 255 0 0 0 255 255 255
0 0 0 255 255 255 0 0 0 255 255 255 0 0 0 255 255 255 0 0 0 255 255
255 128 128 128 128 128 128 128 128 128 128 128 128 128 128 128 128
128 128 128 128 128 128 128 128 128 128 128 128 128 128 128 128 128
128 128 128 128 128 128 128 128 128 128 128 128 128 128 128 128 128
128 128 128 128 128 128 128 128 128 128 128 128 128 128 128 128 128
128 128 128 128 128 128 128 128 128 128 128 128 128 128 128 128 128
128 128 128 128 128 128 128 128 128 128 128 128 128 128 128 128 128
128 128 128 128 128 128 128 128 128 128 128 128 128 128 128 128 128
128 128 128 128 128 128 128 128 128 128 128 128 128 128 128 128 128
128 128 128 128 128 128 128 128 128 128 128 128 128 128 128 128 128
128 128 128 128 128 128 128 128 128 128 128 128 128 128 128 128 128
128 128 128 128 128 128 128 128 128 128 128 128 128 128 128 128 128
128 128 128 128 128 128 128 128 128 128 128 128 128 128 128 128 128
128 128 128 128 128 128 128 128 128 128 128 128 128 128 128 128 128
128 128 128 128 128 128 128 128 128 128 128 128 128 128 128 128 128
128 128 128 128 128 128 128 128 128 128 128 128 128 128 128 128 128
128 128 128 128 128 128 128 128 128 128 128 128 128 128 128 128 128
128 128 128 128 128 128 128 128 128 128 128 128 128 128 128 128 128
128 128 128 128 128 128 128 128 128 128 128 128 188 188 188 188 188
188 188 188 188 188 188 188 188 188 188 188 188 188 188 188 188 188
188 188 188 188 188 188 188 188 188 188 188 188 188 188 188 188 188
188 188 188 188 188 188 188 188 188 188 188 188 188 188 188 188 188
188 188 188 188 188 188 188 188 188 188 188 188 188 188 188 188 188
188 188 188 188 188 188 188 188 188 188 188 188 188 188 188 188 188
188 188 188 188 188 188 188 188 188 188 188 188 188 188 188 188 188
188 188 188 188 188 188 188 188 188 188 188 188 188 188 188 188 188
188 188 188 188 188 188 188 188 188 188 188 188 188 188 188 188 188
188 188 188 188 188 188 188 188 188 188 188 188 188 188 188 188 188
188 188 188 188 188 188 188 188 188 188 188 188 188 188 188 188 188
188 188 188 188 188 188 188 188 188 188 188 188 188 188 188 188 188
188 188 188 188 188 188 188 188 188 188 188 188 188 188 188 188 188
188 188 188 188 188 188 188 188 188 188 188 188 188 188 188 188 188
188 188 188 188 188 188 188 188 188 188 188 188 188 188 188 188 188
188 188 188 188 188 188 188 188 188 188 188 188 188 188 188 188 188
188 188 188 188 188 188 188 188 188 188 188 188 188 188 188 188 188
188 188 188 188 188 188 188 188 188 188 188 188 188 188 188 188 188
188 188 188 188 188 188
255 255 255 0 0 0 255 255 255 0 0 0 255 255 255 0 0 0 255 255 255 0 0
0 255 255 255 0 0 0 255 255 255 0 0 0 255 255 255 0 0 0 255 255 255 0
0 0 255 255 255 0 0 0 255 255 255 0 0 0 255 255 255 0 0 0 255 255 255
0 0 0 255 255 255 0 0 0 255 255 255 0 0 0 255 255 255 0 0 0 255 255
255 0 0 0 255 255 255 0 0 0 255 255 255 0 0 0 255 255 255 0 0 0 255
255 255 0 0 0 255 255 255 0 0 0 255 255 255 0 0 0 255 255 255 0 0 0
255 255 255 0 0 0 255 255 255 0 0 0 255 255 255 0 0 0 255 255 255 0 0
0 255 255 255 0 0 0 255 255 255 0 0 0 255 255 255 0 0 0 255 255 255 0
0 0 255 255 255 0 0 0 255 255 255 0 0 0 255 255 255 0 0 0 255 255 255
0 0 0 255 255 255 0 0 0 255 255 255 0 0 0 255 255 255 0 0 0 255 255
255 0 0 0 255 255 255 0 0 0 255 255 255 0 0 0 255 255 255 0 0 0 255
255 255 0 0 0 255 255 255 0 0 0 255 255 255 0 0 0 255 255 255 0 0 0
255 255 255 0 0 0 255 255 255 0 0 0 255 255 255 0 0 0 255 255 255 0 0
0 128 128 128 128 128 128 128 128 128 128 128 128 128 128 128 128 128
128 128 128 128 128 128 128 128 128 128 128 128 128 128 128 128 128
128 128 128 128 128 128 128 128 128 128 128 128 128 128 128 128 128
128 128 128 128 128 128 128 128 128 128 128 128 128 128 128 128 128
128 128 128 128 128 128 128 128 128 128 128 128 128 128 128 128 128
128 128 128 128 128 128 128 128 128 128 128 128 128 128 128 128 128
128 128 128 128 128 128 128 128 128 128 128 128 128 128 128 128 128
128 128 128 128 128 128 128 128 128 128 128 128 128 128 128 128 128
128 128 128 128 128 128 128 128 128 128 128 128 128 128 128 128 128
128 128 128 128 128 128 128 128 128 128 128 128 128 128 128 128 128
128 128 128 128 128 128 128 128 128 128 128 128 128 128 128 128 128
128 128 128 128 128 128 128 128 128 128 128 128 128 128 128 128 128
128 128 128 128 128 128 128 128 128 128 128 128 128 128 128 128 128
128 128 128 128 128 128 128 128 128 128 128 128 128 128 128 128 128
128 128 128 128 128 128 128 128 128 128 128 128 128 128 128 128 128
128 128 128 128 128 128 128 128 128 128 128 128 128 128 128 128 128
128 128 128 128 128 128 128 128 128 128 128 128 128 128 128 128 128
128 128 128 128 128 128 128 128 128 128 128 188 188 188 188 188 188
188 188 188 188 188 188 188 188 188 188 188 188 188 188 188 188 188
188 188 188 188 188 188 188 188 188 188 188 188 188 188 188 188 188
188 188 188 188 188 188 188 188 188 188 188 188 188 188 188 188 188
188 188 188 188 188 188 188 188 188 188 188 188 188 188 188 188 188
188 188 188 188 188 188 188 188 188 188 188 188 188 188 188 188 188
188 188 188 188 188 188 188 188 188 188 188 188 188 188 188 188 188
188 188 188 188 188 188 188 188 188 188 188 188 188 188 188 188 188
188 188 188 188 188 188 188 188 188 188 188 188 188 188 188 188 188
188 188 188 188 188 188 188 188 188 188 188 188 188 188 188 188 188
188 188 188 188 188 188 188 188 188 188 188 188 188 188 188 188 188
188 188 188 188 188 188 188 188 188 188 188 188 188 188 188 188 188
188 188 188 188 188 188 188 188 188 188 188 188 188 188 188 188 188
188 188 188 188 188 188 188 188 188 188 188 188 188 188 188 188 188
188 188 188 188 188 188 188 188 188 188 188 188 188 188 188 188 188
188 188 188 188 188 188 188 188 188 188 188 188 188 188 188 188 188
188 188 188 188 188 188 188 188 188 188 188 188 188 188 188 188 188
188 188 188 188 188 188 188 188 188 188 188 188 188 188 188 188 188
188 188 188 188 188
0 0 0 255 255 255 0 0 0 255 255 255 0 0 0 255 255 255 0 0 0 255 255
255 0 0 0 255 255 255 0 0 0 255 255 255 0 0 0 255 255 255 0 0 0 255
255 255 0 0 0 255 255 255 0 0 0 255 255 255 0 0 0 255 255 255 0 0 0
255 255 255 0 0 0 255 255 255 0 0 0 255 255 255 0 0 0 255 255 255 0 0
0 255 255 255 0 0 0 255 255 255 0 0 0 255 255 255 0 0 0 255 255 255 0
0 0 255 255 255 0 0 0 255 255 255 0 0 0 255 255 255 0 0 0 255 255 255
0 0 0 255 255 255 0 0 0 255 255 255 0 0 0 255 255 255 0 0 0 255 255
255 0 0 0 255 255 255 0 0 0 255 255 255 0 0 0 255 255 255 0 0 0 255
255 255 0 0 0 255 255 255 0 0 0 255 255 255 0 0 0 255 255 255 0 0 0
255 255 255 0 0 0 255 255 255 0 0 0 255 255 255 0 0 0 255 255 255 0 0
0 255 255 255 0 0 0 255 255 255 0 0 0 255 255 255 0 0 0 255 255 255 0
0 0 255 255 255 0 0 0 255 255 255 0 0 0 255 255 255 0 0 0 255 255 255
0 0 0 255 255 255 0 0 0 255 255 255 0 0 0 255 255 255 0 0 0 255 255
255 128 128 128 128 128 128 128 128 128 128 128 128 128 128 128 128
128 128 128 128 128 128 128 128 128 128 128 128 128 128 128 128 128
128 128 128 128 128 128 128 128 128 128 128 128 128 128 128 128 128
128 128 128 128 128 128 128 128 128 128 128 128 128 128 128 128 128
128 128 128 128 128 128 128 128 128 128 128 128 128 128 128 128 128
128 128 128 128 128 128 128 128 128 128 128 128 128 128 128 128 128
128 128 128 128 128 128 128 128 128 128 128 128 128 128 128 128 128
128 128 128 128 128 128 128 128 128 128 128 128 128 128 128 128 128
128 128 128 128 128 128 128 128 128 128 128 128 128 128 128 128 128
128 128 128 128 128 128 128 128 128 128 128 128 128 128 128 128 128
128 128 128 128 128 128 128 128 128 128 128 128 128 128 128 128 128
128 128 128 128 128 128 128 128 128 128 128 128 128 128 128 128 128
128 128 128 128 128 128 128 128 128 128 128 128 128 128 128 128 128
128 128 128 128 128 128 128 128 128 128 128 128 128 128 128 128 128
128 128 128 128 128 128 128 128 128 128 128 128 128 128 128 128 128
128 128 128 128 128 128 128 128 128 128 128 128 128 128 128 128 128
128 128 128 128 128 128 128 128 128 128 128 128 128 128 128 128 128
128 128 128 128 128 128 128 128 128 128 128 128 188 188 188 188 188
188 188 188 188 188 188 188 188 188 188 188 188 188 188 188 188 188
188 188 188 188 188 188 188 188 188 188 188 188 188 188 188 188 188
188 188 188 188 188 188 188 188 188 188 188 188 188 188 188 188 188
188 188 188 188 188 188 188 188 188 188 188 188 188 188 188 188 188
188 188 188 188 188 188 188 188 188 188 188 188 188 188 188 188 188
188 188 188 188 188 188 188 188 188 188 188 188 188 188 188 188 188
188 188 188 188 188 188 188 188 188 188 188 188 188 188 188 188 188
188 188 188 188 188 188 188 188 188 188 188 188 188 188 188 188 188
188 188 188 188 188 188 188 188 188 188 188 188 188 188 188 188 188
188 188 188 188 188 188 188 188 188 188 188 188 188 188 188 188 188
188 188 188 188 188 188 188 188 188 188 188 188 188 188 188 188 188
188 188 188 188 188 188 188 188 188 188 188 188 188 188 188 188 188
188 188 188 188 188 188 188 188 188 188 188 188 188 188 188 188 188
188 188 188 188 188 188 188 188 188 188 188 188 188 188 188 188 188
188 188 188 188 188 188 188 188 188 188 188 188 188 188 188 188 188
188 188 188 188 188 188 188 188 188 188 188 188 188 188 188 188 188
188 188 188 188 188 188 188 188 188 188 188 188 188 188 188 188 188
188 188 188 188 188 188
255 255 255 0 0 0 255 255 255 0 0 0 255 255 255 0 0 0 255 255 255 0 0
0 255 255 255 0 0 0 255 255 255 0 0 0 255 255 255 0 0 0 255 255 255 0
0 0 255 255 255 0 0 0 255 255 255 0 0 0 255 255 255 0 0 0 255 255 255
0 0 0 255 255 255 0 0 0 255 255 255 0 0 0 255 255 255 0 0 0 255 255
255 0 0 0 255 255 255 0 0 0 255 255 255 0 0 0 255 255 255 0 0 0 255
255 255 0 0 0 255 255 255 0 0 0 255 255 255 0 0 0 255 255 255 0 0 0
255 255 255 0 0 0 255 255 255 0 0 0 255 255 255 0 0 0 255 255 255 0 0
0 255 255 255 0 0 0 255 255 255 0 0 0 255 255 255 0 0 0 255 255 255 0
0 0 255 255 255 0 0 0 255 255 255 0 0 0 255 255 255 0 0 0 255 255 255
0 0 0 255 255 255 0 0 0 255 255 255 0 0 0 255 255 255 0 0 0 255 255
255 0 0 0 255 255 255 0 0 0 255 255 255 0 0 0 255 255 255 0 0 0 255
255 255 0 0 0 255 255 255 0 0 0 255 255 255 0 0 0 255 255 255 0 0 0
255 255 255 0 0 0 255 255 255 0 0 0 255 255 255 0 0 0 255 255 255 0 0
0 128 128 128 128 128 128 128 128 128 128 128 128 128 128 128 128 128
128 128 128 128 128 128 128 128 128 128 128 128 128 128 128 128 128
128 128 128 128 128 128 128 128 128 128 128 128 128 128 128 128 128
128 128 128 128 128 128 128 128 128 128 128 128 128 128 128 128 128
128 128 128 128 128 128 128 128 128 128 128 128 128 128 128 128 128
128 128 128 128 128 128 128 128 128 128 128 128 128 128 128 128 128
128 128 128 128 128 128 128 128 128 128 128 128 128 128 128 128 128
128 128 128 128 128 128 128 128 128 128 128 128 128 128 128 128 128
128 128 128 128 128 128 128 128 128 128 128 128 128 128 128 128 128
128 128 128 128 128 128 128 128 128 128 128 128 128 128 128 128 128
128 128 128 128 128 128 128 128 128 128 128 128 128 128 128 128 128
128 128 128 128 128 128 128 128 128 128 128 128 128 128 128 128 128
128 128 128 128 128 128 128 128 128 128 128 128 128 128 128 128 128
128 128 128 128 128 128 128 128 128 128 128 128 128 128 128 128 128
128 128 128 128 128 128 128 128 128 128 128 128 128 128 128 128 128
128 128 128 128 128 128 128 128 128 128 128 128 128 128 128 128 128
128 128 128 128 128 128 128 128 128 128 128 128 128 128 128 128 128
128 128 128 128 128 128 128 128 128 128 128 188 188 188 188 188 188
188 188 188 188 188 188 188 188 188 188 188 188 188 188 188 188 188
188 188 188 188 188 188 188 188 188 188 188 188 188 188 188 188 188
188 188 188 188 188 188 188 188 188 188 188 188 188 188 188 188 188
188 188 188 188 188 188 188 188 188 188 188 188 188 188 188 188 188
188 188 188 188 188 188 188 188 188 188 188 188 188 188 188 188 188
188 188 188 188 188 188 188 188 188 188 188 188 188 188 188 188 188
188 188 188 188 188 188 188 188 188 188 188 188 188 188 188 188 188
188 188 188 188 188 188 188 188 188 188 188 188 188 188 188 188 188
188 188 188 188 188 188 188 188 188 188 188 188 188 188 188 188 188
188 188 188 188 188 188 188 188 188 188 188 188 188 188 188 188 188
188 188 188 188 188 188 188 188 188 188 188 188 188 188 188 188 188
188 188 188 188 188 188 188 188 188 188 188 188 188 188 188 188 188
188 188 188 188 188 188 188 188 188 188 188 188 188 188 188 188 188
188 188 188 188 188 188 188 188 188 188 188 188 188 188 188 188 188
188 188 188 188 188 188 188 188 188 188 188 188 188 188 188 188 188
188 188 188 188 188 188 188 188 188 188 188 188 188 188 188 188 188
188 188 188 188 188 188 188 188 188 188 188 188 188 188 188 188 188
188 188 188 188 188
0 0 0 255 255 255 0 0 0 255 255 255 0 0 0 255 255 255 0 0 0 255 255
255 0 0 0 255 255 255 0 0 0 255 255 255 0 0 0 255 255 255 0 0 0 255
255 255 0 0 0 255 255 255 0 0 0 255 255 255 0 0 0 255 255 255 0 0 0
255 255 255 0 0 0 255 255 255 0 0 0 255 255 255 0 0 0 255 255 255 0 0
0 255 255 255 0 0 0 255 255 255 0 0 0 255 255 255 0 0 0 255 255 255 0
0 0 255 255 255 0 0 0 255 255 255 0 0 0 255 255 255 0 0 0 255 255 255
0 0 0 255 255 255 0 0 0 255 255 255 0 0 0 255 255 255 0 0 0 255 255
255 0 0 0 255 255 255 0 0 0 255 255 255 0 0 0 255 255 255 0 0 0 255
255 255 0 0 0 255 255 255 0 0 0 255 255 255 0 0 0 255 255 255 0 0 0
255 255 255 0 0 0 255 255 255 0 0 0 255 255 255 0 0 0 255 255 255 0 0
0 255 255 255 0 0 0 255 255 255 0 0 0 255 255 255 0 0 0 255 255 255 0
0 0 255 255 255 0 0 0 255 255 255 0 0 0 255 255 255 0 0 0 255 255 255
0 0 0 255 255 255 0 0 0 255 255 255 0 0 0 255 255 255 0 0 0 255 255
255 128 128 128 128 128 128 128 128 128 128 128 128 128 128 128 128
128 128 128 128 128 128 128 128 128 128 128 128 128 128 128 128 128
128 128 128 128 128 128 128 128 128 128 128 128 128 128 128 128 128
128 128 128 128 128 128 128 128 128 128 128 128 128 128 128 128 128
128 128 128 128 128 128 128 128 128 128 128 128 128 128 128 128 128
128 128 128 128 128 128 128 128 128 128 128 128 128 128 128 128 128
128 128 128 128 128 128 128 128 128 128 128 128 128 128 128 128 128
128 128 128 128 128 128 128 128 128 128 128 128 128 128 128 128 128
128 128 128 128 128 128 128 128 128 128 128 128 128 128 128 128 128
128 128 128 128 128 128 128 128 128 128 128 128 128 128 128 128 128
128 128 128 128 128 128 128 128 128 128 128 128 128 128 128 128 128
128 128 128 128 128 128 128 128 128 128 128 128 128 128 128 128 128
128 128 128 128 128 128 128 128 128 128 128 128 128 128 128 128 128
128 128 128 128 128 128 128 128 128 128 128 128 128 128 128 128 128
128 128 128 128 128 128 128 128 128 128 128 128 128 128 128 128 128
128 128 128 128 128 128 128 128 128 128 128 128 128 128 128 128 128
128 128 128 128 128 128 128 128 128 128 128 128 128 128 128 128 128
128 128 128 128 128 128 128 128 128 128 128 128 188 188 188 188 188
188 188 188 188 188 188 188 188 188 188 188 188 188 188 188 188 188
188 188 188 188 188 188 188 188 188 188 188 188 188 188 188 188 188
188 188 188 188 188 188 188 188 188 188 188 188 188 188 188 188 188
188 188 188 188 188 188 188 188 188 188 188 188 188 188 188 188 188
188 188 188 188 188 188 188 188 188 188 188 188 188 188 188 188 188
188 188 188 188 188 188 188 188 188 188 188 188 188 188 188 188 188
188 188 188 188 188 188 188 188 188 188 188 188 188 188 188 188 188
188 188 188 188 188 188 188 188 188 188 188 188 188 188 188 188 188
188 188 188 188 188 188 188 188 188 188 188 188 188 188 188 188 188
188 188 188 188 188 188 188 188 188 188 188 188 188 188 188 188 188
188 188 188 188 188 188 188 188 188 188 188 188 188 188 188 188 188
188 188 188 188 188 188 188 188 188 188 188 188 188 188 188 188 188
188 188 188 188 188 188 188 188 188 188 188 188 188 188 188 188 188
188 188 188 188 188 188 188 188 188 188 188 188 188 188 188 188 188
188 188 188 188 188 188 188 188 188 188 188 188 188 188 188 188 188
188 188 188 188 188 188 188 188 188 188 188 188 188 188 188 188 188
188 188 188 188 188 188 188 188 188 188 188 188 188 188 188 188 188
188 188 188 188 188 188
255 255 255 0 0 0 255 255 255 0 0 0 255 255 255 0 0 0 255 255 255 0 0
0 255 255 255 0 0 0 255 255 255 0 0 0 255 255 255 0 0 0 255 255 255 0
0 0 255 255 255 0 0 0 255 255 255 0 0 0 255 255 255 0 0 0 255 255 255
0 0 0 255 255 255 0 0 0 255 255 255 0 0 0 255 255 255 0 0 0 255 255
255 0 0 0 255 255 255 0 0 0 255 255 255 0 0 0 255 255 255 0 0 0 255
255 255 0 0 0 255 255 255 0 0 0 255 255 255 0 0 0 255 255 255 0 0 0
255 255 255 0 0 0 255 255 255 0 0 0 255 255 255 0 0 0 255 255 255 0 0
0 255 255 255 0 0 0 255 255 255 0 0 0 255 255 255 0 0 0 255 255 255 0
0 0 255 255 255 0 0 0 255 255 255 0 0 0 255 255 255 0 0 0 255 255 255
0 0 0 255 255 255 0 0 0 255 255 255 0 0 0 255 255 255 0 0 0 255 255
255 0 0 0 255 255 255 0 0 0 255 255 255 0 0 0 255 255 255 0 0 0 255
255 255 0 0 0 255 255 255 0 0 0 255 255 255 0 0 0 255 255 255 0 0 0
255 255 255 0 0 0 255 255 255 0 0 0 255 255 255 0 0 0 255 255 255 0 0
0 128 128 128 128 128 128 128 128 128 128 128 128 128 128 128 128 128
128 128 128 128 128 128 128 128 128 128 128 128 128 128 128 128 128
128 128 128 128 128 128 128 128 128 128 128 128 128 128 128 128 128
128 128 128 128 128 128 128 128 128 128 128 128 128 128 128 128 128
128 128 128 128 128 128 128 128 128 128 128 128 128 128 128 128 128
128 128 128 128 128 128 128 128 128 128 128 128 128 128 128 128 128
128 128 128 128 128 128 128 128 128 128 128 128 128 128 128 128 128
128 128 128 128 128 128 128 128 128 128 128 128 128 128 128 128 128
128 128 128 128 128 128 128 128 128 128 128 128 128 128 128 128 128
128 128 128 128 128 128 128 128 128 128 128 128 128 128 128 128 128
128 128 128 128 128 128 128 128 128 128 128 128 128 128 128 128 128
128 128 128 128 128 128 128 128 128 128 128 128 128 128 128 128 128
128 128 128 128 128 128 128 128 128 128 128 128 128 128 128 128 128
128 128 128 128 128 128 128 128 128 128 128 128 128 128 128 128 128
128 128 128 128 128 128 128 128 128 128 128 128 128 128 128 128 128
128 128 128 128 128 128 128 128 128 128 128 128 128 128 128 128 128
128 128 128 128 128 128 128 128 128 128 128 128 128 128 128 128 128
128 128 128 128 128 128 128 128 128 128 128 188 188 188 188 188 188
188 188 188 188 188 188 188 188 188 188 188 188 188 188 188 188 188
188 188 188 188 188 188 188 188 188 188 188 188 188 188 188 188 188
188 188 188 188 188 188 188 188 188 188 188 188 188 188 188 188 188
188 188 188 188 188 188 188 188 188 188 188 188 188 188 188 188 188
188 188 188 188 188 188 188 188 188 188 188 188 188 188 188 188 188
188 188 188 188 188 188 188 188 188 188 188 188 188 188 188 188 188
188 188 188 188 188 188 188 188 188 188 188 188 188 188 188 188 188
188 188 188 188 188 188 188 188 188 188 188 188 188 188 188 188 188
188 188 188 188 188 188 188 188 188 188 188 188 188 188 188 188 188
188 188 188 188 188 188 188 188 188 188 188 188 188 188 188 188 188
188 188 188 188 188 188 188 188 188 188 188 188 188 188 188 188 188
188 188 188 188 188 188 188 188 188 188 188 188 188 188 188 188 188
188 188 188 188 188 188 188 188 188 188 188 188 188 188 188 188 188
188 188 188 188 188 188 188 188 188 188 188 188 188 188 188 188 188
188 188 188 188 188 188 188 188 188 188 188 188 188 188 188 188 188
188 188 188 188 188 188 188 188 188 188 188 188 188 188 188 188 188
188 188 188 188 188 188 188 188 188 188 188 188 188 188 188 188 188
188 188 188 188 188
0 0 0 255 255 255 0 0 0 255 255 255 0 0 0 255 255 255 0 0 0 255 255
255 0 0 0 255 255 255 0 0 0 255 255 255 0 0 0 255 255 255 0 0 0 255
255 255 0 0 0 255 255 255 0 0 0 255 255 255 0 0 0 255 255 255 0 0 0
255 255 255 0 0 0 255 255 255 0 0 0 255 255 255 0 0 0 255 255 255 0 0
0 255 255 255 0 0 0 255 255 255 0 0 0 255 255 255 0 0 0 255 255 255 0
0 0 255 255 255 0 0 0 255 255 255 0 0 0 255 255 255 0 0 0 255 255 255
0 0 0 255 255 255 0 0 0 255 255 255 0 0 0 255 255 255 0 0 0 255 255
255 0 0 0 255 255 255 0 0 0 255 255 255 0 0 0 255 255 255 0 0 0 255
255 255 0 0 0 255 255 255 0 0 0 255 255 255 0 0 0 255 255 255 0 0 0
255 255 255 0 0 0 255 255 255 0 0 0 255 255 255 0 0 0 255 255 255 0 0
0 255 255 255 0 0 0 255 255 255 0 0 0 255 255 255 0 0 0 255 255 255 0
0 0 255 255 255 0 0 0 255 255 255 0 0 0 255 255 255 0 0 0 255 255 255
0 0 0 255 255 255 0 0 0 255 255 255 0 0 0 255 255 255 0 0 0 255 255
255 128 128 128 128 128 128 128 128 128 128 128 128 128 128 128 128
128 128 128 128 128 128 128 128 128 128 128 128 128 128 128 128 128
128 128 128 128 128 128 128 128 128 128 128 128 128 128 128 128 128
128 128 128 128 128 128 128 128 128 128 128 128 128 128 128 128 128
128 128 128 128 128 128 128 128 128 128 128 128 128 128 128 128 128
128 128 128 128 128 128 128 128 128 128 128 128 128 128 128 128 128
128 128 128 128 128 128 128 128 128 128 128 128 128 128 128 128 128
128 128 128 128 128 128 128 128 128 128 128 128 128 128 128 128 128
128 128 128 128 128 128 128 128 128 128 128 128 128 128 128 128 128
128 128 128 128 128 128 128 128 128 128 128 128 128 128 128 128 128
128 128 128 128 128 128 128 128 128 128 128 128 128 128 128 128 128
128 128 128 128 128 128 128 128 128 128 128 128 128 128 128 128 128
128 128 128 128 128 128 128 128 128 128 128 128 128 128 128 128 128
128 128 128 128 128 128 128 128 128 128 128 128 128 128 128 128 128
128 128 128 128 128 128 128 128 128 128 128 128 128 128 128 128 128
128 128 128 128 128 128 128 128 128 128 128 128 128 128 128 128 128
128 128 128 128 128 128 128 128 128 128 128 128 128 128 128 128 128
128 128 128 128 128 128 128 128 128 128 128 128 188 188 188 188 188
188 188 188 188 188 188 188 188 188 188 188 188 188 188 188 188 188
188 188 188 188 188 188 188 188 188 188 188 188 188 188 188 188 188
188 188 188 188 188 188 188 188 188 188 188 188 188 188 188 188 188
188 188 188 188 188 188 188 188 188 188 188 188 188 188 188 188 188
188 188 188 188 188 188 188 188 188 188 188 188 188 188 188 188 188
188 188 188 188 188 188 188 188 188 188 188 188 188 188 188 188 188
188 188 188 188 188 188 188 188 188 188 188 188 188 188 188 188 188
188 188 188 188 188 188 188 188 188 188 188 188 188 188 188 188 188
188 188 188 188 188 188 188 188 188 188 188 188 188 188 188 188 188
188 188 188 188 188 188 188 188 188 188 188 188 188 188 188 188 188
188 188 188 188 188 188 188 188 188 188 188 188 188 188 188 188 188
188 188 188 188 188 188 188 188 188 188 188 188 188 188 188 188 188
188 188 188 188 188 188 188 188 188 188 188 188 188 188 188 188 188
188 188 188 188 188 188 188 188 188 188 188 188 188 188 188 188 188
188 188 188 188 188 188 188 188 188 188 188 188 188 188 188 188 188
188 188 188 188 188 188 188 188 188 188 188 188 188 188 188 188 188
188 188 188 188 188 188 188 188 188 188 188 188 188 188 188 188 188
188 188 188 188 188 188
