P3
200 100
255
255 255 255 0 0 0 0 0 0 0 0 0 255 255 255 0 0 0 0 0 0 0 0 0 255 255
255 0 0 0 0 0 0 0 0 0 255 255 255 0 0 0 0 0 0 0 0 0 255 255 255 0 0 0
0 0 0 0 0 0 255 255 255 0 0 0 0 0 0 0 0 0 255 255 255 0 0 0 0 0 0 0 0
0 255 255 255 0 0 0 0 0 0 0 0 0 255 255 255 0 0 0 0 0 0 0 0 0 255 255
255 0 0 0 0 0 0 0 0 0 255 255 255 0 0 0 0 0 0 0 0 0 255 255 255 0 0 0
0 0 0 0 0 0 255 255 255 0 0 0 0 0 0 0 0 0 255 255 255 0 0 0 0 0 0 0 0
0 255 255 255 0 0 0 0 0 0 0 0 0 255 255 255 0 0 0 0 0 0 0 0 0 255 255
255 0 0 0 0 0 0 0 0 0 255 255 255 0 0 0 0 0 0 0 0 0 255 255 255 0 0 0
0 0 0 0 0 0 255 255 255 0 0 0 0 0 0 0 0 0 255 255 255 0 0 0 0 0 0 0 0
0 255 255 255 0 0 0 0 0 0 0 0 0 255 255 255 0 0 0 0 0 0 0 0 0 255 255
255 0 0 0 0 0 0 0 0 0 255 255 255 0 0 0 0 0 0 0 0 0 137 137 137 137
137 137 137 137 137 137 137 137 137 137 137 137 137 137 137 137 137
137 137 137 137 137 137 137 137 137 137 137 137 137 137 137 137 137
137 137 137 137 137 137 137 137 137 137 137 137 137 137 137 137 137
137 137 137 137 137 137 137 137 137 137 137 137 137 137 137 137 137
137 137 137 137 137 137 137 137 137 137 137 137 137 137 137 137 137
137 137 137 137 137 137 137 137 137 137 137 137 137 137 137 137 137
137 137 137 137 137 137 137 137 137 137 137 137 137 137 137 137 137
137 137 137 137 137 137 137 137 137 137 137 137 137 137 137 137 137
137 137 137 137 137 137 137 137 137 137 137 137 137 137 137 137 137
137 137 137 137 137 137 137 137 137 137 137 137 137 137 137 137 137
137 137 137 137 137 137 137 137 137 137 137 137 137 137 137 137 137
137 137 137 137 137 137 137 137 137 137 137 137 137 137 137 137 137
137 137 137 137 137 137 137 137 137 137 137 137 137 137 137 137 137
137 137 137 137 137 137 137 137 137 137 137 137 137 137 137 137 137
137 137 137 137 137 137 137 137 137 137 137 137 137 137 137 137 137
137 137 137 137 137 137 137 137 137 137 137 137 137 137 137 137 137
137 137 137 137 137 137 137 137 137 137 137 137 137 137 137 137 137
137 137 137 137 137 137 137
0 0 0 0 0 0 0 0 0 255 255 255 0 0 0 0 0 0 0 0 0 255 255 255 0 0 0 0 0
0 0 0 0 255 255 255 0 0 0 0 0 0 0 0 0 255 255 255 0 0 0 0 0 0 0 0 0
255 255 255 0 0 0 0 0 0 0 0 0 255 255 255 0 0 0 0 0 0 0 0 0 255 255
255 0 0 0 0 0 0 0 0 0 255 255 255 0 0 0 0 0 0 0 0 0 255 255 255 0 0 0
0 0 0 0 0 0 255 255 255 0 0 0 0 0 0 0 0 0 255 255 255 0 0 0 0 0 0 0 0
0 255 255 255 0 0 0 0 0 0 0 0 0 255 255 255 0 0 0 0 0 0 0 0 0 255 255
255 0 0 0 0 0 0 0 0 0 255 255 255 0 0 0 0 0 0 0 0 0 255 255 255 0 0 0
0 0 0 0 0 0 255 255 255 0 0 0 0 0 0 0 0 0 255 255 255 0 0 0 0 0 0 0 0
0 255 255 255 0 0 0 0 0 0 0 0 0 255 255 255 0 0 0 0 0 0 0 0 0 255 255
255 0 0 0 0 0 0 0 0 0 255 255 255 0 0 0 0 0 0 0 0 0 255 255 255 0 0 0
0 0 0 0 0 0 255 255 255 0 0 0 0 0 0 0 0 0 255 255 255 137 137 137 137
137 137 137 137 137 137 137 137 137 137 137 137 137 137 137 137 137
137 137 137 137 137 137 137 137 137 137 137 137 137 137 137 137 137
137 137 137 137 137 137 137 137 137 137 137 137 137 137 137 137 137
137 137 137 137 137 137 137 137 137 137 137 137 137 137 137 137 137
137 137 137 137 137 137 137 137 137 137 137 137 137 137 137 137 137
137 137 137 137 137 137 137 137 137 137 137 137 137 137 137 137 137
137 137 137 137 137 137 137 137 137 137 137 137 137 137 137 137 137
137 137 137 137 137 137 137 137 137 137 137 137 137 137 137 137 137
137 137 137 137 137 137 137 137 137 137 137 137 137 137 137 137 137
137 137 137 137 137 137 137 137 137 137 137 137 137 137 137 137 137
137 137 137 137 137 137 137 137 137 137 137 137 137 137 137 137 137
137 137 137 137 137 137 137 137 137 137 137 137 137 137 137 137 137
137 137 137 137 137 137 137 137 137 137 137 137 137 137 137 137 137
137 137 137 137 137 137 137 137 137 137 137 137 137 137 137 137 137
137 137 137 137 137 137 137 137 137 137 137 137 137 137 137 137 137
137 137 137 137 137 137 137 137 137 137 137 137 137 137 137 137 137
137 137 137 137 137 137 137 137 137 137 137 137 137 137 137 137 137
137 137 137 137 137 137 137
0 0 0 0 0 0 255 255 255 0 0 0 0 0 0 0 0 0 255 255 255 0 0 0 0 0 0 0 0
0 255 255 255 0 0 0 0 0 0 0 0 0 255 255 255 0 0 0 0 0 0 0 0 0 255 255
255 0 0 0 0 0 0 0 0 0 255 255 255 0 0 0 0 0 0 0 0 0 255 255 255 0 0 0
0 0 0 0 0 0 255 255 255 0 0 0 0 0 0 0 0 0 255 255 255 0 0 0 0 0 0 0 0
0 255 255 255 0 0 0 0 0 0 0 0 0 255 255 255 0 0 0 0 0 0 0 0 0 255 255
255 0 0 0 0 0 0 0 0 0 255 255 255 0 0 0 0 0 0 0 0 0 255 255 255 0 0 0
0 0 0 0 0 0 255 255 255 0 0 0 0 0 0 0 0 0 255 255 255 0 0 0 0 0 0 0 0
0 255 255 255 0 0 0 0 0 0 0 0 0 255 255 255 0 0 0 0 0 0 0 0 0 255 255
255 0 0 0 0 0 0 0 0 0 255 255 255 0 0 0 0 0 0 0 0 0 255 255 255 0 0 0
0 0 0 0 0 0 255 255 255 0 0 0 0 0 0 0 0 0 255 255 255 0 0 0 0 0 0 0 0
0 255 255 255 0 0 0 0 0 0 0 0 0 255 255 255 0 0 0 137 137 137 137 137
137 137 137 137 137 137 137 137 137 137 137 137 137 137 137 137 137
137 137 137 137 137 137 137 137 137 137 137 137 137 137 137 137 137
137 137 137 137 137 137 137 137 137 137 137 137 137 137 137 137 137
137 137 137 137 137 137 137 137 137 137 137 137 137 137 137 137 137
137 137 137 137 137 137 137 137 137 137 137 137 137 137 137 137 137
137 137 137 137 137 137 137 137 137 137 137 137 137 137 137 137 137
137 137 137 137 137 137 137 137 137 137 137 137 137 137 137 137 137
137 137 137 137 137 137 137 137 137 137 137 137 137 137 137 137 137
137 137 137 137 137 137 137 137 137 137 137 137 137 137 137 137 137
137 137 137 137 137 137 137 137 137 137 137 137 137 137 137 137 137
137 137 137 137 137 137 137 137 137 137 137 137 137 137 137 137 137
137 137 137 137 137 137 137 137 137 137 137 137 137 137 137 137 137
137 137 137 137 137 137 137 137 137 137 137 137 137 137 137 137 137
137 137 137 137 137 137 137 137 137 137 137 137 137 137 137 137 137
137 137 137 137 137 137 137 137 137 137 137 137 137 137 137 137 137
137 137 137 137 137 137 137 137 137 137 137 137 137 137 137 137 137
137 137 137 137 137 137 137 137 137 137 137 137 137 137 137 137 137
137 137 137 137 137 137
0 0 0 255 255 255 0 0 0 0 0 0 0 0 0 255 255 255 0 0 0 0 0 0 0 0 0 255
255 255 0 0 0 0 0 0 0 0 0 255 255 255 0 0 0 0 0 0 0 0 0 255 255 255 0
0 0 0 0 0 0 0 0 255 255 255 0 0 0 0 0 0 0 0 0 255 255 255 0 0 0 0 0 0
0 0 0 255 255 255 0 0 0 0 0 0 0 0 0 255 255 255 0 0 0 0 0 0 0 0 0 255
255 255 0 0 0 0 0 0 0 0 0 255 255 255 0 0 0 0 0 0 0 0 0 255 255 255 0
0 0 0 0 0 0 0 0 255 255 255 0 0 0 0 0 0 0 0 0 255 255 255 0 0 0 0 0 0
0 0 0 255 255 255 0 0 0 0 0 0 0 0 0 255 255 255 0 0 0 0 0 0 0 0 0 255
255 255 0 0 0 0 0 0 0 0 0 255 255 255 0 0 0 0 0 0 0 0 0 255 255 255 0
0 0 0 0 0 0 0 0 255 255 255 0 0 0 0 0 0 0 0 0 255 255 255 0 0 0 0 0 0
0 0 0 255 255 255 0 0 0 0 0 0 0 0 0 255 255 255 0 0 0 0 0 0 0 0 0 255
255 255 0 0 0 0 0 0 0 0 0 255 255 255 0 0 0 0 0 0 137 137 137 137 137
137 137 137 137 137 137 137 137 137 137 137 137 137 137 137 137 137
137 137 137 137 137 137 137 137 137 137 137 137 137 137 137 137 137
137 137 137 137 137 137 137 137 137 137 137 137 137 137 137 137 137
137 137 137 137 137 137 137 137 137 137 137 137 137 137 137 137 137
137 137 137 137 137 137 137 137 137 137 137 137 137 137 137 137 137
137 137 137 137 137 137 137 137 137 137 137 137 137 137 137 137 137
137 137 137 137 137 137 137 137 137 137 137 137 137 137 137 137 137
137 137 137 137 137 137 137 137 137 137 137 137 137 137 137 137 137
137 137 137 137 137 137 137 137 137 137 137 137 137 137 137 137 137
137 137 137 137 137 137 137 137 137 137 137 137 137 137 137 137 137
137 137 137 137 137 137 137 137 137 137 137 137 137 137 137 137 137
137 137 137 137 137 137 137 137 137 137 137 137 137 137 137 137 137
137 137 137 137 137 137 137 137 137 137 137 137 137 137 137 137 137
137 137 137 137 137 137 137 137 137 137 137 137 137 137 137 137 137
137 137 137 137 137 137 137 137 137 137 137 137 137 137 137 137 137
137 137 137 137 137 137 137 137 137 137 137 137 137 137 137 137 137
137 137 137 137 137 137 137 137 137 137 137 137 137 137 137 137 137
137 137 137 137 137 137
255 255 255 0 0 0 0 0 0 0 0 0 255 255 255 0 0 0 0 0 0 0 0 0 255 255
255 0 0 0 0 0 0 0 0 0 255 255 255 0 0 0 0 0 0 0 0 0 255 255 255 0 0 0
0 0 0 0 0 0 255 255 255 0 0 0 0 0 0 0 0 0 255 255 255 0 0 0 0 0 0 0 0
0 255 255 255 0 0 0 0 0 0 0 0 0 255 255 255 0 0 0 0 0 0 0 0 0 255 255
255 0 0 0 0 0 0 0 0 0 255 255 255 0 0 0 0 0 0 0 0 0 255 255 255 0 0 0
0 0 0 0 0 0 255 255 255 0 0 0 0 0 0 0 0 0 255 255 255 0 0 0 0 0 0 0 0
0 255 255 255 0 0 0 0 0 0 0 0 0 255 255 255 0 0 0 0 0 0 0 0 0 255 255
255 0 0 0 0 0 0 0 0 0 255 255 255 0 0 0 0 0 0 0 0 0 255 255 255 0 0 0
0 0 0 0 0 0 255 255 255 0 0 0 0 0 0 0 0 0 255 255 255 0 0 0 0 0 0 0 0
0 255 255 255 0 0 0 0 0 0 0 0 0 255 255 255 0 0 0 0 0 0 0 0 0 255 255
255 0 0 0 0 0 0 0 0 0 255 255 255 0 0 0 0 0 0 0 0 0 137 137 137 137
137 137 137 137 137 137 137 137 137 137 137 137 137 137 137 137 137
137 137 137 137 137 137 137 137 137 137 137 137 137 137 137 137 137
137 137 137 137 137 137 137 137 137 137 137 137 137 137 137 137 137
137 137 137 137 137 137 137 137 137 137 137 137 137 137 137 137 137
137 137 137 137 137 137 137 137 137 137 137 137 137 137 137 137 137
137 137 137 137 137 137 137 137 137 137 137 137 137 137 137 137 137
137 137 137 137 137 137 137 137 137 137 137 137 137 137 137 137 137
137 137 137 137 137 137 137 137 137 137 137 137 137 137 137 137 137
137 137 137 137 137 137 137 137 137 137 137 137 137 137 137 137 137
137 137 137 137 137 137 137 137 137 137 137 137 137 137 137 137 137
137 137 137 137 137 137 137 137 137 137 137 137 137 137 137 137 137
137 137 137 137 137 137 137 137 137 137 137 137 137 137 137 137 137
137 137 137 137 137 137 137 137 137 137 137 137 137 137 137 137 137
137 137 137 137 137 137 137 137 137 137 137 137 137 137 137 137 137
137 137 137 137 137 137 137 137 137 137 137 137 137 137 137 137 137
137 137 137 137 137 137 137 137 137 137 137 137 137 137 137 137 137
137 137 137 137 137 137 137 137 137 137 137 137 137 137 137 137 137
137 137 137 137 137 137 137
0 0 0 0 0 0 0 0 0 255 255 255 0 0 0 0 0 0 0 0 0 255 255 255 0 0 0 0 0
0 0 0 0 255 255 255 0 0 0 0 0 0 0 0 0 255 255 255 0 0 0 0 0 0 0 0 0
255 255 255 0 0 0 0 0 0 0 0 0 255 255 255 0 0 0 0 0 0 0 0 0 255 255
255 0 0 0 0 0 0 0 0 0 255 255 255 0 0 0 0 0 0 0 0 0 255 255 255 0 0 0
0 0 0 0 0 0 255 255 255 0 0 0 0 0 0 0 0 0 255 255 255 0 0 0 0 0 0 0 0
0 255 255 255 0 0 0 0 0 0 0 0 0 255 255 255 0 0 0 0 0 0 0 0 0 255 255
255 0 0 0 0 0 0 0 0 0 255 255 255 0 0 0 0 0 0 0 0 0 255 255 255 0 0 0
0 0 0 0 0 0 255 255 255 0 0 0 0 0 0 0 0 0 255 255 255 0 0 0 0 0 0 0 0
0 255 255 255 0 0 0 0 0 0 0 0 0 255 255 255 0 0 0 0 0 0 0 0 0 255 255
255 0 0 0 0 0 0 0 0 0 255 255 255 0 0 0 0 0 0 0 0 0 255 255 255 0 0 0
0 0 0 0 0 0 255 255 255 0 0 0 0 0 0 0 0 0 255 255 255 137 137 137 137
137 137 137 137 137 137 137 137 137 137 137 137 137 137 137 137 137
137 137 137 137 137 137 137 137 137 137 137 137 137 137 137 137 137
137 137 137 137 137 137 137 137 137 137 137 137 137 137 137 137 137
137 137 137 137 137 137 137 137 137 137 137 137 137 137 137 137 137
137 137 137 137 137 137 137 137 137 137 137 137 137 137 137 137 137
137 137 137 137 137 137 137 137 137 137 137 137 137 137 137 137 137
137 137 137 137 137 137 137 137 137 137 137 137 137 137 137 137 137
137 137 137 137 137 137 137 137 137 137 137 137 137 137 137 137 137
137 137 137 137 137 137 137 137 137 137 137 137 137 137 137 137 137
137 137 137 137 137 137 137 137 137 137 137 137 137 137 137 137 137
137 137 137 137 137 137 137 137 137 137 137 137 137 137 137 137 137
137 137 137 137 137 137 137 137 137 137 137 137 137 137 137 137 137
137 137 137 137 137 137 137 137 137 137 137 137 137 137 137 137 137
137 137 137 137 137 137 137 137 137 137 137 137 137 137 137 137 137
137 137 137 137 137 137 137 137 137 137 137 137 137 137 137 137 137
137 137 137 137 137 137 137 137 137 137 137 137 137 137 137 137 137
137 137 137 137 137 137 137 137 137 137 137 137 137 137 137 137 137
137 137 137 137 137 137 137
0 0 0 0 0 0 255 255 255 0 0 0 0 0 0 0 0 0 255 255 255 0 0 0 0 0 0 0 0
0 255 255 255 0 0 0 0 0 0 0 0 0 255 255 255 0 0 0 0 0 0 0 0 0 255 255
255 0 0 0 0 0 0 0 0 0 255 255 255 0 0 0 0 0 0 0 0 0 255 255 255 0 0 0
0 0 0 0 0 0 255 255 255 0 0 0 0 0 0 0 0 0 255 255 255 0 0 0 0 0 0 0 0
0 255 255 255 0 0 0 0 0 0 0 0 0 255 255 255 0 0 0 0 0 0 0 0 0 255 255
255 0 0 0 0 0 0 0 0 0 255 255 255 0 0 0 0 0 0 0 0 0 255 255 255 0 0 0
0 0 0 0 0 0 255 255 255 0 0 0 0 0 0 0 0 0 255 255 255 0 0 0 0 0 0 0 0
0 255 255 255 0 0 0 0 0 0 0 0 0 255 255 255 0 0 0 0 0 0 0 0 0 255 255
255 0 0 0 0 0 0 0 0 0 255 255 255 0 0 0 0 0 0 0 0 0 255 255 255 0 0 0
0 0 0 0 0 0 255 255 255 0 0 0 0 0 0 0 0 0 255 255 255 0 0 0 0 0 0 0 0
0 255 255 255 0 0 0 0 0 0 0 0 0 255 255 255 0 0 0 137 137 137 137 137
137 137 137 137 137 137 137 137 137 137 137 137 137 137 137 137 137
137 137 137 137 137 137 137 137 137 137 137 137 137 137 137 137 137
137 137 137 137 137 137 137 137 137 137 137 137 137 137 137 137 137
137 137 137 137 137 137 137 137 137 137 137 137 137 137 137 137 137
137 137 137 137 137 137 137 137 137 137 137 137 137 137 137 137 137
137 137 137 137 137 137 137 137 137 137 137 137 137 137 137 137 137
137 137 137 137 137 137 137 137 137 137 137 137 137 137 137 137 137
137 137 137 137 137 137 137 137 137 137 137 137 137 137 137 137 137
137 137 137 137 137 137 137 137 137 137 137 137 137 137 137 137 137
137 137 137 137 137 137 137 137 137 137 137 137 137 137 137 137 137
137 137 137 137 137 137 137 137 137 137 137 137 137 137 137 137 137
137 137 137 137 137 137 137 137 137 137 137 137 137 137 137 137 137
137 137 137 137 137 137 137 137 137 137 137 137 137 137 137 137 137
137 137 137 137 137 137 137 137 137 137 137 137 137 137 137 137 137
137 137 137 137 137 137 137 137 137 137 137 137 137 137 137 137 137
137 137 137 137 137 137 137 137 137 137 137 137 137 137 137 137 137
137 137 137 137 137 137 137 137 137 137 137 137 137 137 137 137 137
137 137 137 137 137 137
0 0 0 255 255 255 0 0 0 0 0 0 0 0 0 255 255 255 0 0 0 0 0 0 0 0 0 255
255 255 0 0 0 0 0 0 0 0 0 255 255 255 0 0 0 0 0 0 0 0 0 255 255 255 0
0 0 0 0 0 0 0 0 255 255 255 0 0 0 0 0 0 0 0 0 255 255 255 0 0 0 0 0 0
0 0 0 255 255 255 0 0 0 0 0 0 0 0 0 255 255 255 0 0 0 0 0 0 0 0 0 255
255 255 0 0 0 0 0 0 0 0 0 255 255 255 0 0 0 0 0 0 0 0 0 255 255 255 0
0 0 0 0 0 0 0 0 255 255 255 0 0 0 0 0 0 0 0 0 255 255 255 0 0 0 0 0 0
0 0 0 255 255 255 0 0 0 0 0 0 0 0 0 255 255 255 0 0 0 0 0 0 0 0 0 255
255 255 0 0 0 0 0 0 0 0 0 255 255 255 0 0 0 0 0 0 0 0 0 255 255 255 0
0 0 0 0 0 0 0 0 255 255 255 0 0 0 0 0 0 0 0 0 255 255 255 0 0 0 0 0 0
0 0 0 255 255 255 0 0 0 0 0 0 0 0 0 255 255 255 0 0 0 0 0 0 0 0 0 255
255 255 0 0 0 0 0 0 0 0 0 255 255 255 0 0 0 0 0 0 137 137 137 137 137
137 137 137 137 137 137 137 137 137 137 137 137 137 137 137 137 137
137 137 137 137 137 137 137 137 137 137 137 137 137 137 137 137 137
137 137 137 137 137 137 137 137 137 137 137 137 137 137 137 137 137
137 137 137 137 137 137 137 137 137 137 137 137 137 137 137 137 137
137 137 137 137 137 137 137 137 137 137 137 137 137 137 137 137 137
137 137 137 137 137 137 137 137 137 137 137 137 137 137 137 137 137
137 137 137 137 137 137 137 137 137 137 137 137 137 137 137 137 137
137 137 137 137 137 137 137 137 137 137 137 137 137 137 137 137 137
137 137 137 137 137 137 137 137 137 137 137 137 137 137 137 137 137
137 137 137 137 137 137 137 137 137 137 137 137 137 137 137 137 137
137 137 137 137 137 137 137 137 137 137 137 137 137 137 137 137 137
137 137 137 137 137 137 137 137 137 137 137 137 137 137 137 137 137
137 137 137 137 137 137 137 137 137 137 137 137 137 137 137 137 137
137 137 137 137 137 137 137 137 137 137 137 137 137 137 137 137 137
137 137 137 137 137 137 137 137 137 137 137 137 137 137 137 137 137
137 137 137 137 137 137 137 137 137 137 137 137 137 137 137 137 137
137 137 137 137 137 137 137 137 137 137 137 137 137 137 137 137 137
137 137 137 137 137 137
255 255 255 0 0 0 0 0 0 0 0 0 255 255 255 0 0 0 0 0 0 0 0 0 255 255
255 0 0 0 0 0 0 0 0 0 255 255 255 0 0 0 0 0 0 0 0 0 255 255 255 0 0 0
0 0 0 0 0 0 255 255 255 0 0 0 0 0 0 0 0 0 255 255 255 0 0 0 0 0 0 0 0
0 255 255 255 0 0 0 0 0 0 0 0 0 255 255 255 0 0 0 0 0 0 0 0 0 255 255
255 0 0 0 0 0 0 0 0 0 255 255 255 0 0 0 0 0 0 0 0 0 255 255 255 0 0 0
0 0 0 0 0 0 255 255 255 0 0 0 0 0 0 0 0 0 255 255 255 0 0 0 0 0 0 0 0
0 255 255 255 0 0 0 0 0 0 0 0 0 255 255 255 0 0 0 0 0 0 0 0 0 255 255
255 0 0 0 0 0 0 0 0 0 255 255 255 0 0 0 0 0 0 0 0 0 255 255 255 0 0 0
0 0 0 0 0 0 255 255 255 0 0 0 0 0 0 0 0 0 255 255 255 0 0 0 0 0 0 0 0
0 255 255 255 0 0 0 0 0 0 0 0 0 255 255 255 0 0 0 0 0 0 0 0 0 255 255
255 0 0 0 0 0 0 0 0 0 255 255 255 0 0 0 0 0 0 0 0 0 137 137 137 137
137 137 137 137 137 137 137 137 137 137 137 137 137 137 137 137 137
137 137 137 137 137 137 137 137 137 137 137 137 137 137 137 137 137
137 137 137 137 137 137 137 137 137 137 137 137 137 137 137 137 137
137 137 137 137 137 137 137 137 137 137 137 137 137 137 137 137 137
137 137 137 137 137 137 137 137 137 137 137 137 137 137 137 137 137
137 137 137 137 137 137 137 137 137 137 137 137 137 137 137 137 137
137 137 137 137 137 137 137 137 137 137 137 137 137 137 137 137 137
137 137 137 137 137 137 137 137 137 137 137 137 137 137 137 137 137
137 137 137 137 137 137 137 137 137 137 137 137 137 137 137 137 137
137 137 137 137 137 137 137 137 137 137 137 137 137 137 137 137 137
137 137 137 137 137 137 137 137 137 137 137 137 137 137 137 137 137
137 137 137 137 137 137 137 137 137 137 137 137 137 137 137 137 137
137 137 137 137 137 137 137 137 137 137 137 137 137 137 137 137 137
137 137 137 137 137 137 137 137 137 137 137 137 137 137 137 137 137
137 137 137 137 137 137 137 137 137 137 137 137 137 137 137 137 137
137 137 137 137 137 137 137 137 137 137 137 137 137 137 137 137 137
137 137 137 137 137 137 137 137 137 137 137 137 137 137 137 137 137
137 137 137 137 137 137 137
0 0 0 0 0 0 0 0 0 255 255 255 0 0 0 0 0 0 0 0 0 255 255 255 0 0 0 0 0
0 0 0 0 255 255 255 0 0 0 0 0 0 0 0 0 255 255 255 0 0 0 0 0 0 0 0 0
255 255 255 0 0 0 0 0 0 0 0 0 255 255 255 0 0 0 0 0 0 0 0 0 255 255
255 0 0 0 0 0 0 0 0 0 255 255 255 0 0 0 0 0 0 0 0 0 255 255 255 0 0 0
0 0 0 0 0 0 255 255 255 0 0 0 0 0 0 0 0 0 255 255 255 0 0 0 0 0 0 0 0
0 255 255 255 0 0 0 0 0 0 0 0 0 255 255 255 0 0 0 0 0 0 0 0 0 255 255
255 0 0 0 0 0 0 0 0 0 255 255 255 0 0 0 0 0 0 0 0 0 255 255 255 0 0 0
0 0 0 0 0 0 255 255 255 0 0 0 0 0 0 0 0 0 255 255 255 0 0 0 0 0 0 0 0
0 255 255 255 0 0 0 0 0 0 0 0 0 255 255 255 0 0 0 0 0 0 0 0 0 255 255
255 0 0 0 0 0 0 0 0 0 255 255 255 0 0 0 0 0 0 0 0 0 255 255 255 0 0 0
0 0 0 0 0 0 255 255 255 0 0 0 0 0 0 0 0 0 255 255 255 137 137 137 137
137 137 137 137 137 137 137 137 137 137 137 137 137 137 137 137 137
137 137 137 137 137 137 137 137 137 137 137 137 137 137 137 137 137
137 137 137 137 137 137 137 137 137 137 137 137 137 137 137 137 137
137 137 137 137 137 137 137 137 137 137 137 137 137 137 137 137 137
137 137 137 137 137 137 137 137 137 137 137 137 137 137 137 137 137
137 137 137 137 137 137 137 137 137 137 137 137 137 137 137 137 137
137 137 137 137 137 137 137 137 137 137 137 137 137 137 137 137 137
137 137 137 137 137 137 137 137 137 137 137 137 137 137 137 137 137
137 137 137 137 137 137 137 137 137 137 137 137 137 137 137 137 137
137 137 137 137 137 137 137 137 137 137 137 137 137 137 137 137 137
137 137 137 137 137 137 137 137 137 137 137 137 137 137 137 137 137
137 137 137 137 137 137 137 137 137 137 137 137 137 137 137 137 137
137 137 137 137 137 137 137 137 137 137 137 137 137 137 137 137 137
137 137 137 137 137 137 137 137 137 137 137 137 137 137 137 137 137
137 137 137 137 137 137 137 137 137 137 137 137 137 137 137 137 137
137 137 137 137 137 137 137 137 137 137 137 137 137 137 137 137 137
137 137 137 137 137 137 137 137 137 137 137 137 137 137 137 137 137
137 137 137 137 137 137 137
0 0 0 0 0 0 255 255 255 0 0 0 0 0 0 0 0 0 255 255 255 0 0 0 0 0 0 0 0
0 255 255 255 0 0 0 0 0 0 0 0 0 255 255 255 0 0 0 0 0 0 0 0 0 255 255
255 0 0 0 0 0 0 0 0 0 255 255 255 0 0 0 0 0 0 0 0 0 255 255 255 0 0 0
0 0 0 0 0 0 255 255 255 0 0 0 0 0 0 0 0 0 255 255 255 0 0 0 0 0 0 0 0
0 255 255 255 0 0 0 0 0 0 0 0 0 255 255 255 0 0 0 0 0 0 0 0 0 255 255
255 0 0 0 0 0 0 0 0 0 255 255 255 0 0 0 0 0 0 0 0 0 255 255 255 0 0 0
0 0 0 0 0 0 255 255 255 0 0 0 0 0 0 0 0 0 255 255 255 0 0 0 0 0 0 0 0
0 255 255 255 0 0 0 0 0 0 0 0 0 255 255 255 0 0 0 0 0 0 0 0 0 255 255
255 0 0 0 0 0 0 0 0 0 255 255 255 0 0 0 0 0 0 0 0 0 255 255 255 0 0 0
0 0 0 0 0 0 255 255 255 0 0 0 0 0 0 0 0 0 255 255 255 0 0 0 0 0 0 0 0
0 255 255 255 0 0 0 0 0 0 0 0 0 255 255 255 0 0 0 137 137 137 137 137
137 137 137 137 137 137 137 137 137 137 137 137 137 137 137 137 137
137 137 137 137 137 137 137 137 137 137 137 137 137 137 137 137 137
137 137 137 137 137 137 137 137 137 137 137 137 137 137 137 137 137
137 137 137 137 137 137 137 137 137 137 137 137 137 137 137 137 137
137 137 137 137 137 137 137 137 137 137 137 137 137 137 137 137 137
137 137 137 137 137 137 137 137 137 137 137 137 137 137 137 137 137
137 137 137 137 137 137 137 137 137 137 137 137 137 137 137 137 137
137 137 137 137 137 137 137 137 137 137 137 137 137 137 137 137 137
137 137 137 137 137 137 137 137 137 137 137 137 137 137 137 137 137
137 137 137 137 137 137 137 137 137 137 137 137 137 137 137 137 137
137 137 137 137 137 137 137 137 137 137 137 137 137 137 137 137 137
137 137 137 137 137 137 137 137 137 137 137 137 137 137 137 137 137
137 137 137 137 137 137 137 137 137 137 137 137 137 137 137 137 137
137 137 137 137 137 137 137 137 137 137 137 137 137 137 137 137 137
137 137 137 137 137 137 137 137 137 137 137 137 137 137 137 137 137
137 137 137 137 137 137 137 137 137 137 137 137 137 137 137 137 137
137 137 137 137 137 137 137 137 137 137 137 137 137 137 137 137 137
137 137 137 137 137 137
0 0 0 255 255 255 0 0 0 0 0 0 0 0 0 255 255 255 0 0 0 0 0 0 0 0 0 255
255 255 0 0 0 0 0 0 0 0 0 255 255 255 0 0 0 0 0 0 0 0 0 255 255 255 0
0 0 0 0 0 0 0 0 255 255 255 0 0 0 0 0 0 0 0 0 255 255 255 0 0 0 0 0 0
0 0 0 255 255 255 0 0 0 0 0 0 0 0 0 255 255 255 0 0 0 0 0 0 0 0 0 255
255 255 0 0 0 0 0 0 0 0 0 255 255 255 0 0 0 0 0 0 0 0 0 255 255 255 0
0 0 0 0 0 0 0 0 255 255 255 0 0 0 0 0 0 0 0 0 255 255 255 0 0 0 0 0 0
0 0 0 255 255 255 0 0 0 0 0 0 0 0 0 255 255 255 0 0 0 0 0 0 0 0 0 255
255 255 0 0 0 0 0 0 0 0 0 255 255 255 0 0 0 0 0 0 0 0 0 255 255 255 0
0 0 0 0 0 0 0 0 255 255 255 0 0 0 0 0 0 0 0 0 255 255 255 0 0 0 0 0 0
0 0 0 255 255 255 0 0 0 0 0 0 0 0 0 255 255 255 0 0 0 0 0 0 0 0 0 255
255 255 0 0 0 0 0 0 0 0 0 255 255 255 0 0 0 0 0 0 137 137 137 137 137
137 137 137 137 137 137 137 137 137 137 137 137 137 137 137 137 137
137 137 137 137 137 137 137 137 137 137 137 137 137 137 137 137 137
137 137 137 137 137 137 137 137 137 137 137 137 137 137 137 137 137
137 137 137 137 137 137 137 137 137 137 137 137 137 137 137 137 137
137 137 137 137 137 137 137 137 137 137 137 137 137 137 137 137 137
137 137 137 137 137 137 137 137 137 137 137 137 137 137 137 137 137
137 137 137 137 137 137 137 137 137 137 137 137 137 137 137 137 137
137 137 137 137 137 137 137 137 137 137 137 137 137 137 137 137 137
137 137 137 137 137 137 137 137 137 137 137 137 137 137 137 137 137
137 137 137 137 137 137 137 137 137 137 137 137 137 137 137 137 137
137 137 137 137 137 137 137 137 137 137 137 137 137 137 137 137 137
137 137 137 137 137 137 137 137 137 137 137 137 137 137 137 137 137
137 137 137 137 137 137 137 137 137 137 137 137 137 137 137 137 137
137 137 137 137 137 137 137 137 137 137 137 137 137 137 137 137 137
137 137 137 137 137 137 137 137 137 137 137 137 137 137 137 137 137
137 137 137 137 137 137 137 137 137 137 137 137 137 137 137 137 137
137 137 137 137 137 137 137 137 137 137 137 137 137 137 137 137 137
137 137 137 137 137 137
255 255 255 0 0 0 0 0 0 0 0 0 255 255 255 0 0 0 0 0 0 0 0 0 255 255
255 0 0 0 0 0 0 0 0 0 255 255 255 0 0 0 0 0 0 0 0 0 255 255 255 0 0 0
0 0 0 0 0 0 255 255 255 0 0 0 0 0 0 0 0 0 255 255 255 0 0 0 0 0 0 0 0
0 255 255 255 0 0 0 0 0 0 0 0 0 255 255 255 0 0 0 0 0 0 0 0 0 255 255
255 0 0 0 0 0 0 0 0 0 255 255 255 0 0 0 0 0 0 0 0 0 255 255 255 0 0 0
0 0 0 0 0 0 255 255 255 0 0 0 0 0 0 0 0 0 255 255 255 0 0 0 0 0 0 0 0
0 255 255 255 0 0 0 0 0 0 0 0 0 255 255 255 0 0 0 0 0 0 0 0 0 255 255
255 0 0 0 0 0 0 0 0 0 255 255 255 0 0 0 0 0 0 0 0 0 255 255 255 0 0 0
0 0 0 0 0 0 255 255 255 0 0 0 0 0 0 0 0 0 255 255 255 0 0 0 0 0 0 0 0
0 255 255 255 0 0 0 0 0 0 0 0 0 255 255 255 0 0 0 0 0 0 0 0 0 255 255
255 0 0 0 0 0 0 0 0 0 255 255 255 0 0 0 0 0 0 0 0 0 137 137 137 137
137 137 137 137 137 137 137 137 137 137 137 137 137 137 137 137 137
137 137 137 137 137 137 137 137 137 137 137 137 137 137 137 137 137
137 137 137 137 137 137 137 137 137 137 137 137 137 137 137 137 137
137 137 137 137 137 137 137 137 137 137 137 137 137 137 137 137 137
137 137 137 137 137 137 137 137 137 137 137 137 137 137 137 137 137
137 137 137 137 137 137 137 137 137 137 137 137 137 137 137 137 137
137 137 137 137 137 137 137 137 137 137 137 137 137 137 137 137 137
137 137 137 137 137 137 137 137 137 137 137 137 137 137 137 137 137
137 137 137 137 137 137 137 137 137 137 137 137 137 137 137 137 137
137 137 137 137 137 137 137 137 137 137 137 137 137 137 137 137 137
137 137 137 137 137 137 137 137 137 137 137 137 137 137 137 137 137
137 137 137 137 137 137 137 137 137 137 137 137 137 137 137 137 137
137 137 137 137 137 137 137 137 137 137 137 137 137 137 137 137 137
137 137 137 137 137 137 137 137 137 137 137 137 137 137 137 137 137
137 137 137 137 137 137 137 137 137 137 137 137 137 137 137 137 137
137 137 137 137 137 137 137 137 137 137 137 137 137 137 137 137 137
137 137 137 137 137 137 137 137 137 137 137 137 137 137 137 137 137
137 137 137 137 137 137 137
0 0 0 0 0 0 0 0 0 255 255 255 0 0 0 0 0 0 0 0 0 255 255 255 0 0 0 0 0
0 0 0 0 255 255 255 0 0 0 0 0 0 0 0 0 255 255 255 0 0 0 0 0 0 0 0 0
255 255 255 0 0 0 0 0 0 0 0 0 255 255 255 0 0 0 0 0 0 0 0 0 255 255
255 0 0 0 0 0 0 0 0 0 255 255 255 0 0 0 0 0 0 0 0 0 255 255 255 0 0 0
0 0 0 0 0 0 255 255 255 0 0 0 0 0 0 0 0 0 255 255 255 0 0 0 0 0 0 0 0
0 255 255 255 0 0 0 0 0 0 0 0 0 255 255 255 0 0 0 0 0 0 0 0 0 255 255
255 0 0 0 0 0 0 0 0 0 255 255 255 0 0 0 0 0 0 0 0 0 255 255 255 0 0 0
0 0 0 0 0 0 255 255 255 0 0 0 0 0 0 0 0 0 255 255 255 0 0 0 0 0 0 0 0
0 255 255 255 0 0 0 0 0 0 0 0 0 255 255 255 0 0 0 0 0 0 0 0 0 255 255
255 0 0 0 0 0 0 0 0 0 255 255 255 0 0 0 0 0 0 0 0 0 255 255 255 0 0 0
0 0 0 0 0 0 255 255 255 0 0 0 0 0 0 0 0 0 255 255 255 137 137 137 137
137 137 137 137 137 137 137 137 137 137 137 137 137 137 137 137 137
137 137 137 137 137 137 137 137 137 137 137 137 137 137 137 137 137
137 137 137 137 137 137 137 137 137 137 137 137 137 137 137 137 137
137 137 137 137 137 137 137 137 137 137 137 137 137 137 137 137 137
137 137 137 137 137 137 137 137 137 137 137 137 137 137 137 137 137
137 137 137 137 137 137 137 137 137 137 137 137 137 137 137 137 137
137 137 137 137 137 137 137 137 137 137 137 137 137 137 137 137 137
137 137 137 137 137 137 137 137 137 137 137 137 137 137 137 137 137
137 137 137 137 137 137 137 137 137 137 137 137 137 137 137 137 137
137 137 137 137 137 137 137 137 137 137 137 137 137 137 137 137 137
137 137 137 137 137 137 137 137 137 137 137 137 137 137 137 137 137
137 137 137 137 137 137 137 137 137 137 137 137 137 137 137 137 137
137 137 137 137 137 137 137 137 137 137 137 137 137 137 137 137 137
137 137 137 137 137 137 137 137 137 137 137 137 137 137 137 137 137
137 137 137 137 137 137 137 137 137 137 137 137 137 137 137 137 137
137 137 137 137 137 137 137 137 137 137 137 137 137 137 137 137 137
137 137 137 137 137 137 137 137 137 137 137 137 137 137 137 137 137
137 137 137 137 137 137 137
0 0 0 0 0 0 255 255 255 0 0 0 0 0 0 0 0 0 255 255 255 0 0 0 0 0 0 0 0
0 255 255 255 0 0 0 0 0 0 0 0 0 255 255 255 0 0 0 0 0 0 0 0 0 255 255
255 0 0 0 0 0 0 0 0 0 255 255 255 0 0 0 0 0 0 0 0 0 255 255 255 0 0 0
0 0 0 0 0 0 255 255 255 0 0 0 0 0 0 0 0 0 255 255 255 0 0 0 0 0 0 0 0
0 255 255 255 0 0 0 0 0 0 0 0 0 255 255 255 0 0 0 0 0 0 0 0 0 255 255
255 0 0 0 0 0 0 0 0 0 255 255 255 0 0 0 0 0 0 0 0 0 255 255 255 0 0 0
0 0 0 0 0 0 255 255 255 0 0 0 0 0 0 0 0 0 255 255 255 0 0 0 0 0 0 0 0
0 255 255 255 0 0 0 0 0 0 0 0 0 255 255 255 0 0 0 0 0 0 0 0 0 255 255
255 0 0 0 0 0 0 0 0 0 255 255 255 0 0 0 0 0 0 0 0 0 255 255 255 0 0 0
0 0 0 0 0 0 255 255 255 0 0 0 0 0 0 0 0 0 255 255 255 0 0 0 0 0 0 0 0
0 255 255 255 0 0 0 0 0 0 0 0 0 255 255 255 0 0 0 137 137 137 137 137
137 137 137 137 137 137 137 137 137 137 137 137 137 137 137 137 137
137 137 137 137 137 137 137 137 137 137 137 137 137 137 137 137 137
137 137 137 137 137 137 137 137 137 137 137 137 137 137 137 137 137
137 137 137 137 137 137 137 137 137 137 137 137 137 137 137 137 137
137 137 137 137 137 137 137 137 137 137 137 137 137 137 137 137 137
137 137 137 137 137 137 137 137 137 137 137 137 137 137 137 137 137
137 137 137 137 137 137 137 137 137 137 137 137 137 137 137 137 137
137 137 137 137 137 137 137 137 137 137 137 137 137 137 137 137 137
137 137 137 137 137 137 137 137 137 137 137 137 137 137 137 137 137
137 137 137 137 137 137 137 137 137 137 137 137 137 137 137 137 137
137 137 137 137 137 137 137 137 137 137 137 137 137 137 137 137 137
137 137 137 137 137 137 137 137 137 137 137 137 137 137 137 137 137
137 137 137 137 137 137 137 137 137 137 137 137 137 137 137 137 137
137 137 137 137 137 137 137 137 137 137 137 137 137 137 137 137 137
137 137 137 137 137 137 137 137 137 137 137 137 137 137 137 137 137
137 137 137 137 137 137 137 137 137 137 137 137 137 137 137 137 137
137 137 137 137 137 137 137 137 137 137 137 137 137 137 137 137 137
137 137 137 137 137 137
0 0 0 255 255 255 0 0 0 0 0 0 0 0 0 255 255 255 0 0 0 0 0 0 0 0 0 255
255 255 0 0 0 0 0 0 0 0 0 255 255 255 0 0 0 0 0 0 0 0 0 255 255 255 0
0 0 0 0 0 0 0 0 255 255 255 0 0 0 0 0 0 0 0 0 255 255 255 0 0 0 0 0 0
0 0 0 255 255 255 0 0 0 0 0 0 0 0 0 255 255 255 0 0 0 0 0 0 0 0 0 255
255 255 0 0 0 0 0 0 0 0 0 255 255 255 0 0 0 0 0 0 0 0 0 255 255 255 0
0 0 0 0 0 0 0 0 255 255 255 0 0 0 0 0 0 0 0 0 255 255 255 0 0 0 0 0 0
0 0 0 255 255 255 0 0 0 0 0 0 0 0 0 255 255 255 0 0 0 0 0 0 0 0 0 255
255 255 0 0 0 0 0 0 0 0 0 255 255 255 0 0 0 0 0 0 0 0 0 255 255 255 0
0 0 0 0 0 0 0 0 255 255 255 0 0 0 0 0 0 0 0 0 255 255 255 0 0 0 0 0 0
0 0 0 255 255 255 0 0 0 0 0 0 0 0 0 255 255 255 0 0 0 0 0 0 0 0 0 255
255 255 0 0 0 0 0 0 0 0 0 255 255 255 0 0 0 0 0 0 137 137 137 137 137
137 137 137 137 137 137 137 137 137 137 137 137 137 137 137 137 137
137 137 137 137 137 137 137 137 137 137 137 137 137 137 137 137 137
137 137 137 137 137 137 137 137 137 137 137 137 137 137 137 137 137
137 137 137 137 137 137 137 137 137 137 137 137 137 137 137 137 137
137 137 137 137 137 137 137 137 137 137 137 137 137 137 137 137 137
137 137 137 137 137 137 137 137 137 137 137 137 137 137 137 137 137
137 137 137 137 137 137 137 137 137 137 137 137 137 137 137 137 137
137 137 137 137 137 137 137 137 137 137 137 137 137 137 137 137 137
137 137 137 137 137 137 137 137 137 137 137 137 137 137 137 137 137
137 137 137 137 137 137 137 137 137 137 137 137 137 137 137 137 137
137 137 137 137 137 137 137 137 137 137 137 137 137 137 137 137 137
137 137 137 137 137 137 137 137 137 137 137 137 137 137 137 137 137
137 137 137 137 137 137 137 137 137 137 137 137 137 137 137 137 137
137 137 137 137 137 137 137 137 137 137 137 137 137 137 137 137 137
137 137 137 137 137 137 137 137 137 137 137 137 137 137 137 137 137
137 137 137 137 137 137 137 137 137 137 137 137 137 137 137 137 137
137 137 137 137 137 137 137 137 137 137 137 137 137 137 137 137 137
137 137 137 137 137 137
255 255 255 0 0 0 0 0 0 0 0 0 255 255 255 0 0 0 0 0 0 0 0 0 255 255
255 0 0 0 0 0 0 0 0 0 255 255 255 0 0 0 0 0 0 0 0 0 255 255 255 0 0 0
0 0 0 0 0 0 255 255 255 0 0 0 0 0 0 0 0 0 255 255 255 0 0 0 0 0 0 0 0
0 255 255 255 0 0 0 0 0 0 0 0 0 255 255 255 0 0 0 0 0 0 0 0 0 255 255
255 0 0 0 0 0 0 0 0 0 255 255 255 0 0 0 0 0 0 0 0 0 255 255 255 0 0 0
0 0 0 0 0 0 255 255 255 0 0 0 0 0 0 0 0 0 255 255 255 0 0 0 0 0 0 0 0
0 255 255 255 0 0 0 0 0 0 0 0 0 255 255 255 0 0 0 0 0 0 0 0 0 255 255
255 0 0 0 0 0 0 0 0 0 255 255 255 0 0 0 0 0 0 0 0 0 255 255 255 0 0 0
0 0 0 0 0 0 255 255 255 0 0 0 0 0 0 0 0 0 255 255 255 0 0 0 0 0 0 0 0
0 255 255 255 0 0 0 0 0 0 0 0 0 255 255 255 0 0 0 0 0 0 0 0 0 255 255
255 0 0 0 0 0 0 0 0 0 255 255 255 0 0 0 0 0 0 0 0 0 137 137 137 137
137 137 137 137 137 137 137 137 137 137 137 137 137 137 137 137 137
137 137 137 137 137 137 137 137 137 137 137 137 137 137 137 137 137
137 137 137 137 137 137 137 137 137 137 137 137 137 137 137 137 137
137 137 137 137 137 137 137 137 137 137 137 137 137 137 137 137 137
137 137 137 137 137 137 137 137 137 137 137 137 137 137 137 137 137
137 137 137 137 137 137 137 137 137 137 137 137 137 137 137 137 137
137 137 137 137 137 137 137 137 137 137 137 137 137 137 137 137 137
137 137 137 137 137 137 137 137 137 137 137 137 137 137 137 137 137
137 137 137 137 137 137 137 137 137 137 137 137 137 137 137 137 137
137 137 137 137 137 137 137 137 137 137 137 137 137 137 137 137 137
137 137 137 137 137 137 137 137 137 137 137 137 137 137 137 137 137
137 137 137 137 137 137 137 137 137 137 137 137 137 137 137 137 137
137 137 137 137 137 137 137 137 137 137 137 137 137 137 137 137 137
137 137 137 137 137 137 137 137 137 137 137 137 137 137 137 137 137
137 137 137 137 137 137 137 137 137 137 137 137 137 137 137 137 137
137 137 137 137 137 137 137 137 137 137 137 137 137 137 137 137 137
137 137 137 137 137 137 137 137 137 137 137 137 137 137 137 137 137
137 137 137 137 137 137 137
0 0 0 0 0 0 0 0 0 255 255 255 0 0 0 0 0 0 0 0 0 255 255 255 0 0 0 0 0
0 0 0 0 255 255 255 0 0 0 0 0 0 0 0 0 255 255 255 0 0 0 0 0 0 0 0 0
255 255 255 0 0 0 0 0 0 0 0 0 255 255 255 0 0 0 0 0 0 0 0 0 255 255
255 0 0 0 0 0 0 0 0 0 255 255 255 0 0 0 0 0 0 0 0 0 255 255 255 0 0 0
0 0 0 0 0 0 255 255 255 0 0 0 0 0 0 0 0 0 255 255 255 0 0 0 0 0 0 0 0
0 255 255 255 0 0 0 0 0 0 0 0 0 255 255 255 0 0 0 0 0 0 0 0 0 255 255
255 0 0 0 0 0 0 0 0 0 255 255 255 0 0 0 0 0 0 0 0 0 255 255 255 0 0 0
0 0 0 0 0 0 255 255 255 0 0 0 0 0 0 0 0 0 255 255 255 0 0 0 0 0 0 0 0
0 255 255 255 0 0 0 0 0 0 0 0 0 255 255 255 0 0 0 0 0 0 0 0 0 255 255
255 0 0 0 0 0 0 0 0 0 255 255 255 0 0 0 0 0 0 0 0 0 255 255 255 0 0 0
0 0 0 0 0 0 255 255 255 0 0 0 0 0 0 0 0 0 255 255 255 137 137 137 137
137 137 137 137 137 137 137 137 137 137 137 137 137 137 137 137 137
137 137 137 137 137 137 137 137 137 137 137 137 137 137 137 137 137
137 137 137 137 137 137 137 137 137 137 137 137 137 137 137 137 137
137 137 137 137 137 137 137 137 137 137 137 137 137 137 137 137 137
137 137 137 137 137 137 137 137 137 137 137 137 137 137 137 137 137
137 137 137 137 137 137 137 137 137 137 137 137 137 137 137 137 137
137 137 137 137 137 137 137 137 137 137 137 137 137 137 137 137 137
137 137 137 137 137 137 137 137 137 137 137 137 137 137 137 137 137
137 137 137 137 137 137 137 137 137 137 137 137 137 137 137 137 137
137 137 137 137 137 137 137 137 137 137 137 137 137 137 137 137 137
137 137 137 137 137 137 137 137 137 137 137 137 137 137 137 137 137
137 137 137 137 137 137 137 137 137 137 137 137 137 137 137 137 137
137 137 137 137 137 137 137 137 137 137 137 137 137 137 137 137 137
137 137 137 137 137 137 137 137 137 137 137 137 137 137 137 137 137
137 137 137 137 137 137 137 137 137 137 137 137 137 137 137 137 137
137 137 137 137 137 137 137 137 137 137 137 137 137 137 137 137 137
137 137 137 137 137 137 137 137 137 137 137 137 137 137 137 137 137
137 137 137 137 137 137 137
0 0 0 0 0 0 255 255 255 0 0 0 0 0 0 0 0 0 255 255 255 0 0 0 0 0 0 0 0
0 255 255 255 0 0 0 0 0 0 0 0 0 255 255 255 0 0 0 0 0 0 0 0 0 255 255
255 0 0 0 0 0 0 0 0 0 255 255 255 0 0 0 0 0 0 0 0 0 255 255 255 0 0 0
0 0 0 0 0 0 255 255 255 0 0 0 0 0 0 0 0 0 255 255 255 0 0 0 0 0 0 0 0
0 255 255 255 0 0 0 0 0 0 0 0 0 255 255 255 0 0 0 0 0 0 0 0 0 255 255
255 0 0 0 0 0 0 0 0 0 255 255 255 0 0 0 0 0 0 0 0 0 255 255 255 0 0 0
0 0 0 0 0 0 255 255 255 0 0 0 0 0 0 0 0 0 255 255 255 0 0 0 0 0 0 0 0
0 255 255 255 0 0 0 0 0 0 0 0 0 255 255 255 0 0 0 0 0 0 0 0 0 255 255
255 0 0 0 0 0 0 0 0 0 255 255 255 0 0 0 0 0 0 0 0 0 255 255 255 0 0 0
0 0 0 0 0 0 255 255 255 0 0 0 0 0 0 0 0 0 255 255 255 0 0 0 0 0 0 0 0
0 255 255 255 0 0 0 0 0 0 0 0 0 255 255 255 0 0 0 137 137 137 137 137
137 137 137 137 137 137 137 137 137 137 137 137 137 137 137 137 137
137 137 137 137 137 137 137 137 137 137 137 137 137 137 137 137 137
137 137 137 137 137 137 137 137 137 137 137 137 137 137 137 137 137
137 137 137 137 137 137 137 137 137 137 137 137 137 137 137 137 137
137 137 137 137 137 137 137 137 137 137 137 137 137 137 137 137 137
137 137 137 137 137 137 137 137 137 137 137 137 137 137 137 137 137
137 137 137 137 137 137 137 137 137 137 137 137 137 137 137 137 137
137 137 137 137 137 137 137 137 137 137 137 137 137 137 137 137 137
137 137 137 137 137 137 137 137 137 137 137 137 137 137 137 137 137
137 137 137 137 137 137 137 137 137 137 137 137 137 137 137 137 137
137 137 137 137 137 137 137 137 137 137 137 137 137 137 137 137 137
137 137 137 137 137 137 137 137 137 137 137 137 137 137 137 137 137
137 137 137 137 137 137 137 137 137 137 137 137 137 137 137 137 137
137 137 137 137 137 137 137 137 137 137 137 137 137 137 137 137 137
137 137 137 137 137 137 137 137 137 137 137 137 137 137 137 137 137
137 137 137 137 137 137 137 137 137 137 137 137 137 137 137 137 137
137 137 137 137 137 137 137 137 137 137 137 137 137 137 137 137 137
137 137 137 137 137 137
0 0 0 255 255 255 0 0 0 0 0 0 0 0 0 255 255 255 0 0 0 0 0 0 0 0 0 255
255 255 0 0 0 0 0 0 0 0 0 255 255 255 0 0 0 0 0 0 0 0 0 255 255 255 0
0 0 0 0 0 0 0 0 255 255 255 0 0 0 0 0 0 0 0 0 255 255 255 0 0 0 0 0 0
0 0 0 255 255 255 0 0 0 0 0 0 0 0 0 255 255 255 0 0 0 0 0 0 0 0 0 255
255 255 0 0 0 0 0 0 0 0 0 255 255 255 0 0 0 0 0 0 0 0 0 255 255 255 0
0 0 0 0 0 0 0 0 255 255 255 0 0 0 0 0 0 0 0 0 255 255 255 0 0 0 0 0 0
0 0 0 255 255 255 0 0 0 0 0 0 0 0 0 255 255 255 0 0 0 0 0 0 0 0 0 255
255 255 0 0 0 0 0 0 0 0 0 255 255 255 0 0 0 0 0 0 0 0 0 255 255 255 0
0 0 0 0 0 0 0 0 255 255 255 0 0 0 0 0 0 0 0 0 255 255 255 0 0 0 0 0 0
0 0 0 255 255 255 0 0 0 0 0 0 0 0 0 255 255 255 0 0 0 0 0 0 0 0 0 255
255 255 0 0 0 0 0 0 0 0 0 255 255 255 0 0 0 0 0 0 137 137 137 137 137
137 137 137 137 137 137 137 137 137 137 137 137 137 137 137 137 137
137 137 137 137 137 137 137 137 137 137 137 137 137 137 137 137 137
137 137 137 137 137 137 137 137 137 137 137 137 137 137 137 137 137
137 137 137 137 137 137 137 137 137 137 137 137 137 137 137 137 137
137 137 137 137 137 137 137 137 137 137 137 137 137 137 137 137 137
137 137 137 137 137 137 137 137 137 137 137 137 137 137 137 137 137
137 137 137 137 137 137 137 137 137 137 137 137 137 137 137 137 137
137 137 137 137 137 137 137 137 137 137 137 137 137 137 137 137 137
137 137 137 137 137 137 137 137 137 137 137 137 137 137 137 137 137
137 137 137 137 137 137 137 137 137 137 137 137 137 137 137 137 137
137 137 137 137 137 137 137 137 137 137 137 137 137 137 137 137 137
137 137 137 137 137 137 137 137 137 137 137 137 137 137 137 137 137
137 137 137 137 137 137 137 137 137 137 137 137 137 137 137 137 137
137 137 137 137 137 137 137 137 137 137 137 137 137 137 137 137 137
137 137 137 137 137 137 137 137 137 137 137 137 137 137 137 137 137
137 137 137 137 137 137 137 137 137 137 137 137 137 137 137 137 137
137 137 137 137 137 137 137 137 137 137 137 137 137 137 137 137 137
137 137 137 137 137 137
255 255 255 0 0 0 0 0 0 0 0 0 255 255 255 0 0 0 0 0 0 0 0 0 255 255
255 0 0 0 0 0 0 0 0 0 255 255 255 0 0 0 0 0 0 0 0 0 255 255 255 0 0 0
0 0 0 0 0 0 255 255 255 0 0 0 0 0 0 0 0 0 255 255 255 0 0 0 0 0 0 0 0
0 255 255 255 0 0 0 0 0 0 0 0 0 255 255 255 0 0 0 0 0 0 0 0 0 255 255
255 0 0 0 0 0 0 0 0 0 255 255 255 0 0 0 0 0 0 0 0 0 255 255 255 0 0 0
0 0 0 0 0 0 255 255 255 0 0 0 0 0 0 0 0 0 255 255 255 0 0 0 0 0 0 0 0
0 255 255 255 0 0 0 0 0 0 0 0 0 255 255 255 0 0 0 0 0 0 0 0 0 255 255
255 0 0 0 0 0 0 0 0 0 255 255 255 0 0 0 0 0 0 0 0 0 255 255 255 0 0 0
0 0 0 0 0 0 255 255 255 0 0 0 0 0 0 0 0 0 255 255 255 0 0 0 0 0 0 0 0
0 255 255 255 0 0 0 0 0 0 0 0 0 255 255 255 0 0 0 0 0 0 0 0 0 255 255
255 0 0 0 0 0 0 0 0 0 255 255 255 0 0 0 0 0 0 0 0 0 137 137 137 137
137 137 137 137 137 137 137 137 137 137 137 137 137 137 137 137 137
137 137 137 137 137 137 137 137 137 137 137 137 137 137 137 137 137
137 137 137 137 137 137 137 137 137 137 137 137 137 137 137 137 137
137 137 137 137 137 137 137 137 137 137 137 137 137 137 137 137 137
137 137 137 137 137 137 137 137 137 137 137 137 137 137 137 137 137
137 137 137 137 137 137 137 137 137 137 137 137 137 137 137 137 137
137 137 137 137 137 137 137 137 137 137 137 137 137 137 137 137 137
137 137 137 137 137 137 137 137 137 137 137 137 137 137 137 137 137
137 137 137 137 137 137 137 137 137 137 137 137 137 137 137 137 137
137 137 137 137 137 137 137 137 137 137 137 137 137 137 137 137 137
137 137 137 137 137 137 137 137 137 137 137 137 137 137 137 137 137
137 137 137 137 137 137 137 137 137 137 137 137 137 137 137 137 137
137 137 137 137 137 137 137 137 137 137 137 137 137 137 137 137 137
137 137 137 137 137 137 137 137 137 137 137 137 137 137 137 137 137
137 137 137 137 137 137 137 137 137 137 137 137 137 137 137 137 137
137 137 137 137 137 137 137 137 137 137 137 137 137 137 137 137 137
137 137 137 137 137 137 137 137 137 137 137 137 137 137 137 137 137
137 137 137 137 137 137 137
0 0 0 0 0 0 0 0 0 255 255 255 0 0 0 0 0 0 0 0 0 255 255 255 0 0 0 0 0
0 0 0 0 255 255 255 0 0 0 0 0 0 0 0 0 255 255 255 0 0 0 0 0 0 0 0 0
255 255 255 0 0 0 0 0 0 0 0 0 255 255 255 0 0 0 0 0 0 0 0 0 255 255
255 0 0 0 0 0 0 0 0 0 255 255 255 0 0 0 0 0 0 0 0 0 255 255 255 0 0 0
0 0 0 0 0 0 255 255 255 0 0 0 0 0 0 0 0 0 255 255 255 0 0 0 0 0 0 0 0
0 255 255 255 0 0 0 0 0 0 0 0 0 255 255 255 0 0 0 0 0 0 0 0 0 255 255
255 0 0 0 0 0 0 0 0 0 255 255 255 0 0 0 0 0 0 0 0 0 255 255 255 0 0 0
0 0 0 0 0 0 255 255 255 0 0 0 0 0 0 0 0 0 255 255 255 0 0 0 0 0 0 0 0
0 255 255 255 0 0 0 0 0 0 0 0 0 255 255 255 0 0 0 0 0 0 0 0 0 255 255
255 0 0 0 0 0 0 0 0 0 255 255 255 0 0 0 0 0 0 0 0 0 255 255 255 0 0 0
0 0 0 0 0 0 255 255 255 0 0 0 0 0 0 0 0 0 255 255 255 137 137 137 137
137 137 137 137 137 137 137 137 137 137 137 137 137 137 137 137 137
137 137 137 137 137 137 137 137 137 137 137 137 137 137 137 137 137
137 137 137 137 137 137 137 137 137 137 137 137 137 137 137 137 137
137 137 137 137 137 137 137 137 137 137 137 137 137 137 137 137 137
137 137 137 137 137 137 137 137 137 137 137 137 137 137 137 137 137
137 137 137 137 137 137 137 137 137 137 137 137 137 137 137 137 137
137 137 137 137 137 137 137 137 137 137 137 137 137 137 137 137 137
137 137 137 137 137 137 137 137 137 137 137 137 137 137 137 137 137
137 137 137 137 137 137 137 137 137 137 137 137 137 137 137 137 137
137 137 137 137 137 137 137 137 137 137 137 137 137 137 137 137 137
137 137 137 137 137 137 137 137 137 137 137 137 137 137 137 137 137
137 137 137 137 137 137 137 137 137 137 137 137 137 137 137 137 137
137 137 137 137 137 137 137 137 137 137 137 137 137 137 137 137 137
137 137 137 137 137 137 137 137 137 137 137 137 137 137 137 137 137
137 137 137 137 137 137 137 137 137 137 137 137 137 137 137 137 137
137 137 137 137 137 137 137 137 137 137 137 137 137 137 137 137 137
137 137 137 137 137 137 137 137 137 137 137 137 137 137 137 137 137
137 137 137 137 137 137 137
0 0 0 0 0 0 255 255 255 0 0 0 0 0 0 0 0 0 255 255 255 0 0 0 0 0 0 0 0
0 255 255 255 0 0 0 0 0 0 0 0 0 255 255 255 0 0 0 0 0 0 0 0 0 255 255
255 0 0 0 0 0 0 0 0 0 255 255 255 0 0 0 0 0 0 0 0 0 255 255 255 0 0 0
0 0 0 0 0 0 255 255 255 0 0 0 0 0 0 0 0 0 255 255 255 0 0 0 0 0 0 0 0
0 255 255 255 0 0 0 0 0 0 0 0 0 255 255 255 0 0 0 0 0 0 0 0 0 255 255
255 0 0 0 0 0 0 0 0 0 255 255 255 0 0 0 0 0 0 0 0 0 255 255 255 0 0 0
0 0 0 0 0 0 255 255 255 0 0 0 0 0 0 0 0 0 255 255 255 0 0 0 0 0 0 0 0
0 255 255 255 0 0 0 0 0 0 0 0 0 255 255 255 0 0 0 0 0 0 0 0 0 255 255
255 0 0 0 0 0 0 0 0 0 255 255 255 0 0 0 0 0 0 0 0 0 255 255 255 0 0 0
0 0 0 0 0 0 255 255 255 0 0 0 0 0 0 0 0 0 255 255 255 0 0 0 0 0 0 0 0
0 255 255 255 0 0 0 0 0 0 0 0 0 255 255 255 0 0 0 137 137 137 137 137
137 137 137 137 137 137 137 137 137 137 137 137 137 137 137 137 137
137 137 137 137 137 137 137 137 137 137 137 137 137 137 137 137 137
137 137 137 137 137 137 137 137 137 137 137 137 137 137 137 137 137
137 137 137 137 137 137 137 137 137 137 137 137 137 137 137 137 137
137 137 137 137 137 137 137 137 137 137 137 137 137 137 137 137 137
137 137 137 137 137 137 137 137 137 137 137 137 137 137 137 137 137
137 137 137 137 137 137 137 137 137 137 137 137 137 137 137 137 137
137 137 137 137 137 137 137 137 137 137 137 137 137 137 137 137 137
137 137 137 137 137 137 137 137 137 137 137 137 137 137 137 137 137
137 137 137 137 137 137 137 137 137 137 137 137 137 137 137 137 137
137 137 137 137 137 137 137 137 137 137 137 137 137 137 137 137 137
137 137 137 137 137 137 137 137 137 137 137 137 137 137 137 137 137
137 137 137 137 137 137 137 137 137 137 137 137 137 137 137 137 137
137 137 137 137 137 137 137 137 137 137 137 137 137 137 137 137 137
137 137 137 137 137 137 137 137 137 137 137 137 137 137 137 137 137
137 137 137 137 137 137 137 137 137 137 137 137 137 137 137 137 137
137 137 137 137 137 137 137 137 137 137 137 137 137 137 137 137 137
137 137 137 137 137 137
0 0 0 255 255 255 0 0 0 0 0 0 0 0 0 255 255 255 0 0 0 0 0 0 0 0 0 255
255 255 0 0 0 0 0 0 0 0 0 255 255 255 0 0 0 0 0 0 0 0 0 255 255 255 0
0 0 0 0 0 0 0 0 255 255 255 0 0 0 0 0 0 0 0 0 255 255 255 0 0 0 0 0 0
0 0 0 255 255 255 0 0 0 0 0 0 0 0 0 255 255 255 0 0 0 0 0 0 0 0 0 255
255 255 0 0 0 0 0 0 0 0 0 255 255 255 0 0 0 0 0 0 0 0 0 255 255 255 0
0 0 0 0 0 0 0 0 255 255 255 0 0 0 0 0 0 0 0 0 255 255 255 0 0 0 0 0 0
0 0 0 255 255 255 0 0 0 0 0 0 0 0 0 255 255 255 0 0 0 0 0 0 0 0 0 255
255 255 0 0 0 0 0 0 0 0 0 255 255 255 0 0 0 0 0 0 0 0 0 255 255 255 0
0 0 0 0 0 0 0 0 255 255 255 0 0 0 0 0 0 0 0 0 255 255 255 0 0 0 0 0 0
0 0 0 255 255 255 0 0 0 0 0 0 0 0 0 255 255 255 0 0 0 0 0 0 0 0 0 255
255 255 0 0 0 0 0 0 0 0 0 255 255 255 0 0 0 0 0 0 137 137 137 137 137
137 137 137 137 137 137 137 137 137 137 137 137 137 137 137 137 137
137 137 137 137 137 137 137 137 137 137 137 137 137 137 137 137 137
137 137 137 137 137 137 137 137 137 137 137 137 137 137 137 137 137
137 137 137 137 137 137 137 137 137 137 137 137 137 137 137 137 137
137 137 137 137 137 137 137 137 137 137 137 137 137 137 137 137 137
137 137 137 137 137 137 137 137 137 137 137 137 137 137 137 137 137
137 137 137 137 137 137 137 137 137 137 137 137 137 137 137 137 137
137 137 137 137 137 137 137 137 137 137 137 137 137 137 137 137 137
137 137 137 137 137 137 137 137 137 137 137 137 137 137 137 137 137
137 137 137 137 137 137 137 137 137 137 137 137 137 137 137 137 137
137 137 137 137 137 137 137 137 137 137 137 137 137 137 137 137 137
137 137 137 137 137 137 137 137 137 137 137 137 137 137 137 137 137
137 137 137 137 137 137 137 137 137 137 137 137 137 137 137 137 137
137 137 137 137 137 137 137 137 137 137 137 137 137 137 137 137 137
137 137 137 137 137 137 137 137 137 137 137 137 137 137 137 137 137
137 137 137 137 137 137 137 137 137 137 137 137 137 137 137 137 137
137 137 137 137 137 137 137 137 137 137 137 137 137 137 137 137 137
137 137 137 137 137 137
255 255 255 0 0 0 0 0 0 0 0 0 255 255 255 0 0 0 0 0 0 0 0 0 255 255
255 0 0 0 0 0 0 0 0 0 255 255 255 0 0 0 0 0 0 0 0 0 255 255 255 0 0 0
0 0 0 0 0 0 255 255 255 0 0 0 0 0 0 0 0 0 255 255 255 0 0 0 0 0 0 0 0
0 255 255 255 0 0 0 0 0 0 0 0 0 255 255 255 0 0 0 0 0 0 0 0 0 255 255
255 0 0 0 0 0 0 0 0 0 255 255 255 0 0 0 0 0 0 0 0 0 255 255 255 0 0 0
0 0 0 0 0 0 255 255 255 0 0 0 0 0 0 0 0 0 255 255 255 0 0 0 0 0 0 0 0
0 255 255 255 0 0 0 0 0 0 0 0 0 255 255 255 0 0 0 0 0 0 0 0 0 255 255
255 0 0 0 0 0 0 0 0 0 255 255 255 0 0 0 0 0 0 0 0 0 255 255 255 0 0 0
0 0 0 0 0 0 255 255 255 0 0 0 0 0 0 0 0 0 255 255 255 0 0 0 0 0 0 0 0
0 255 255 255 0 0 0 0 0 0 0 0 0 255 255 255 0 0 0 0 0 0 0 0 0 255 255
255 0 0 0 0 0 0 0 0 0 255 255 255 0 0 0 0 0 0 0 0 0 137 137 137 137
137 137 137 137 137 137 137 137 137 137 137 137 137 137 137 137 137
137 137 137 137 137 137 137 137 137 137 137 137 137 137 137 137 137
137 137 137 137 137 137 137 137 137 137 137 137 137 137 137 137 137
137 137 137 137 137 137 137 137 137 137 137 137 137 137 137 137 137
137 137 137 137 137 137 137 137 137 137 137 137 137 137 137 137 137
137 137 137 137 137 137 137 137 137 137 137 137 137 137 137 137 137
137 137 137 137 137 137 137 137 137 137 137 137 137 137 137 137 137
137 137 137 137 137 137 137 137 137 137 137 137 137 137 137 137 137
137 137 137 137 137 137 137 137 137 137 137 137 137 137 137 137 137
137 137 137 137 137 137 137 137 137 137 137 137 137 137 137 137 137
137 137 137 137 137 137 137 137 137 137 137 137 137 137 137 137 137
137 137 137 137 137 137 137 137 137 137 137 137 137 137 137 137 137
137 137 137 137 137 137 137 137 137 137 137 137 137 137 137 137 137
137 137 137 137 137 137 137 137 137 137 137 137 137 137 137 137 137
137 137 137 137 137 137 137 137 137 137 137 137 137 137 137 137 137
137 137 137 137 137 137 137 137 137 137 137 137 137 137 137 137 137
137 137 137 137 137 137 137 137 137 137 137 137 137 137 137 137 137
137 137 137 137 137 137 137
0 0 0 0 0 0 0 0 0 255 255 255 0 0 0 0 0 0 0 0 0 255 255 255 0 0 0 0 0
0 0 0 0 255 255 255 0 0 0 0 0 0 0 0 0 255 255 255 0 0 0 0 0 0 0 0 0
255 255 255 0 0 0 0 0 0 0 0 0 255 255 255 0 0 0 0 0 0 0 0 0 255 255
255 0 0 0 0 0 0 0 0 0 255 255 255 0 0 0 0 0 0 0 0 0 255 255 255 0 0 0
0 0 0 0 0 0 255 255 255 0 0 0 0 0 0 0 0 0 255 255 255 0 0 0 0 0 0 0 0
0 255 255 255 0 0 0 0 0 0 0 0 0 255 255 255 0 0 0 0 0 0 0 0 0 255 255
255 0 0 0 0 0 0 0 0 0 255 255 255 0 0 0 0 0 0 0 0 0 255 255 255 0 0 0
0 0 0 0 0 0 255 255 255 0 0 0 0 0 0 0 0 0 255 255 255 0 0 0 0 0 0 0 0
0 255 255 255 0 0 0 0 0 0 0 0 0 255 255 255 0 0 0 0 0 0 0 0 0 255 255
255 0 0 0 0 0 0 0 0 0 255 255 255 0 0 0 0 0 0 0 0 0 255 255 255 0 0 0
0 0 0 0 0 0 255 255 255 0 0 0 0 0 0 0 0 0 255 255 255 137 137 137 137
137 137 137 137 137 137 137 137 137 137 137 137 137 137 137 137 137
137 137 137 137 137 137 137 137 137 137 137 137 137 137 137 137 137
137 137 137 137 137 137 137 137 137 137 137 137 137 137 137 137 137
137 137 137 137 137 137 137 137 137 137 137 137 137 137 137 137 137
137 137 137 137 137 137 137 137 137 137 137 137 137 137 137 137 137
137 137 137 137 137 137 137 137 137 137 137 137 137 137 137 137 137
137 137 137 137 137 137 137 137 137 137 137 137 137 137 137 137 137
137 137 137 137 137 137 137 137 137 137 137 137 137 137 137 137 137
137 137 137 137 137 137 137 137 137 137 137 137 137 137 137 137 137
137 137 137 137 137 137 137 137 137 137 137 137 137 137 137 137 137
137 137 137 137 137 137 137 137 137 137 137 137 137 137 137 137 137
137 137 137 137 137 137 137 137 137 137 137 137 137 137 137 137 137
137 137 137 137 137 137 137 137 137 137 137 137 137 137 137 137 137
137 137 137 137 137 137 137 137 137 137 137 137 137 137 137 137 137
137 137 137 137 137 137 137 137 137 137 137 137 137 137 137 137 137
137 137 137 137 137 137 137 137 137 137 137 137 137 137 137 137 137
137 137 137 137 137 137 137 137 137 137 137 137 137 137 137 137 137
137 137 137 137 137 137 137
0 0 0 0 0 0 255 255 255 0 0 0 0 0 0 0 0 0 255 255 255 0 0 0 0 0 0 0 0
0 255 255 255 0 0 0 0 0 0 0 0 0 255 255 255 0 0 0 0 0 0 0 0 0 255 255
255 0 0 0 0 0 0 0 0 0 255 255 255 0 0 0 0 0 0 0 0 0 255 255 255 0 0 0
0 0 0 0 0 0 255 255 255 0 0 0 0 0 0 0 0 0 255 255 255 0 0 0 0 0 0 0 0
0 255 255 255 0 0 0 0 0 0 0 0 0 255 255 255 0 0 0 0 0 0 0 0 0 255 255
255 0 0 0 0 0 0 0 0 0 255 255 255 0 0 0 0 0 0 0 0 0 255 255 255 0 0 0
0 0 0 0 0 0 255 255 255 0 0 0 0 0 0 0 0 0 255 255 255 0 0 0 0 0 0 0 0
0 255 255 255 0 0 0 0 0 0 0 0 0 255 255 255 0 0 0 0 0 0 0 0 0 255 255
255 0 0 0 0 0 0 0 0 0 255 255 255 0 0 0 0 0 0 0 0 0 255 255 255 0 0 0
0 0 0 0 0 0 255 255 255 0 0 0 0 0 0 0 0 0 255 255 255 0 0 0 0 0 0 0 0
0 255 255 255 0 0 0 0 0 0 0 0 0 255 255 255 0 0 0 137 137 137 137 137
137 137 137 137 137 137 137 137 137 137 137 137 137 137 137 137 137
137 137 137 137 137 137 137 137 137 137 137 137 137 137 137 137 137
137 137 137 137 137 137 137 137 137 137 137 137 137 137 137 137 137
137 137 137 137 137 137 137 137 137 137 137 137 137 137 137 137 137
137 137 137 137 137 137 137 137 137 137 137 137 137 137 137 137 137
137 137 137 137 137 137 137 137 137 137 137 137 137 137 137 137 137
137 137 137 137 137 137 137 137 137 137 137 137 137 137 137 137 137
137 137 137 137 137 137 137 137 137 137 137 137 137 137 137 137 137
137 137 137 137 137 137 137 137 137 137 137 137 137 137 137 137 137
137 137 137 137 137 137 137 137 137 137 137 137 137 137 137 137 137
137 137 137 137 137 137 137 137 137 137 137 137 137 137 137 137 137
137 137 137 137 137 137 137 137 137 137 137 137 137 137 137 137 137
137 137 137 137 137 137 137 137 137 137 137 137 137 137 137 137 137
137 137 137 137 137 137 137 137 137 137 137 137 137 137 137 137 137
137 137 137 137 137 137 137 137 137 137 137 137 137 137 137 137 137
137 137 137 137 137 137 137 137 137 137 137 137 137 137 137 137 137
137 137 137 137 137 137 137 137 137 137 137 137 137 137 137 137 137
137 137 137 137 137 137
0 0 0 255 255 255 0 0 0 0 0 0 0 0 0 255 255 255 0 0 0 0 0 0 0 0 0 255
255 255 0 0 0 0 0 0 0 0 0 255 255 255 0 0 0 0 0 0 0 0 0 255 255 255 0
0 0 0 0 0 0 0 0 255 255 255 0 0 0 0 0 0 0 0 0 255 255 255 0 0 0 0 0 0
0 0 0 255 255 255 0 0 0 0 0 0 0 0 0 255 255 255 0 0 0 0 0 0 0 0 0 255
255 255 0 0 0 0 0 0 0 0 0 255 255 255 0 0 0 0 0 0 0 0 0 255 255 255 0
0 0 0 0 0 0 0 0 255 255 255 0 0 0 0 0 0 0 0 0 255 255 255 0 0 0 0 0 0
0 0 0 255 255 255 0 0 0 0 0 0 0 0 0 255 255 255 0 0 0 0 0 0 0 0 0 255
255 255 0 0 0 0 0 0 0 0 0 255 255 255 0 0 0 0 0 0 0 0 0 255 255 255 0
0 0 0 0 0 0 0 0 255 255 255 0 0 0 0 0 0 0 0 0 255 255 255 0 0 0 0 0 0
0 0 0 255 255 255 0 0 0 0 0 0 0 0 0 255 255 255 0 0 0 0 0 0 0 0 0 255
255 255 0 0 0 0 0 0 0 0 0 255 255 255 0 0 0 0 0 0 137 137 137 137 137
137 137 137 137 137 137 137 137 137 137 137 137 137 137 137 137 137
137 137 137 137 137 137 137 137 137 137 137 137 137 137 137 137 137
137 137 137 137 137 137 137 137 137 137 137 137 137 137 137 137 137
137 137 137 137 137 137 137 137 137 137 137 137 137 137 137 137 137
137 137 137 137 137 137 137 137 137 137 137 137 137 137 137 137 137
137 137 137 137 137 137 137 137 137 137 137 137 137 137 137 137 137
137 137 137 137 137 137 137 137 137 137 137 137 137 137 137 137 137
137 137 137 137 137 137 137 137 137 137 137 137 137 137 137 137 137
137 137 137 137 137 137 137 137 137 137 137 137 137 137 137 137 137
137 137 137 137 137 137 137 137 137 137 137 137 137 137 137 137 137
137 137 137 137 137 137 137 137 137 137 137 137 137 137 137 137 137
137 137 137 137 137 137 137 137 137 137 137 137 137 137 137 137 137
137 137 137 137 137 137 137 137 137 137 137 137 137 137 137 137 137
137 137 137 137 137 137 137 137 137 137 137 137 137 137 137 137 137
137 137 137 137 137 137 137 137 137 137 137 137 137 137 137 137 137
137 137 137 137 137 137 137 137 137 137 137 137 137 137 137 137 137
137 137 137 137 137 137 137 137 137 137 137 137 137 137 137 137 137
137 137 137 137 137 137
255 255 255 0 0 0 0 0 0 0 0 0 255 255 255 0 0 0 0 0 0 0 0 0 255 255
255 0 0 0 0 0 0 0 0 0 255 255 255 0 0 0 0 0 0 0 0 0 255 255 255 0 0 0
0 0 0 0 0 0 255 255 255 0 0 0 0 0 0 0 0 0 255 255 255 0 0 0 0 0 0 0 0
0 255 255 255 0 0 0 0 0 0 0 0 0 255 255 255 0 0 0 0 0 0 0 0 0 255 255
255 0 0 0 0 0 0 0 0 0 255 255 255 0 0 0 0 0 0 0 0 0 255 255 255 0 0 0
0 0 0 0 0 0 255 255 255 0 0 0 0 0 0 0 0 0 255 255 255 0 0 0 0 0 0 0 0
0 255 255 255 0 0 0 0 0 0 0 0 0 255 255 255 0 0 0 0 0 0 0 0 0 255 255
255 0 0 0 0 0 0 0 0 0 255 255 255 0 0 0 0 0 0 0 0 0 255 255 255 0 0 0
0 0 0 0 0 0 255 255 255 0 0 0 0 0 0 0 0 0 255 255 255 0 0 0 0 0 0 0 0
0 255 255 255 0 0 0 0 0 0 0 0 0 255 255 255 0 0 0 0 0 0 0 0 0 255 255
255 0 0 0 0 0 0 0 0 0 255 255 255 0 0 0 0 0 0 0 0 0 137 137 137 137
137 137 137 137 137 137 137 137 137 137 137 137 137 137 137 137 137
137 137 137 137 137 137 137 137 137 137 137 137 137 137 137 137 137
137 137 137 137 137 137 137 137 137 137 137 137 137 137 137 137 137
137 137 137 137 137 137 137 137 137 137 137 137 137 137 137 137 137
137 137 137 137 137 137 137 137 137 137 137 137 137 137 137 137 137
137 137 137 137 137 137 137 137 137 137 137 137 137 137 137 137 137
137 137 137 137 137 137 137 137 137 137 137 137 137 137 137 137 137
137 137 137 137 137 137 137 137 137 137 137 137 137 137 137 137 137
137 137 137 137 137 137 137 137 137 137 137 137 137 137 137 137 137
137 137 137 137 137 137 137 137 137 137 137 137 137 137 137 137 137
137 137 137 137 137 137 137 137 137 137 137 137 137 137 137 137 137
137 137 137 137 137 137 137 137 137 137 137 137 137 137 137 137 137
137 137 137 137 137 137 137 137 137 137 137 137 137 137 137 137 137
137 137 137 137 137 137 137 137 137 137 137 137 137 137 137 137 137
137 137 137 137 137 137 137 137 137 137 137 137 137 137 137 137 137
137 137 137 137 137 137 137 137 137 137 137 137 137 137 137 137 137
137 137 137 137 137 137 137 137 137 137 137 137 137 137 137 137 137
137 137 137 137 137 137 137
0 0 0 0 0 0 0 0 0 255 255 255 0 0 0 0 0 0 0 0 0 255 255 255 0 0 0 0 0
0 0 0 0 255 255 255 0 0 0 0 0 0 0 0 0 255 255 255 0 0 0 0 0 0 0 0 0
255 255 255 0 0 0 0 0 0 0 0 0 255 255 255 0 0 0 0 0 0 0 0 0 255 255
255 0 0 0 0 0 0 0 0 0 255 255 255 0 0 0 0 0 0 0 0 0 255 255 255 0 0 0
0 0 0 0 0 0 255 255 255 0 0 0 0 0 0 0 0 0 255 255 255 0 0 0 0 0 0 0 0
0 255 255 255 0 0 0 0 0 0 0 0 0 255 255 255 0 0 0 0 0 0 0 0 0 255 255
255 0 0 0 0 0 0 0 0 0 255 255 255 0 0 0 0 0 0 0 0 0 255 255 255 0 0 0
0 0 0 0 0 0 255 255 255 0 0 0 0 0 0 0 0 0 255 255 255 0 0 0 0 0 0 0 0
0 255 255 255 0 0 0 0 0 0 0 0 0 255 255 255 0 0 0 0 0 0 0 0 0 255 255
255 0 0 0 0 0 0 0 0 0 255 255 255 0 0 0 0 0 0 0 0 0 255 255 255 0 0 0
0 0 0 0 0 0 255 255 255 0 0 0 0 0 0 0 0 0 255 255 255 137 137 137 137
137 137 137 137 137 137 137 137 137 137 137 137 137 137 137 137 137
137 137 137 137 137 137 137 137 137 137 137 137 137 137 137 137 137
137 137 137 137 137 137 137 137 137 137 137 137 137 137 137 137 137
137 137 137 137 137 137 137 137 137 137 137 137 137 137 137 137 137
137 137 137 137 137 137 137 137 137 137 137 137 137 137 137 137 137
137 137 137 137 137 137 137 137 137 137 137 137 137 137 137 137 137
137 137 137 137 137 137 137 137 137 137 137 137 137 137 137 137 137
137 137 137 137 137 137 137 137 137 137 137 137 137 137 137 137 137
137 137 137 137 137 137 137 137 137 137 137 137 137 137 137 137 137
137 137 137 137 137 137 137 137 137 137 137 137 137 137 137 137 137
137 137 137 137 137 137 137 137 137 137 137 137 137 137 137 137 137
137 137 137 137 137 137 137 137 137 137 137 137 137 137 137 137 137
137 137 137 137 137 137 137 137 137 137 137 137 137 137 137 137 137
137 137 137 137 137 137 137 137 137 137 137 137 137 137 137 137 137
137 137 137 137 137 137 137 137 137 137 137 137 137 137 137 137 137
137 137 137 137 137 137 137 137 137 137 137 137 137 137 137 137 137
137 137 137 137 137 137 137 137 137 137 137 137 137 137 137 137 137
137 137 137 137 137 137 137
0 0 0 0 0 0 255 255 255 0 0 0 0 0 0 0 0 0 255 255 255 0 0 0 0 0 0 0 0
0 255 255 255 0 0 0 0 0 0 0 0 0 255 255 255 0 0 0 0 0 0 0 0 0 255 255
255 0 0 0 0 0 0 0 0 0 255 255 255 0 0 0 0 0 0 0 0 0 255 255 255 0 0 0
0 0 0 0 0 0 255 255 255 0 0 0 0 0 0 0 0 0 255 255 255 0 0 0 0 0 0 0 0
0 255 255 255 0 0 0 0 0 0 0 0 0 255 255 255 0 0 0 0 0 0 0 0 0 255 255
255 0 0 0 0 0 0 0 0 0 255 255 255 0 0 0 0 0 0 0 0 0 255 255 255 0 0 0
0 0 0 0 0 0 255 255 255 0 0 0 0 0 0 0 0 0 255 255 255 0 0 0 0 0 0 0 0
0 255 255 255 0 0 0 0 0 0 0 0 0 255 255 255 0 0 0 0 0 0 0 0 0 255 255
255 0 0 0 0 0 0 0 0 0 255 255 255 0 0 0 0 0 0 0 0 0 255 255 255 0 0 0
0 0 0 0 0 0 255 255 255 0 0 0 0 0 0 0 0 0 255 255 255 0 0 0 0 0 0 0 0
0 255 255 255 0 0 0 0 0 0 0 0 0 255 255 255 0 0 0 137 137 137 137 137
137 137 137 137 137 137 137 137 137 137 137 137 137 137 137 137 137
137 137 137 137 137 137 137 137 137 137 137 137 137 137 137 137 137
137 137 137 137 137 137 137 137 137 137 137 137 137 137 137 137 137
137 137 137 137 137 137 137 137 137 137 137 137 137 137 137 137 137
137 137 137 137 137 137 137 137 137 137 137 137 137 137 137 137 137
137 137 137 137 137 137 137 137 137 137 137 137 137 137 137 137 137
137 137 137 137 137 137 137 137 137 137 137 137 137 137 137 137 137
137 137 137 137 137 137 137 137 137 137 137 137 137 137 137 137 137
137 137 137 137 137 137 137 137 137 137 137 137 137 137 137 137 137
137 137 137 137 137 137 137 137 137 137 137 137 137 137 137 137 137
137 137 137 137 137 137 137 137 137 137 137 137 137 137 137 137 137
137 137 137 137 137 137 137 137 137 137 137 137 137 137 137 137 137
137 137 137 137 137 137 137 137 137 137 137 137 137 137 137 137 137
137 137 137 137 137 137 137 137 137 137 137 137 137 137 137 137 137
137 137 137 137 137 137 137 137 137 137 137 137 137 137 137 137 137
137 137 137 137 137 137 137 137 137 137 137 137 137 137 137 137 137
137 137 137 137 137 137 137 137 137 137 137 137 137 137 137 137 137
137 137 137 137 137 137
0 0 0 255 255 255 0 0 0 0 0 0 0 0 0 255 255 255 0 0 0 0 0 0 0 0 0 255
255 255 0 0 0 0 0 0 0 0 0 255 255 255 0 0 0 0 0 0 0 0 0 255 255 255 0
0 0 0 0 0 0 0 0 255 255 255 0 0 0 0 0 0 0 0 0 255 255 255 0 0 0 0 0 0
0 0 0 255 255 255 0 0 0 0 0 0 0 0 0 255 255 255 0 0 0 0 0 0 0 0 0 255
255 255 0 0 0 0 0 0 0 0 0 255 255 255 0 0 0 0 0 0 0 0 0 255 255 255 0
0 0 0 0 0 0 0 0 255 255 255 0 0 0 0 0 0 0 0 0 255 255 255 0 0 0 0 0 0
0 0 0 255 255 255 0 0 0 0 0 0 0 0 0 255 255 255 0 0 0 0 0 0 0 0 0 255
255 255 0 0 0 0 0 0 0 0 0 255 255 255 0 0 0 0 0 0 0 0 0 255 255 255 0
0 0 0 0 0 0 0 0 255 255 255 0 0 0 0 0 0 0 0 0 255 255 255 0 0 0 0 0 0
0 0 0 255 255 255 0 0 0 0 0 0 0 0 0 255 255 255 0 0 0 0 0 0 0 0 0 255
255 255 0 0 0 0 0 0 0 0 0 255 255 255 0 0 0 0 0 0 137 137 137 137 137
137 137 137 137 137 137 137 137 137 137 137 137 137 137 137 137 137
137 137 137 137 137 137 137 137 137 137 137 137 137 137 137 137 137
137 137 137 137 137 137 137 137 137 137 137 137 137 137 137 137 137
137 137 137 137 137 137 137 137 137 137 137 137 137 137 137 137 137
137 137 137 137 137 137 137 137 137 137 137 137 137 137 137 137 137
137 137 137 137 137 137 137 137 137 137 137 137 137 137 137 137 137
137 137 137 137 137 137 137 137 137 137 137 137 137 137 137 137 137
137 137 137 137 137 137 137 137 137 137 137 137 137 137 137 137 137
137 137 137 137 137 137 137 137 137 137 137 137 137 137 137 137 137
137 137 137 137 137 137 137 137 137 137 137 137 137 137 137 137 137
137 137 137 137 137 137 137 137 137 137 137 137 137 137 137 137 137
137 137 137 137 137 137 137 137 137 137 137 137 137 137 137 137 137
137 137 137 137 137 137 137 137 137 137 137 137 137 137 137 137 137
137 137 137 137 137 137 137 137 137 137 137 137 137 137 137 137 137
137 137 137 137 137 137 137 137 137 137 137 137 137 137 137 137 137
137 137 137 137 137 137 137 137 137 137 137 137 137 137 137 137 137
137 137 137 137 137 137 137 137 137 137 137 137 137 137 137 137 137
137 137 137 137 137 137
255 255 255 0 0 0 0 0 0 0 0 0 255 255 255 0 0 0 0 0 0 0 0 0 255 255
255 0 0 0 0 0 0 0 0 0 255 255 255 0 0 0 0 0 0 0 0 0 255 255 255 0 0 0
0 0 0 0 0 0 255 255 255 0 0 0 0 0 0 0 0 0 255 255 255 0 0 0 0 0 0 0 0
0 255 255 255 0 0 0 0 0 0 0 0 0 255 255 255 0 0 0 0 0 0 0 0 0 255 255
255 0 0 0 0 0 0 0 0 0 255 255 255 0 0 0 0 0 0 0 0 0 255 255 255 0 0 0
0 0 0 0 0 0 255 255 255 0 0 0 0 0 0 0 0 0 255 255 255 0 0 0 0 0 0 0 0
0 255 255 255 0 0 0 0 0 0 0 0 0 255 255 255 0 0 0 0 0 0 0 0 0 255 255
255 0 0 0 0 0 0 0 0 0 255 255 255 0 0 0 0 0 0 0 0 0 255 255 255 0 0 0
0 0 0 0 0 0 255 255 255 0 0 0 0 0 0 0 0 0 255 255 255 0 0 0 0 0 0 0 0
0 255 255 255 0 0 0 0 0 0 0 0 0 255 255 255 0 0 0 0 0 0 0 0 0 255 255
255 0 0 0 0 0 0 0 0 0 255 255 255 0 0 0 0 0 0 0 0 0 137 137 137 137
137 137 137 137 137 137 137 137 137 137 137 137 137 137 137 137 137
137 137 137 137 137 137 137 137 137 137 137 137 137 137 137 137 137
137 137 137 137 137 137 137 137 137 137 137 137 137 137 137 137 137
137 137 137 137 137 137 137 137 137 137 137 137 137 137 137 137 137
137 137 137 137 137 137 137 137 137 137 137 137 137 137 137 137 137
137 137 137 137 137 137 137 137 137 137 137 137 137 137 137 137 137
137 137 137 137 137 137 137 137 137 137 137 137 137 137 137 137 137
137 137 137 137 137 137 137 137 137 137 137 137 137 137 137 137 137
137 137 137 137 137 137 137 137 137 137 137 137 137 137 137 137 137
137 137 137 137 137 137 137 137 137 137 137 137 137 137 137 137 137
137 137 137 137 137 137 137 137 137 137 137 137 137 137 137 137 137
137 137 137 137 137 137 137 137 137 137 137 137 137 137 137 137 137
137 137 137 137 137 137 137 137 137 137 137 137 137 137 137 137 137
137 137 137 137 137 137 137 137 137 137 137 137 137 137 137 137 137
137 137 137 137 137 137 137 137 137 137 137 137 137 137 137 137 137
137 137 137 137 137 137 137 137 137 137 137 137 137 137 137 137 137
137 137 137 137 137 137 137 137 137 137 137 137 137 137 137 137 137
137 137 137 137 137 137 137
0 0 0 0 0 0 0 0 0 255 255 255 0 0 0 0 0 0 0 0 0 255 255 255 0 0 0 0 0
0 0 0 0 255 255 255 0 0 0 0 0 0 0 0 0 255 255 255 0 0 0 0 0 0 0 0 0
255 255 255 0 0 0 0 0 0 0 0 0 255 255 255 0 0 0 0 0 0 0 0 0 255 255
255 0 0 0 0 0 0 0 0 0 255 255 255 0 0 0 0 0 0 0 0 0 255 255 255 0 0 0
0 0 0 0 0 0 255 255 255 0 0 0 0 0 0 0 0 0 255 255 255 0 0 0 0 0 0 0 0
0 255 255 255 0 0 0 0 0 0 0 0 0 255 255 255 0 0 0 0 0 0 0 0 0 255 255
255 0 0 0 0 0 0 0 0 0 255 255 255 0 0 0 0 0 0 0 0 0 255 255 255 0 0 0
0 0 0 0 0 0 255 255 255 0 0 0 0 0 0 0 0 0 255 255 255 0 0 0 0 0 0 0 0
0 255 255 255 0 0 0 0 0 0 0 0 0 255 255 255 0 0 0 0 0 0 0 0 0 255 255
255 0 0 0 0 0 0 0 0 0 255 255 255 0 0 0 0 0 0 0 0 0 255 255 255 0 0 0
0 0 0 0 0 0 255 255 255 0 0 0 0 0 0 0 0 0 255 255 255 137 137 137 137
137 137 137 137 137 137 137 137 137 137 137 137 137 137 137 137 137
137 137 137 137 137 137 137 137 137 137 137 137 137 137 137 137 137
137 137 137 137 137 137 137 137 137 137 137 137 137 137 137 137 137
137 137 137 137 137 137 137 137 137 137 137 137 137 137 137 137 137
137 137 137 137 137 137 137 137 137 137 137 137 137 137 137 137 137
137 137 137 137 137 137 137 137 137 137 137 137 137 137 137 137 137
137 137 137 137 137 137 137 137 137 137 137 137 137 137 137 137 137
137 137 137 137 137 137 137 137 137 137 137 137 137 137 137 137 137
137 137 137 137 137 137 137 137 137 137 137 137 137 137 137 137 137
137 137 137 137 137 137 137 137 137 137 137 137 137 137 137 137 137
137 137 137 137 137 137 137 137 137 137 137 137 137 137 137 137 137
137 137 137 137 137 137 137 137 137 137 137 137 137 137 137 137 137
137 137 137 137 137 137 137 137 137 137 137 137 137 137 137 137 137
137 137 137 137 137 137 137 137 137 137 137 137 137 137 137 137 137
137 137 137 137 137 137 137 137 137 137 137 137 137 137 137 137 137
137 137 137 137 137 137 137 137 137 137 137 137 137 137 137 137 137
137 137 137 137 137 137 137 137 137 137 137 137 137 137 137 137 137
137 137 137 137 137 137 137
0 0 0 0 0 0 255 255 255 0 0 0 0 0 0 0 0 0 255 255 255 0 0 0 0 0 0 0 0
0 255 255 255 0 0 0 0 0 0 0 0 0 255 255 255 0 0 0 0 0 0 0 0 0 255 255
255 0 0 0 0 0 0 0 0 0 255 255 255 0 0 0 0 0 0 0 0 0 255 255 255 0 0 0
0 0 0 0 0 0 255 255 255 0 0 0 0 0 0 0 0 0 255 255 255 0 0 0 0 0 0 0 0
0 255 255 255 0 0 0 0 0 0 0 0 0 255 255 255 0 0 0 0 0 0 0 0 0 255 255
255 0 0 0 0 0 0 0 0 0 255 255 255 0 0 0 0 0 0 0 0 0 255 255 255 0 0 0
0 0 0 0 0 0 255 255 255 0 0 0 0 0 0 0 0 0 255 255 255 0 0 0 0 0 0 0 0
0 255 255 255 0 0 0 0 0 0 0 0 0 255 255 255 0 0 0 0 0 0 0 0 0 255 255
255 0 0 0 0 0 0 0 0 0 255 255 255 0 0 0 0 0 0 0 0 0 255 255 255 0 0 0
0 0 0 0 0 0 255 255 255 0 0 0 0 0 0 0 0 0 255 255 255 0 0 0 0 0 0 0 0
0 255 255 255 0 0 0 0 0 0 0 0 0 255 255 255 0 0 0 137 137 137 137 137
137 137 137 137 137 137 137 137 137 137 137 137 137 137 137 137 137
137 137 137 137 137 137 137 137 137 137 137 137 137 137 137 137 137
137 137 137 137 137 137 137 137 137 137 137 137 137 137 137 137 137
137 137 137 137 137 137 137 137 137 137 137 137 137 137 137 137 137
137 137 137 137 137 137 137 137 137 137 137 137 137 137 137 137 137
137 137 137 137 137 137 137 137 137 137 137 137 137 137 137 137 137
137 137 137 137 137 137 137 137 137 137 137 137 137 137 137 137 137
137 137 137 137 137 137 137 137 137 137 137 137 137 137 137 137 137
137 137 137 137 137 137 137 137 137 137 137 137 137 137 137 137 137
137 137 137 137 137 137 137 137 137 137 137 137 137 137 137 137 137
137 137 137 137 137 137 137 137 137 137 137 137 137 137 137 137 137
137 137 137 137 137 137 137 137 137 137 137 137 137 137 137 137 137
137 137 137 137 137 137 137 137 137 137 137 137 137 137 137 137 137
137 137 137 137 137 137 137 137 137 137 137 137 137 137 137 137 137
137 137 137 137 137 137 137 137 137 137 137 137 137 137 137 137 137
137 137 137 137 137 137 137 137 137 137 137 137 137 137 137 137 137
137 137 137 137 137 137 137 137 137 137 137 137 137 137 137 137 137
137 137 137 137 137 137
0 0 0 255 255 255 0 0 0 0 0 0 0 0 0 255 255 255 0 0 0 0 0 0 0 0 0 255
255 255 0 0 0 0 0 0 0 0 0 255 255 255 0 0 0 0 0 0 0 0 0 255 255 255 0
0 0 0 0 0 0 0 0 255 255 255 0 0 0 0 0 0 0 0 0 255 255 255 0 0 0 0 0 0
0 0 0 255 255 255 0 0 0 0 0 0 0 0 0 255 255 255 0 0 0 0 0 0 0 0 0 255
255 255 0 0 0 0 0 0 0 0 0 255 255 255 0 0 0 0 0 0 0 0 0 255 255 255 0
0 0 0 0 0 0 0 0 255 255 255 0 0 0 0 0 0 0 0 0 255 255 255 0 0 0 0 0 0
0 0 0 255 255 255 0 0 0 0 0 0 0 0 0 255 255 255 0 0 0 0 0 0 0 0 0 255
255 255 0 0 0 0 0 0 0 0 0 255 255 255 0 0 0 0 0 0 0 0 0 255 255 255 0
0 0 0 0 0 0 0 0 255 255 255 0 0 0 0 0 0 0 0 0 255 255 255 0 0 0 0 0 0
0 0 0 255 255 255 0 0 0 0 0 0 0 0 0 255 255 255 0 0 0 0 0 0 0 0 0 255
255 255 0 0 0 0 0 0 0 0 0 255 255 255 0 0 0 0 0 0 137 137 137 137 137
137 137 137 137 137 137 137 137 137 137 137 137 137 137 137 137 137
137 137 137 137 137 137 137 137 137 137 137 137 137 137 137 137 137
137 137 137 137 137 137 137 137 137 137 137 137 137 137 137 137 137
137 137 137 137 137 137 137 137 137 137 137 137 137 137 137 137 137
137 137 137 137 137 137 137 137 137 137 137 137 137 137 137 137 137
137 137 137 137 137 137 137 137 137 137 137 137 137 137 137 137 137
137 137 137 137 137 137 137 137 137 137 137 137 137 137 137 137 137
137 137 137 137 137 137 137 137 137 137 137 137 137 137 137 137 137
137 137 137 137 137 137 137 137 137 137 137 137 137 137 137 137 137
137 137 137 137 137 137 137 137 137 137 137 137 137 137 137 137 137
137 137 137 137 137 137 137 137 137 137 137 137 137 137 137 137 137
137 137 137 137 137 137 137 137 137 137 137 137 137 137 137 137 137
137 137 137 137 137 137 137 137 137 137 137 137 137 137 137 137 137
137 137 137 137 137 137 137 137 137 137 137 137 137 137 137 137 137
137 137 137 137 137 137 137 137 137 137 137 137 137 137 137 137 137
137 137 137 137 137 137 137 137 137 137 137 137 137 137 137 137 137
137 137 137 137 137 137 137 137 137 137 137 137 137 137 137 137 137
137 137 137 137 137 137
255 255 255 0 0 0 0 0 0 0 0 0 255 255 255 0 0 0 0 0 0 0 0 0 255 255
255 0 0 0 0 0 0 0 0 0 255 255 255 0 0 0 0 0 0 0 0 0 255 255 255 0 0 0
0 0 0 0 0 0 255 255 255 0 0 0 0 0 0 0 0 0 255 255 255 0 0 0 0 0 0 0 0
0 255 255 255 0 0 0 0 0 0 0 0 0 255 255 255 0 0 0 0 0 0 0 0 0 255 255
255 0 0 0 0 0 0 0 0 0 255 255 255 0 0 0 0 0 0 0 0 0 255 255 255 0 0 0
0 0 0 0 0 0 255 255 255 0 0 0 0 0 0 0 0 0 255 255 255 0 0 0 0 0 0 0 0
0 255 255 255 0 0 0 0 0 0 0 0 0 255 255 255 0 0 0 0 0 0 0 0 0 255 255
255 0 0 0 0 0 0 0 0 0 255 255 255 0 0 0 0 0 0 0 0 0 255 255 255 0 0 0
0 0 0 0 0 0 255 255 255 0 0 0 0 0 0 0 0 0 255 255 255 0 0 0 0 0 0 0 0
0 255 255 255 0 0 0 0 0 0 0 0 0 255 255 255 0 0 0 0 0 0 0 0 0 255 255
255 0 0 0 0 0 0 0 0 0 255 255 255 0 0 0 0 0 0 0 0 0 137 137 137 137
137 137 137 137 137 137 137 137 137 137 137 137 137 137 137 137 137
137 137 137 137 137 137 137 137 137 137 137 137 137 137 137 137 137
137 137 137 137 137 137 137 137 137 137 137 137 137 137 137 137 137
137 137 137 137 137 137 137 137 137 137 137 137 137 137 137 137 137
137 137 137 137 137 137 137 137 137 137 137 137 137 137 137 137 137
137 137 137 137 137 137 137 137 137 137 137 137 137 137 137 137 137
137 137 137 137 137 137 137 137 137 137 137 137 137 137 137 137 137
137 137 137 137 137 137 137 137 137 137 137 137 137 137 137 137 137
137 137 137 137 137 137 137 137 137 137 137 137 137 137 137 137 137
137 137 137 137 137 137 137 137 137 137 137 137 137 137 137 137 137
137 137 137 137 137 137 137 137 137 137 137 137 137 137 137 137 137
137 137 137 137 137 137 137 137 137 137 137 137 137 137 137 137 137
137 137 137 137 137 137 137 137 137 137 137 137 137 137 137 137 137
137 137 137 137 137 137 137 137 137 137 137 137 137 137 137 137 137
137 137 137 137 137 137 137 137 137 137 137 137 137 137 137 137 137
137 137 137 137 137 137 137 137 137 137 137 137 137 137 137 137 137
137 137 137 137 137 137 137 137 137 137 137 137 137 137 137 137 137
137 137 137 137 137 137 137
0 0 0 0 0 0 0 0 0 255 255 255 0 0 0 0 0 0 0 0 0 255 255 255 0 0 0 0 0
0 0 0 0 255 255 255 0 0 0 0 0 0 0 0 0 255 255 255 0 0 0 0 0 0 0 0 0
255 255 255 0 0 0 0 0 0 0 0 0 255 255 255 0 0 0 0 0 0 0 0 0 255 255
255 0 0 0 0 0 0 0 0 0 255 255 255 0 0 0 0 0 0 0 0 0 255 255 255 0 0 0
0 0 0 0 0 0 255 255 255 0 0 0 0 0 0 0 0 0 255 255 255 0 0 0 0 0 0 0 0
0 255 255 255 0 0 0 0 0 0 0 0 0 255 255 255 0 0 0 0 0 0 0 0 0 255 255
255 0 0 0 0 0 0 0 0 0 255 255 255 0 0 0 0 0 0 0 0 0 255 255 255 0 0 0
0 0 0 0 0 0 255 255 255 0 0 0 0 0 0 0 0 0 255 255 255 0 0 0 0 0 0 0 0
0 255 255 255 0 0 0 0 0 0 0 0 0 255 255 255 0 0 0 0 0 0 0 0 0 255 255
255 0 0 0 0 0 0 0 0 0 255 255 255 0 0 0 0 0 0 0 0 0 255 255 255 0 0 0
0 0 0 0 0 0 255 255 255 0 0 0 0 0 0 0 0 0 255 255 255 137 137 137 137
137 137 137 137 137 137 137 137 137 137 137 137 137 137 137 137 137
137 137 137 137 137 137 137 137 137 137 137 137 137 137 137 137 137
137 137 137 137 137 137 137 137 137 137 137 137 137 137 137 137 137
137 137 137 137 137 137 137 137 137 137 137 137 137 137 137 137 137
137 137 137 137 137 137 137 137 137 137 137 137 137 137 137 137 137
137 137 137 137 137 137 137 137 137 137 137 137 137 137 137 137 137
137 137 137 137 137 137 137 137 137 137 137 137 137 137 137 137 137
137 137 137 137 137 137 137 137 137 137 137 137 137 137 137 137 137
137 137 137 137 137 137 137 137 137 137 137 137 137 137 137 137 137
137 137 137 137 137 137 137 137 137 137 137 137 137 137 137 137 137
137 137 137 137 137 137 137 137 137 137 137 137 137 137 137 137 137
137 137 137 137 137 137 137 137 137 137 137 137 137 137 137 137 137
137 137 137 137 137 137 137 137 137 137 137 137 137 137 137 137 137
137 137 137 137 137 137 137 137 137 137 137 137 137 137 137 137 137
137 137 137 137 137 137 137 137 137 137 137 137 137 137 137 137 137
137 137 137 137 137 137 137 137 137 137 137 137 137 137 137 137 137
137 137 137 137 137 137 137 137 137 137 137 137 137 137 137 137 137
137 137 137 137 137 137 137
0 0 0 0 0 0 255 255 255 0 0 0 0 0 0 0 0 0 255 255 255 0 0 0 0 0 0 0 0
0 255 255 255 0 0 0 0 0 0 0 0 0 255 255 255 0 0 0 0 0 0 0 0 0 255 255
255 0 0 0 0 0 0 0 0 0 255 255 255 0 0 0 0 0 0 0 0 0 255 255 255 0 0 0
0 0 0 0 0 0 255 255 255 0 0 0 0 0 0 0 0 0 255 255 255 0 0 0 0 0 0 0 0
0 255 255 255 0 0 0 0 0 0 0 0 0 255 255 255 0 0 0 0 0 0 0 0 0 255 255
255 0 0 0 0 0 0 0 0 0 255 255 255 0 0 0 0 0 0 0 0 0 255 255 255 0 0 0
0 0 0 0 0 0 255 255 255 0 0 0 0 0 0 0 0 0 255 255 255 0 0 0 0 0 0 0 0
0 255 255 255 0 0 0 0 0 0 0 0 0 255 255 255 0 0 0 0 0 0 0 0 0 255 255
255 0 0 0 0 0 0 0 0 0 255 255 255 0 0 0 0 0 0 0 0 0 255 255 255 0 0 0
0 0 0 0 0 0 255 255 255 0 0 0 0 0 0 0 0 0 255 255 255 0 0 0 0 0 0 0 0
0 255 255 255 0 0 0 0 0 0 0 0 0 255 255 255 0 0 0 137 137 137 137 137
137 137 137 137 137 137 137 137 137 137 137 137 137 137 137 137 137
137 137 137 137 137 137 137 137 137 137 137 137 137 137 137 137 137
137 137 137 137 137 137 137 137 137 137 137 137 137 137 137 137 137
137 137 137 137 137 137 137 137 137 137 137 137 137 137 137 137 137
137 137 137 137 137 137 137 137 137 137 137 137 137 137 137 137 137
137 137 137 137 137 137 137 137 137 137 137 137 137 137 137 137 137
137 137 137 137 137 137 137 137 137 137 137 137 137 137 137 137 137
137 137 137 137 137 137 137 137 137 137 137 137 137 137 137 137 137
137 137 137 137 137 137 137 137 137 137 137 137 137 137 137 137 137
137 137 137 137 137 137 137 137 137 137 137 137 137 137 137 137 137
137 137 137 137 137 137 137 137 137 137 137 137 137 137 137 137 137
137 137 137 137 137 137 137 137 137 137 137 137 137 137 137 137 137
137 137 137 137 137 137 137 137 137 137 137 137 137 137 137 137 137
137 137 137 137 137 137 137 137 137 137 137 137 137 137 137 137 137
137 137 137 137 137 137 137 137 137 137 137 137 137 137 137 137 137
137 137 137 137 137 137 137 137 137 137 137 137 137 137 137 137 137
137 137 137 137 137 137 137 137 137 137 137 137 137 137 137 137 137
137 137 137 137 137 137
0 0 0 255 255 255 0 0 0 0 0 0 0 0 0 255 255 255 0 0 0 0 0 0 0 0 0 255
255 255 0 0 0 0 0 0 0 0 0 255 255 255 0 0 0 0 0 0 0 0 0 255 255 255 0
0 0 0 0 0 0 0 0 255 255 255 0 0 0 0 0 0 0 0 0 255 255 255 0 0 0 0 0 0
0 0 0 255 255 255 0 0 0 0 0 0 0 0 0 255 255 255 0 0 0 0 0 0 0 0 0 255
255 255 0 0 0 0 0 0 0 0 0 255 255 255 0 0 0 0 0 0 0 0 0 255 255 255 0
0 0 0 0 0 0 0 0 255 255 255 0 0 0 0 0 0 0 0 0 255 255 255 0 0 0 0 0 0
0 0 0 255 255 255 0 0 0 0 0 0 0 0 0 255 255 255 0 0 0 0 0 0 0 0 0 255
255 255 0 0 0 0 0 0 0 0 0 255 255 255 0 0 0 0 0 0 0 0 0 255 255 255 0
0 0 0 0 0 0 0 0 255 255 255 0 0 0 0 0 0 0 0 0 255 255 255 0 0 0 0 0 0
0 0 0 255 255 255 0 0 0 0 0 0 0 0 0 255 255 255 0 0 0 0 0 0 0 0 0 255
255 255 0 0 0 0 0 0 0 0 0 255 255 255 0 0 0 0 0 0 137 137 137 137 137
137 137 137 137 137 137 137 137 137 137 137 137 137 137 137 137 137
137 137 137 137 137 137 137 137 137 137 137 137 137 137 137 137 137
137 137 137 137 137 137 137 137 137 137 137 137 137 137 137 137 137
137 137 137 137 137 137 137 137 137 137 137 137 137 137 137 137 137
137 137 137 137 137 137 137 137 137 137 137 137 137 137 137 137 137
137 137 137 137 137 137 137 137 137 137 137 137 137 137 137 137 137
137 137 137 137 137 137 137 137 137 137 137 137 137 137 137 137 137
137 137 137 137 137 137 137 137 137 137 137 137 137 137 137 137 137
137 137 137 137 137 137 137 137 137 137 137 137 137 137 137 137 137
137 137 137 137 137 137 137 137 137 137 137 137 137 137 137 137 137
137 137 137 137 137 137 137 137 137 137 137 137 137 137 137 137 137
137 137 137 137 137 137 137 137 137 137 137 137 137 137 137 137 137
137 137 137 137 137 137 137 137 137 137 137 137 137 137 137 137 137
137 137 137 137 137 137 137 137 137 137 137 137 137 137 137 137 137
137 137 137 137 137 137 137 137 137 137 137 137 137 137 137 137 137
137 137 137 137 137 137 137 137 137 137 137 137 137 137 137 137 137
137 137 137 137 137 137 137 137 137 137 137 137 137 137 137 137 137
137 137 137 137 137 137
255 255 255 0 0 0 0 0 0 0 0 0 255 255 255 0 0 0 0 0 0 0 0 0 255 255
255 0 0 0 0 0 0 0 0 0 255 255 255 0 0 0 0 0 0 0 0 0 255 255 255 0 0 0
0 0 0 0 0 0 255 255 255 0 0 0 0 0 0 0 0 0 255 255 255 0 0 0 0 0 0 0 0
0 255 255 255 0 0 0 0 0 0 0 0 0 255 255 255 0 0 0 0 0 0 0 0 0 255 255
255 0 0 0 0 0 0 0 0 0 255 255 255 0 0 0 0 0 0 0 0 0 255 255 255 0 0 0
0 0 0 0 0 0 255 255 255 0 0 0 0 0 0 0 0 0 255 255 255 0 0 0 0 0 0 0 0
0 255 255 255 0 0 0 0 0 0 0 0 0 255 255 255 0 0 0 0 0 0 0 0 0 255 255
255 0 0 0 0 0 0 0 0 0 255 255 255 0 0 0 0 0 0 0 0 0 255 255 255 0 0 0
0 0 0 0 0 0 255 255 255 0 0 0 0 0 0 0 0 0 255 255 255 0 0 0 0 0 0 0 0
0 255 255 255 0 0 0 0 0 0 0 0 0 255 255 255 0 0 0 0 0 0 0 0 0 255 255
255 0 0 0 0 0 0 0 0 0 255 255 255 0 0 0 0 0 0 0 0 0 137 137 137 137
137 137 137 137 137 137 137 137 137 137 137 137 137 137 137 137 137
137 137 137 137 137 137 137 137 137 137 137 137 137 137 137 137 137
137 137 137 137 137 137 137 137 137 137 137 137 137 137 137 137 137
137 137 137 137 137 137 137 137 137 137 137 137 137 137 137 137 137
137 137 137 137 137 137 137 137 137 137 137 137 137 137 137 137 137
137 137 137 137 137 137 137 137 137 137 137 137 137 137 137 137 137
137 137 137 137 137 137 137 137 137 137 137 137 137 137 137 137 137
137 137 137 137 137 137 137 137 137 137 137 137 137 137 137 137 137
137 137 137 137 137 137 137 137 137 137 137 137 137 137 137 137 137
137 137 137 137 137 137 137 137 137 137 137 137 137 137 137 137 137
137 137 137 137 137 137 137 137 137 137 137 137 137 137 137 137 137
137 137 137 137 137 137 137 137 137 137 137 137 137 137 137 137 137
137 137 137 137 137 137 137 137 137 137 137 137 137 137 137 137 137
137 137 137 137 137 137 137 137 137 137 137 137 137 137 137 137 137
137 137 137 137 137 137 137 137 137 137 137 137 137 137 137 137 137
137 137 137 137 137 137 137 137 137 137 137 137 137 137 137 137 137
137 137 137 137 137 137 137 137 137 137 137 137 137 137 137 137 137
137 137 137 137 137 137 137
0 0 0 0 0 0 0 0 0 255 255 255 0 0 0 0 0 0 0 0 0 255 255 255 0 0 0 0 0
0 0 0 0 255 255 255 0 0 0 0 0 0 0 0 0 255 255 255 0 0 0 0 0 0 0 0 0
255 255 255 0 0 0 0 0 0 0 0 0 255 255 255 0 0 0 0 0 0 0 0 0 255 255
255 0 0 0 0 0 0 0 0 0 255 255 255 0 0 0 0 0 0 0 0 0 255 255 255 0 0 0
0 0 0 0 0 0 255 255 255 0 0 0 0 0 0 0 0 0 255 255 255 0 0 0 0 0 0 0 0
0 255 255 255 0 0 0 0 0 0 0 0 0 255 255 255 0 0 0 0 0 0 0 0 0 255 255
255 0 0 0 0 0 0 0 0 0 255 255 255 0 0 0 0 0 0 0 0 0 255 255 255 0 0 0
0 0 0 0 0 0 255 255 255 0 0 0 0 0 0 0 0 0 255 255 255 0 0 0 0 0 0 0 0
0 255 255 255 0 0 0 0 0 0 0 0 0 255 255 255 0 0 0 0 0 0 0 0 0 255 255
255 0 0 0 0 0 0 0 0 0 255 255 255 0 0 0 0 0 0 0 0 0 255 255 255 0 0 0
0 0 0 0 0 0 255 255 255 0 0 0 0 0 0 0 0 0 255 255 255 137 137 137 137
137 137 137 137 137 137 137 137 137 137 137 137 137 137 137 137 137
137 137 137 137 137 137 137 137 137 137 137 137 137 137 137 137 137
137 137 137 137 137 137 137 137 137 137 137 137 137 137 137 137 137
137 137 137 137 137 137 137 137 137 137 137 137 137 137 137 137 137
137 137 137 137 137 137 137 137 137 137 137 137 137 137 137 137 137
137 137 137 137 137 137 137 137 137 137 137 137 137 137 137 137 137
137 137 137 137 137 137 137 137 137 137 137 137 137 137 137 137 137
137 137 137 137 137 137 137 137 137 137 137 137 137 137 137 137 137
137 137 137 137 137 137 137 137 137 137 137 137 137 137 137 137 137
137 137 137 137 137 137 137 137 137 137 137 137 137 137 137 137 137
137 137 137 137 137 137 137 137 137 137 137 137 137 137 137 137 137
137 137 137 137 137 137 137 137 137 137 137 137 137 137 137 137 137
137 137 137 137 137 137 137 137 137 137 137 137 137 137 137 137 137
137 137 137 137 137 137 137 137 137 137 137 137 137 137 137 137 137
137 137 137 137 137 137 137 137 137 137 137 137 137 137 137 137 137
137 137 137 137 137 137 137 137 137 137 137 137 137 137 137 137 137
137 137 137 137 137 137 137 137 137 137 137 137 137 137 137 137 137
137 137 137 137 137 137 137
0 0 0 0 0 0 255 255 255 0 0 0 0 0 0 0 0 0 255 255 255 0 0 0 0 0 0 0 0
0 255 255 255 0 0 0 0 0 0 0 0 0 255 255 255 0 0 0 0 0 0 0 0 0 255 255
255 0 0 0 0 0 0 0 0 0 255 255 255 0 0 0 0 0 0 0 0 0 255 255 255 0 0 0
0 0 0 0 0 0 255 255 255 0 0 0 0 0 0 0 0 0 255 255 255 0 0 0 0 0 0 0 0
0 255 255 255 0 0 0 0 0 0 0 0 0 255 255 255 0 0 0 0 0 0 0 0 0 255 255
255 0 0 0 0 0 0 0 0 0 255 255 255 0 0 0 0 0 0 0 0 0 255 255 255 0 0 0
0 0 0 0 0 0 255 255 255 0 0 0 0 0 0 0 0 0 255 255 255 0 0 0 0 0 0 0 0
0 255 255 255 0 0 0 0 0 0 0 0 0 255 255 255 0 0 0 0 0 0 0 0 0 255 255
255 0 0 0 0 0 0 0 0 0 255 255 255 0 0 0 0 0 0 0 0 0 255 255 255 0 0 0
0 0 0 0 0 0 255 255 255 0 0 0 0 0 0 0 0 0 255 255 255 0 0 0 0 0 0 0 0
0 255 255 255 0 0 0 0 0 0 0 0 0 255 255 255 0 0 0 137 137 137 137 137
137 137 137 137 137 137 137 137 137 137 137 137 137 137 137 137 137
137 137 137 137 137 137 137 137 137 137 137 137 137 137 137 137 137
137 137 137 137 137 137 137 137 137 137 137 137 137 137 137 137 137
137 137 137 137 137 137 137 137 137 137 137 137 137 137 137 137 137
137 137 137 137 137 137 137 137 137 137 137 137 137 137 137 137 137
137 137 137 137 137 137 137 137 137 137 137 137 137 137 137 137 137
137 137 137 137 137 137 137 137 137 137 137 137 137 137 137 137 137
137 137 137 137 137 137 137 137 137 137 137 137 137 137 137 137 137
137 137 137 137 137 137 137 137 137 137 137 137 137 137 137 137 137
137 137 137 137 137 137 137 137 137 137 137 137 137 137 137 137 137
137 137 137 137 137 137 137 137 137 137 137 137 137 137 137 137 137
137 137 137 137 137 137 137 137 137 137 137 137 137 137 137 137 137
137 137 137 137 137 137 137 137 137 137 137 137 137 137 137 137 137
137 137 137 137 137 137 137 137 137 137 137 137 137 137 137 137 137
137 137 137 137 137 137 137 137 137 137 137 137 137 137 137 137 137
137 137 137 137 137 137 137 137 137 137 137 137 137 137 137 137 137
137 137 137 137 137 137 137 137 137 137 137 137 137 137 137 137 137
137 137 137 137 137 137
0 0 0 255 255 255 0 0 0 0 0 0 0 0 0 255 255 255 0 0 0 0 0 0 0 0 0 255
255 255 0 0 0 0 0 0 0 0 0 255 255 255 0 0 0 0 0 0 0 0 0 255 255 255 0
0 0 0 0 0 0 0 0 255 255 255 0 0 0 0 0 0 0 0 0 255 255 255 0 0 0 0 0 0
0 0 0 255 255 255 0 0 0 0 0 0 0 0 0 255 255 255 0 0 0 0 0 0 0 0 0 255
255 255 0 0 0 0 0 0 0 0 0 255 255 255 0 0 0 0 0 0 0 0 0 255 255 255 0
0 0 0 0 0 0 0 0 255 255 255 0 0 0 0 0 0 0 0 0 255 255 255 0 0 0 0 0 0
0 0 0 255 255 255 0 0 0 0 0 0 0 0 0 255 255 255 0 0 0 0 0 0 0 0 0 255
255 255 0 0 0 0 0 0 0 0 0 255 255 255 0 0 0 0 0 0 0 0 0 255 255 255 0
0 0 0 0 0 0 0 0 255 255 255 0 0 0 0 0 0 0 0 0 255 255 255 0 0 0 0 0 0
0 0 0 255 255 255 0 0 0 0 0 0 0 0 0 255 255 255 0 0 0 0 0 0 0 0 0 255
255 255 0 0 0 0 0 0 0 0 0 255 255 255 0 0 0 0 0 0 137 137 137 137 137
137 137 137 137 137 137 137 137 137 137 137 137 137 137 137 137 137
137 137 137 137 137 137 137 137 137 137 137 137 137 137 137 137 137
137 137 137 137 137 137 137 137 137 137 137 137 137 137 137 137 137
137 137 137 137 137 137 137 137 137 137 137 137 137 137 137 137 137
137 137 137 137 137 137 137 137 137 137 137 137 137 137 137 137 137
137 137 137 137 137 137 137 137 137 137 137 137 137 137 137 137 137
137 137 137 137 137 137 137 137 137 137 137 137 137 137 137 137 137
137 137 137 137 137 137 137 137 137 137 137 137 137 137 137 137 137
137 137 137 137 137 137 137 137 137 137 137 137 137 137 137 137 137
137 137 137 137 137 137 137 137 137 137 137 137 137 137 137 137 137
137 137 137 137 137 137 137 137 137 137 137 137 137 137 137 137 137
137 137 137 137 137 137 137 137 137 137 137 137 137 137 137 137 137
137 137 137 137 137 137 137 137 137 137 137 137 137 137 137 137 137
137 137 137 137 137 137 137 137 137 137 137 137 137 137 137 137 137
137 137 137 137 137 137 137 137 137 137 137 137 137 137 137 137 137
137 137 137 137 137 137 137 137 137 137 137 137 137 137 137 137 137
137 137 137 137 137 137 137 137 137 137 137 137 137 137 137 137 137
137 137 137 137 137 137
255 255 255 0 0 0 0 0 0 0 0 0 255 255 255 0 0 0 0 0 0 0 0 0 255 255
255 0 0 0 0 0 0 0 0 0 255 255 255 0 0 0 0 0 0 0 0 0 255 255 255 0 0 0
0 0 0 0 0 0 255 255 255 0 0 0 0 0 0 0 0 0 255 255 255 0 0 0 0 0 0 0 0
0 255 255 255 0 0 0 0 0 0 0 0 0 255 255 255 0 0 0 0 0 0 0 0 0 255 255
255 0 0 0 0 0 0 0 0 0 255 255 255 0 0 0 0 0 0 0 0 0 255 255 255 0 0 0
0 0 0 0 0 0 255 255 255 0 0 0 0 0 0 0 0 0 255 255 255 0 0 0 0 0 0 0 0
0 255 255 255 0 0 0 0 0 0 0 0 0 255 255 255 0 0 0 0 0 0 0 0 0 255 255
255 0 0 0 0 0 0 0 0 0 255 255 255 0 0 0 0 0 0 0 0 0 255 255 255 0 0 0
0 0 0 0 0 0 255 255 255 0 0 0 0 0 0 0 0 0 255 255 255 0 0 0 0 0 0 0 0
0 255 255 255 0 0 0 0 0 0 0 0 0 255 255 255 0 0 0 0 0 0 0 0 0 255 255
255 0 0 0 0 0 0 0 0 0 255 255 255 0 0 0 0 0 0 0 0 0 137 137 137 137
137 137 137 137 137 137 137 137 137 137 137 137 137 137 137 137 137
137 137 137 137 137 137 137 137 137 137 137 137 137 137 137 137 137
137 137 137 137 137 137 137 137 137 137 137 137 137 137 137 137 137
137 137 137 137 137 137 137 137 137 137 137 137 137 137 137 137 137
137 137 137 137 137 137 137 137 137 137 137 137 137 137 137 137 137
137 137 137 137 137 137 137 137 137 137 137 137 137 137 137 137 137
137 137 137 137 137 137 137 137 137 137 137 137 137 137 137 137 137
137 137 137 137 137 137 137 137 137 137 137 137 137 137 137 137 137
137 137 137 137 137 137 137 137 137 137 137 137 137 137 137 137 137
137 137 137 137 137 137 137 137 137 137 137 137 137 137 137 137 137
137 137 137 137 137 137 137 137 137 137 137 137 137 137 137 137 137
137 137 137 137 137 137 137 137 137 137 137 137 137 137 137 137 137
137 137 137 137 137 137 137 137 137 137 137 137 137 137 137 137 137
137 137 137 137 137 137 137 137 137 137 137 137 137 137 137 137 137
137 137 137 137 137 137 137 137 137 137 137 137 137 137 137 137 137
137 137 137 137 137 137 137 137 137 137 137 137 137 137 137 137 137
137 137 137 137 137 137 137 137 137 137 137 137 137 137 137 137 137
137 137 137 137 137 137 137
0 0 0 0 0 0 0 0 0 255 255 255 0 0 0 0 0 0 0 0 0 255 255 255 0 0 0 0 0
0 0 0 0 255 255 255 0 0 0 0 0 0 0 0 0 255 255 255 0 0 0 0 0 0 0 0 0
255 255 255 0 0 0 0 0 0 0 0 0 255 255 255 0 0 0 0 0 0 0 0 0 255 255
255 0 0 0 0 0 0 0 0 0 255 255 255 0 0 0 0 0 0 0 0 0 255 255 255 0 0 0
0 0 0 0 0 0 255 255 255 0 0 0 0 0 0 0 0 0 255 255 255 0 0 0 0 0 0 0 0
0 255 255 255 0 0 0 0 0 0 0 0 0 255 255 255 0 0 0 0 0 0 0 0 0 255 255
255 0 0 0 0 0 0 0 0 0 255 255 255 0 0 0 0 0 0 0 0 0 255 255 255 0 0 0
0 0 0 0 0 0 255 255 255 0 0 0 0 0 0 0 0 0 255 255 255 0 0 0 0 0 0 0 0
0 255 255 255 0 0 0 0 0 0 0 0 0 255 255 255 0 0 0 0 0 0 0 0 0 255 255
255 0 0 0 0 0 0 0 0 0 255 255 255 0 0 0 0 0 0 0 0 0 255 255 255 0 0 0
0 0 0 0 0 0 255 255 255 0 0 0 0 0 0 0 0 0 255 255 255 137 137 137 137
137 137 137 137 137 137 137 137 137 137 137 137 137 137 137 137 137
137 137 137 137 137 137 137 137 137 137 137 137 137 137 137 137 137
137 137 137 137 137 137 137 137 137 137 137 137 137 137 137 137 137
137 137 137 137 137 137 137 137 137 137 137 137 137 137 137 137 137
137 137 137 137 137 137 137 137 137 137 137 137 137 137 137 137 137
137 137 137 137 137 137 137 137 137 137 137 137 137 137 137 137 137
137 137 137 137 137 137 137 137 137 137 137 137 137 137 137 137 137
137 137 137 137 137 137 137 137 137 137 137 137 137 137 137 137 137
137 137 137 137 137 137 137 137 137 137 137 137 137 137 137 137 137
137 137 137 137 137 137 137 137 137 137 137 137 137 137 137 137 137
137 137 137 137 137 137 137 137 137 137 137 137 137 137 137 137 137
137 137 137 137 137 137 137 137 137 137 137 137 137 137 137 137 137
137 137 137 137 137 137 137 137 137 137 137 137 137 137 137 137 137
137 137 137 137 137 137 137 137 137 137 137 137 137 137 137 137 137
137 137 137 137 137 137 137 137 137 137 137 137 137 137 137 137 137
137 137 137 137 137 137 137 137 137 137 137 137 137 137 137 137 137
137 137 137 137 137 137 137 137 137 137 137 137 137 137 137 137 137
137 137 137 137 137 137 137
0 0 0 0 0 0 255 255 255 0 0 0 0 0 0 0 0 0 255 255 255 0 0 0 0 0 0 0 0
0 255 255 255 0 0 0 0 0 0 0 0 0 255 255 255 0 0 0 0 0 0 0 0 0 255 255
255 0 0 0 0 0 0 0 0 0 255 255 255 0 0 0 0 0 0 0 0 0 255 255 255 0 0 0
0 0 0 0 0 0 255 255 255 0 0 0 0 0 0 0 0 0 255 255 255 0 0 0 0 0 0 0 0
0 255 255 255 0 0 0 0 0 0 0 0 0 255 255 255 0 0 0 0 0 0 0 0 0 255 255
255 0 0 0 0 0 0 0 0 0 255 255 255 0 0 0 0 0 0 0 0 0 255 255 255 0 0 0
0 0 0 0 0 0 255 255 255 0 0 0 0 0 0 0 0 0 255 255 255 0 0 0 0 0 0 0 0
0 255 255 255 0 0 0 0 0 0 0 0 0 255 255 255 0 0 0 0 0 0 0 0 0 255 255
255 0 0 0 0 0 0 0 0 0 255 255 255 0 0 0 0 0 0 0 0 0 255 255 255 0 0 0
0 0 0 0 0 0 255 255 255 0 0 0 0 0 0 0 0 0 255 255 255 0 0 0 0 0 0 0 0
0 255 255 255 0 0 0 0 0 0 0 0 0 255 255 255 0 0 0 137 137 137 137 137
137 137 137 137 137 137 137 137 137 137 137 137 137 137 137 137 137
137 137 137 137 137 137 137 137 137 137 137 137 137 137 137 137 137
137 137 137 137 137 137 137 137 137 137 137 137 137 137 137 137 137
137 137 137 137 137 137 137 137 137 137 137 137 137 137 137 137 137
137 137 137 137 137 137 137 137 137 137 137 137 137 137 137 137 137
137 137 137 137 137 137 137 137 137 137 137 137 137 137 137 137 137
137 137 137 137 137 137 137 137 137 137 137 137 137 137 137 137 137
137 137 137 137 137 137 137 137 137 137 137 137 137 137 137 137 137
137 137 137 137 137 137 137 137 137 137 137 137 137 137 137 137 137
137 137 137 137 137 137 137 137 137 137 137 137 137 137 137 137 137
137 137 137 137 137 137 137 137 137 137 137 137 137 137 137 137 137
137 137 137 137 137 137 137 137 137 137 137 137 137 137 137 137 137
137 137 137 137 137 137 137 137 137 137 137 137 137 137 137 137 137
137 137 137 137 137 137 137 137 137 137 137 137 137 137 137 137 137
137 137 137 137 137 137 137 137 137 137 137 137 137 137 137 137 137
137 137 137 137 137 137 137 137 137 137 137 137 137 137 137 137 137
137 137 137 137 137 137 137 137 137 137 137 137 137 137 137 137 137
137 137 137 137 137 137
0 0 0 255 255 255 0 0 0 0 0 0 0 0 0 255 255 255 0 0 0 0 0 0 0 0 0 255
255 255 0 0 0 0 0 0 0 0 0 255 255 255 0 0 0 0 0 0 0 0 0 255 255 255 0
0 0 0 0 0 0 0 0 255 255 255 0 0 0 0 0 0 0 0 0 255 255 255 0 0 0 0 0 0
0 0 0 255 255 255 0 0 0 0 0 0 0 0 0 255 255 255 0 0 0 0 0 0 0 0 0 255
255 255 0 0 0 0 0 0 0 0 0 255 255 255 0 0 0 0 0 0 0 0 0 255 255 255 0
0 0 0 0 0 0 0 0 255 255 255 0 0 0 0 0 0 0 0 0 255 255 255 0 0 0 0 0 0
0 0 0 255 255 255 0 0 0 0 0 0 0 0 0 255 255 255 0 0 0 0 0 0 0 0 0 255
255 255 0 0 0 0 0 0 0 0 0 255 255 255 0 0 0 0 0 0 0 0 0 255 255 255 0
0 0 0 0 0 0 0 0 255 255 255 0 0 0 0 0 0 0 0 0 255 255 255 0 0 0 0 0 0
0 0 0 255 255 255 0 0 0 0 0 0 0 0 0 255 255 255 0 0 0 0 0 0 0 0 0 255
255 255 0 0 0 0 0 0 0 0 0 255 255 255 0 0 0 0 0 0 137 137 137 137 137
137 137 137 137 137 137 137 137 137 137 137 137 137 137 137 137 137
137 137 137 137 137 137 137 137 137 137 137 137 137 137 137 137 137
137 137 137 137 137 137 137 137 137 137 137 137 137 137 137 137 137
137 137 137 137 137 137 137 137 137 137 137 137 137 137 137 137 137
137 137 137 137 137 137 137 137 137 137 137 137 137 137 137 137 137
137 137 137 137 137 137 137 137 137 137 137 137 137 137 137 137 137
137 137 137 137 137 137 137 137 137 137 137 137 137 137 137 137 137
137 137 137 137 137 137 137 137 137 137 137 137 137 137 137 137 137
137 137 137 137 137 137 137 137 137 137 137 137 137 137 137 137 137
137 137 137 137 137 137 137 137 137 137 137 137 137 137 137 137 137
137 137 137 137 137 137 137 137 137 137 137 137 137 137 137 137 137
137 137 137 137 137 137 137 137 137 137 137 137 137 137 137 137 137
137 137 137 137 137 137 137 137 137 137 137 137 137 137 137 137 137
137 137 137 137 137 137 137 137 137 137 137 137 137 137 137 137 137
137 137 137 137 137 137 137 137 137 137 137 137 137 137 137 137 137
137 137 137 137 137 137 137 137 137 137 137 137 137 137 137 137 137
137 137 137 137 137 137 137 137 137 137 137 137 137 137 137 137 137
137 137 137 137 137 137
255 255 255 0 0 0 0 0 0 0 0 0 255 255 255 0 0 0 0 0 0 0 0 0 255 255
255 0 0 0 0 0 0 0 0 0 255 255 255 0 0 0 0 0 0 0 0 0 255 255 255 0 0 0
0 0 0 0 0 0 255 255 255 0 0 0 0 0 0 0 0 0 255 255 255 0 0 0 0 0 0 0 0
0 255 255 255 0 0 0 0 0 0 0 0 0 255 255 255 0 0 0 0 0 0 0 0 0 255 255
255 0 0 0 0 0 0 0 0 0 255 255 255 0 0 0 0 0 0 0 0 0 255 255 255 0 0 0
0 0 0 0 0 0 255 255 255 0 0 0 0 0 0 0 0 0 255 255 255 0 0 0 0 0 0 0 0
0 255 255 255 0 0 0 0 0 0 0 0 0 255 255 255 0 0 0 0 0 0 0 0 0 255 255
255 0 0 0 0 0 0 0 0 0 255 255 255 0 0 0 0 0 0 0 0 0 255 255 255 0 0 0
0 0 0 0 0 0 255 255 255 0 0 0 0 0 0 0 0 0 255 255 255 0 0 0 0 0 0 0 0
0 255 255 255 0 0 0 0 0 0 0 0 0 255 255 255 0 0 0 0 0 0 0 0 0 255 255
255 0 0 0 0 0 0 0 0 0 255 255 255 0 0 0 0 0 0 0 0 0 137 137 137 137
137 137 137 137 137 137 137 137 137 137 137 137 137 137 137 137 137
137 137 137 137 137 137 137 137 137 137 137 137 137 137 137 137 137
137 137 137 137 137 137 137 137 137 137 137 137 137 137 137 137 137
137 137 137 137 137 137 137 137 137 137 137 137 137 137 137 137 137
137 137 137 137 137 137 137 137 137 137 137 137 137 137 137 137 137
137 137 137 137 137 137 137 137 137 137 137 137 137 137 137 137 137
137 137 137 137 137 137 137 137 137 137 137 137 137 137 137 137 137
137 137 137 137 137 137 137 137 137 137 137 137 137 137 137 137 137
137 137 137 137 137 137 137 137 137 137 137 137 137 137 137 137 137
137 137 137 137 137 137 137 137 137 137 137 137 137 137 137 137 137
137 137 137 137 137 137 137 137 137 137 137 137 137 137 137 137 137
137 137 137 137 137 137 137 137 137 137 137 137 137 137 137 137 137
137 137 137 137 137 137 137 137 137 137 137 137 137 137 137 137 137
137 137 137 137 137 137 137 137 137 137 137 137 137 137 137 137 137
137 137 137 137 137 137 137 137 137 137 137 137 137 137 137 137 137
137 137 137 137 137 137 137 137 137 137 137 137 137 137 137 137 137
137 137 137 137 137 137 137 137 137 137 137 137 137 137 137 137 137
137 137 137 137 137 137 137
0 0 0 0 0 0 0 0 0 255 255 255 0 0 0 0 0 0 0 0 0 255 255 255 0 0 0 0 0
0 0 0 0 255 255 255 0 0 0 0 0 0 0 0 0 255 255 255 0 0 0 0 0 0 0 0 0
255 255 255 0 0 0 0 0 0 0 0 0 255 255 255 0 0 0 0 0 0 0 0 0 255 255
255 0 0 0 0 0 0 0 0 0 255 255 255 0 0 0 0 0 0 0 0 0 255 255 255 0 0 0
0 0 0 0 0 0 255 255 255 0 0 0 0 0 0 0 0 0 255 255 255 0 0 0 0 0 0 0 0
0 255 255 255 0 0 0 0 0 0 0 0 0 255 255 255 0 0 0 0 0 0 0 0 0 255 255
255 0 0 0 0 0 0 0 0 0 255 255 255 0 0 0 0 0 0 0 0 0 255 255 255 0 0 0
0 0 0 0 0 0 255 255 255 0 0 0 0 0 0 0 0 0 255 255 255 0 0 0 0 0 0 0 0
0 255 255 255 0 0 0 0 0 0 0 0 0 255 255 255 0 0 0 0 0 0 0 0 0 255 255
255 0 0 0 0 0 0 0 0 0 255 255 255 0 0 0 0 0 0 0 0 0 255 255 255 0 0 0
0 0 0 0 0 0 255 255 255 0 0 0 0 0 0 0 0 0 255 255 255 137 137 137 137
137 137 137 137 137 137 137 137 137 137 137 137 137 137 137 137 137
137 137 137 137 137 137 137 137 137 137 137 137 137 137 137 137 137
137 137 137 137 137 137 137 137 137 137 137 137 137 137 137 137 137
137 137 137 137 137 137 137 137 137 137 137 137 137 137 137 137 137
137 137 137 137 137 137 137 137 137 137 137 137 137 137 137 137 137
137 137 137 137 137 137 137 137 137 137 137 137 137 137 137 137 137
137 137 137 137 137 137 137 137 137 137 137 137 137 137 137 137 137
137 137 137 137 137 137 137 137 137 137 137 137 137 137 137 137 137
137 137 137 137 137 137 137 137 137 137 137 137 137 137 137 137 137
137 137 137 137 137 137 137 137 137 137 137 137 137 137 137 137 137
137 137 137 137 137 137 137 137 137 137 137 137 137 137 137 137 137
137 137 137 137 137 137 137 137 137 137 137 137 137 137 137 137 137
137 137 137 137 137 137 137 137 137 137 137 137 137 137 137 137 137
137 137 137 137 137 137 137 137 137 137 137 137 137 137 137 137 137
137 137 137 137 137 137 137 137 137 137 137 137 137 137 137 137 137
137 137 137 137 137 137 137 137 137 137 137 137 137 137 137 137 137
137 137 137 137 137 137 137 137 137 137 137 137 137 137 137 137 137
137 137 137 137 137 137 137
0 0 0 0 0 0 255 255 255 0 0 0 0 0 0 0 0 0 255 255 255 0 0 0 0 0 0 0 0
0 255 255 255 0 0 0 0 0 0 0 0 0 255 255 255 0 0 0 0 0 0 0 0 0 255 255
255 0 0 0 0 0 0 0 0 0 255 255 255 0 0 0 0 0 0 0 0 0 255 255 255 0 0 0
0 0 0 0 0 0 255 255 255 0 0 0 0 0 0 0 0 0 255 255 255 0 0 0 0 0 0 0 0
0 255 255 255 0 0 0 0 0 0 0 0 0 255 255 255 0 0 0 0 0 0 0 0 0 255 255
255 0 0 0 0 0 0 0 0 0 255 255 255 0 0 0 0 0 0 0 0 0 255 255 255 0 0 0
0 0 0 0 0 0 255 255 255 0 0 0 0 0 0 0 0 0 255 255 255 0 0 0 0 0 0 0 0
0 255 255 255 0 0 0 0 0 0 0 0 0 255 255 255 0 0 0 0 0 0 0 0 0 255 255
255 0 0 0 0 0 0 0 0 0 255 255 255 0 0 0 0 0 0 0 0 0 255 255 255 0 0 0
0 0 0 0 0 0 255 255 255 0 0 0 0 0 0 0 0 0 255 255 255 0 0 0 0 0 0 0 0
0 255 255 255 0 0 0 0 0 0 0 0 0 255 255 255 0 0 0 137 137 137 137 137
137 137 137 137 137 137 137 137 137 137 137 137 137 137 137 137 137
137 137 137 137 137 137 137 137 137 137 137 137 137 137 137 137 137
137 137 137 137 137 137 137 137 137 137 137 137 137 137 137 137 137
137 137 137 137 137 137 137 137 137 137 137 137 137 137 137 137 137
137 137 137 137 137 137 137 137 137 137 137 137 137 137 137 137 137
137 137 137 137 137 137 137 137 137 137 137 137 137 137 137 137 137
137 137 137 137 137 137 137 137 137 137 137 137 137 137 137 137 137
137 137 137 137 137 137 137 137 137 137 137 137 137 137 137 137 137
137 137 137 137 137 137 137 137 137 137 137 137 137 137 137 137 137
137 137 137 137 137 137 137 137 137 137 137 137 137 137 137 137 137
137 137 137 137 137 137 137 137 137 137 137 137 137 137 137 137 137
137 137 137 137 137 137 137 137 137 137 137 137 137 137 137 137 137
137 137 137 137 137 137 137 137 137 137 137 137 137 137 137 137 137
137 137 137 137 137 137 137 137 137 137 137 137 137 137 137 137 137
137 137 137 137 137 137 137 137 137 137 137 137 137 137 137 137 137
137 137 137 137 137 137 137 137 137 137 137 137 137 137 137 137 137
137 137 137 137 137 137 137 137 137 137 137 137 137 137 137 137 137
137 137 137 137 137 137
0 0 0 255 255 255 0 0 0 0 0 0 0 0 0 255 255 255 0 0 0 0 0 0 0 0 0 255
255 255 0 0 0 0 0 0 0 0 0 255 255 255 0 0 0 0 0 0 0 0 0 255 255 255 0
0 0 0 0 0 0 0 0 255 255 255 0 0 0 0 0 0 0 0 0 255 255 255 0 0 0 0 0 0
0 0 0 255 255 255 0 0 0 0 0 0 0 0 0 255 255 255 0 0 0 0 0 0 0 0 0 255
255 255 0 0 0 0 0 0 0 0 0 255 255 255 0 0 0 0 0 0 0 0 0 255 255 255 0
0 0 0 0 0 0 0 0 255 255 255 0 0 0 0 0 0 0 0 0 255 255 255 0 0 0 0 0 0
0 0 0 255 255 255 0 0 0 0 0 0 0 0 0 255 255 255 0 0 0 0 0 0 0 0 0 255
255 255 0 0 0 0 0 0 0 0 0 255 255 255 0 0 0 0 0 0 0 0 0 255 255 255 0
0 0 0 0 0 0 0 0 255 255 255 0 0 0 0 0 0 0 0 0 255 255 255 0 0 0 0 0 0
0 0 0 255 255 255 0 0 0 0 0 0 0 0 0 255 255 255 0 0 0 0 0 0 0 0 0 255
255 255 0 0 0 0 0 0 0 0 0 255 255 255 0 0 0 0 0 0 137 137 137 137 137
137 137 137 137 137 137 137 137 137 137 137 137 137 137 137 137 137
137 137 137 137 137 137 137 137 137 137 137 137 137 137 137 137 137
137 137 137 137 137 137 137 137 137 137 137 137 137 137 137 137 137
137 137 137 137 137 137 137 137 137 137 137 137 137 137 137 137 137
137 137 137 137 137 137 137 137 137 137 137 137 137 137 137 137 137
137 137 137 137 137 137 137 137 137 137 137 137 137 137 137 137 137
137 137 137 137 137 137 137 137 137 137 137 137 137 137 137 137 137
137 137 137 137 137 137 137 137 137 137 137 137 137 137 137 137 137
137 137 137 137 137 137 137 137 137 137 137 137 137 137 137 137 137
137 137 137 137 137 137 137 137 137 137 137 137 137 137 137 137 137
137 137 137 137 137 137 137 137 137 137 137 137 137 137 137 137 137
137 137 137 137 137 137 137 137 137 137 137 137 137 137 137 137 137
137 137 137 137 137 137 137 137 137 137 137 137 137 137 137 137 137
137 137 137 137 137 137 137 137 137 137 137 137 137 137 137 137 137
137 137 137 137 137 137 137 137 137 137 137 137 137 137 137 137 137
137 137 137 137 137 137 137 137 137 137 137 137 137 137 137 137 137
137 137 137 137 137 137 137 137 137 137 137 137 137 137 137 137 137
137 137 137 137 137 137
255 255 255 0 0 0 0 0 0 0 0 0 255 255 255 0 0 0 0 0 0 0 0 0 255 255
255 0 0 0 0 0 0 0 0 0 255 255 255 0 0 0 0 0 0 0 0 0 255 255 255 0 0 0
0 0 0 0 0 0 255 255 255 0 0 0 0 0 0 0 0 0 255 255 255 0 0 0 0 0 0 0 0
0 255 255 255 0 0 0 0 0 0 0 0 0 255 255 255 0 0 0 0 0 0 0 0 0 255 255
255 0 0 0 0 0 0 0 0 0 255 255 255 0 0 0 0 0 0 0 0 0 255 255 255 0 0 0
0 0 0 0 0 0 255 255 255 0 0 0 0 0 0 0 0 0 255 255 255 0 0 0 0 0 0 0 0
0 255 255 255 0 0 0 0 0 0 0 0 0 255 255 255 0 0 0 0 0 0 0 0 0 255 255
255 0 0 0 0 0 0 0 0 0 255 255 255 0 0 0 0 0 0 0 0 0 255 255 255 0 0 0
0 0 0 0 0 0 255 255 255 0 0 0 0 0 0 0 0 0 255 255 255 0 0 0 0 0 0 0 0
0 255 255 255 0 0 0 0 0 0 0 0 0 255 255 255 0 0 0 0 0 0 0 0 0 255 255
255 0 0 0 0 0 0 0 0 0 255 255 255 0 0 0 0 0 0 0 0 0 137 137 137 137
137 137 137 137 137 137 137 137 137 137 137 137 137 137 137 137 137
137 137 137 137 137 137 137 137 137 137 137 137 137 137 137 137 137
137 137 137 137 137 137 137 137 137 137 137 137 137 137 137 137 137
137 137 137 137 137 137 137 137 137 137 137 137 137 137 137 137 137
137 137 137 137 137 137 137 137 137 137 137 137 137 137 137 137 137
137 137 137 137 137 137 137 137 137 137 137 137 137 137 137 137 137
137 137 137 137 137 137 137 137 137 137 137 137 137 137 137 137 137
137 137 137 137 137 137 137 137 137 137 137 137 137 137 137 137 137
137 137 137 137 137 137 137 137 137 137 137 137 137 137 137 137 137
137 137 137 137 137 137 137 137 137 137 137 137 137 137 137 137 137
137 137 137 137 137 137 137 137 137 137 137 137 137 137 137 137 137
137 137 137 137 137 137 137 137 137 137 137 137 137 137 137 137 137
137 137 137 137 137 137 137 137 137 137 137 137 137 137 137 137 137
137 137 137 137 137 137 137 137 137 137 137 137 137 137 137 137 137
137 137 137 137 137 137 137 137 137 137 137 137 137 137 137 137 137
137 137 137 137 137 137 137 137 137 137 137 137 137 137 137 137 137
137 137 137 137 137 137 137 137 137 137 137 137 137 137 137 137 137
137 137 137 137 137 137 137
0 0 0 0 0 0 0 0 0 255 255 255 0 0 0 0 0 0 0 0 0 255 255 255 0 0 0 0 0
0 0 0 0 255 255 255 0 0 0 0 0 0 0 0 0 255 255 255 0 0 0 0 0 0 0 0 0
255 255 255 0 0 0 0 0 0 0 0 0 255 255 255 0 0 0 0 0 0 0 0 0 255 255
255 0 0 0 0 0 0 0 0 0 255 255 255 0 0 0 0 0 0 0 0 0 255 255 255 0 0 0
0 0 0 0 0 0 255 255 255 0 0 0 0 0 0 0 0 0 255 255 255 0 0 0 0 0 0 0 0
0 255 255 255 0 0 0 0 0 0 0 0 0 255 255 255 0 0 0 0 0 0 0 0 0 255 255
255 0 0 0 0 0 0 0 0 0 255 255 255 0 0 0 0 0 0 0 0 0 255 255 255 0 0 0
0 0 0 0 0 0 255 255 255 0 0 0 0 0 0 0 0 0 255 255 255 0 0 0 0 0 0 0 0
0 255 255 255 0 0 0 0 0 0 0 0 0 255 255 255 0 0 0 0 0 0 0 0 0 255 255
255 0 0 0 0 0 0 0 0 0 255 255 255 0 0 0 0 0 0 0 0 0 255 255 255 0 0 0
0 0 0 0 0 0 255 255 255 0 0 0 0 0 0 0 0 0 255 255 255 137 137 137 137
137 137 137 137 137 137 137 137 137 137 137 137 137 137 137 137 137
137 137 137 137 137 137 137 137 137 137 137 137 137 137 137 137 137
137 137 137 137 137 137 137 137 137 137 137 137 137 137 137 137 137
137 137 137 137 137 137 137 137 137 137 137 137 137 137 137 137 137
137 137 137 137 137 137 137 137 137 137 137 137 137 137 137 137 137
137 137 137 137 137 137 137 137 137 137 137 137 137 137 137 137 137
137 137 137 137 137 137 137 137 137 137 137 137 137 137 137 137 137
137 137 137 137 137 137 137 137 137 137 137 137 137 137 137 137 137
137 137 137 137 137 137 137 137 137 137 137 137 137 137 137 137 137
137 137 137 137 137 137 137 137 137 137 137 137 137 137 137 137 137
137 137 137 137 137 137 137 137 137 137 137 137 137 137 137 137 137
137 137 137 137 137 137 137 137 137 137 137 137 137 137 137 137 137
137 137 137 137 137 137 137 137 137 137 137 137 137 137 137 137 137
137 137 137 137 137 137 137 137 137 137 137 137 137 137 137 137 137
137 137 137 137 137 137 137 137 137 137 137 137 137 137 137 137 137
137 137 137 137 137 137 137 137 137 137 137 137 137 137 137 137 137
137 137 137 137 137 137 137 137 137 137 137 137 137 137 137 137 137
137 137 137 137 137 137 137
0 0 0 0 0 0 255 255 255 0 0 0 0 0 0 0 0 0 255 255 255 0 0 0 0 0 0 0 0
0 255 255 255 0 0 0 0 0 0 0 0 0 255 255 255 0 0 0 0 0 0 0 0 0 255 255
255 0 0 0 0 0 0 0 0 0 255 255 255 0 0 0 0 0 0 0 0 0 255 255 255 0 0 0
0 0 0 0 0 0 255 255 255 0 0 0 0 0 0 0 0 0 255 255 255 0 0 0 0 0 0 0 0
0 255 255 255 0 0 0 0 0 0 0 0 0 255 255 255 0 0 0 0 0 0 0 0 0 255 255
255 0 0 0 0 0 0 0 0 0 255 255 255 0 0 0 0 0 0 0 0 0 255 255 255 0 0 0
0 0 0 0 0 0 255 255 255 0 0 0 0 0 0 0 0 0 255 255 255 0 0 0 0 0 0 0 0
0 255 255 255 0 0 0 0 0 0 0 0 0 255 255 255 0 0 0 0 0 0 0 0 0 255 255
255 0 0 0 0 0 0 0 0 0 255 255 255 0 0 0 0 0 0 0 0 0 255 255 255 0 0 0
0 0 0 0 0 0 255 255 255 0 0 0 0 0 0 0 0 0 255 255 255 0 0 0 0 0 0 0 0
0 255 255 255 0 0 0 0 0 0 0 0 0 255 255 255 0 0 0 137 137 137 137 137
137 137 137 137 137 137 137 137 137 137 137 137 137 137 137 137 137
137 137 137 137 137 137 137 137 137 137 137 137 137 137 137 137 137
137 137 137 137 137 137 137 137 137 137 137 137 137 137 137 137 137
137 137 137 137 137 137 137 137 137 137 137 137 137 137 137 137 137
137 137 137 137 137 137 137 137 137 137 137 137 137 137 137 137 137
137 137 137 137 137 137 137 137 137 137 137 137 137 137 137 137 137
137 137 137 137 137 137 137 137 137 137 137 137 137 137 137 137 137
137 137 137 137 137 137 137 137 137 137 137 137 137 137 137 137 137
137 137 137 137 137 137 137 137 137 137 137 137 137 137 137 137 137
137 137 137 137 137 137 137 137 137 137 137 137 137 137 137 137 137
137 137 137 137 137 137 137 137 137 137 137 137 137 137 137 137 137
137 137 137 137 137 137 137 137 137 137 137 137 137 137 137 137 137
137 137 137 137 137 137 137 137 137 137 137 137 137 137 137 137 137
137 137 137 137 137 137 137 137 137 137 137 137 137 137 137 137 137
137 137 137 137 137 137 137 137 137 137 137 137 137 137 137 137 137
137 137 137 137 137 137 137 137 137 137 137 137 137 137 137 137 137
137 137 137 137 137 137 137 137 137 137 137 137 137 137 137 137 137
137 137 137 137 137 137
0 0 0 255 255 255 0 0 0 0 0 0 0 0 0 255 255 255 0 0 0 0 0 0 0 0 0 255
255 255 0 0 0 0 0 0 0 0 0 255 255 255 0 0 0 0 0 0 0 0 0 255 255 255 0
0 0 0 0 0 0 0 0 255 255 255 0 0 0 0 0 0 0 0 0 255 255 255 0 0 0 0 0 0
0 0 0 255 255 255 0 0 0 0 0 0 0 0 0 255 255 255 0 0 0 0 0 0 0 0 0 255
255 255 0 0 0 0 0 0 0 0 0 255 255 255 0 0 0 0 0 0 0 0 0 255 255 255 0
0 0 0 0 0 0 0 0 255 255 255 0 0 0 0 0 0 0 0 0 255 255 255 0 0 0 0 0 0
0 0 0 255 255 255 0 0 0 0 0 0 0 0 0 255 255 255 0 0 0 0 0 0 0 0 0 255
255 255 0 0 0 0 0 0 0 0 0 255 255 255 0 0 0 0 0 0 0 0 0 255 255 255 0
0 0 0 0 0 0 0 0 255 255 255 0 0 0 0 0 0 0 0 0 255 255 255 0 0 0 0 0 0
0 0 0 255 255 255 0 0 0 0 0 0 0 0 0 255 255 255 0 0 0 0 0 0 0 0 0 255
255 255 0 0 0 0 0 0 0 0 0 255 255 255 0 0 0 0 0 0 137 137 137 137 137
137 137 137 137 137 137 137 137 137 137 137 137 137 137 137 137 137
137 137 137 137 137 137 137 137 137 137 137 137 137 137 137 137 137
137 137 137 137 137 137 137 137 137 137 137 137 137 137 137 137 137
137 137 137 137 137 137 137 137 137 137 137 137 137 137 137 137 137
137 137 137 137 137 137 137 137 137 137 137 137 137 137 137 137 137
137 137 137 137 137 137 137 137 137 137 137 137 137 137 137 137 137
137 137 137 137 137 137 137 137 137 137 137 137 137 137 137 137 137
137 137 137 137 137 137 137 137 137 137 137 137 137 137 137 137 137
137 137 137 137 137 137 137 137 137 137 137 137 137 137 137 137 137
137 137 137 137 137 137 137 137 137 137 137 137 137 137 137 137 137
137 137 137 137 137 137 137 137 137 137 137 137 137 137 137 137 137
137 137 137 137 137 137 137 137 137 137 137 137 137 137 137 137 137
137 137 137 137 137 137 137 137 137 137 137 137 137 137 137 137 137
137 137 137 137 137 137 137 137 137 137 137 137 137 137 137 137 137
137 137 137 137 137 137 137 137 137 137 137 137 137 137 137 137 137
137 137 137 137 137 137 137 137 137 137 137 137 137 137 137 137 137
137 137 137 137 137 137 137 137 137 137 137 137 137 137 137 137 137
137 137 137 137 137 137
255 255 255 0 0 0 0 0 0 0 0 0 255 255 255 0 0 0 0 0 0 0 0 0 255 255
255 0 0 0 0 0 0 0 0 0 255 255 255 0 0 0 0 0 0 0 0 0 255 255 255 0 0 0
0 0 0 0 0 0 255 255 255 0 0 0 0 0 0 0 0 0 255 255 255 0 0 0 0 0 0 0 0
0 255 255 255 0 0 0 0 0 0 0 0 0 255 255 255 0 0 0 0 0 0 0 0 0 255 255
255 0 0 0 0 0 0 0 0 0 255 255 255 0 0 0 0 0 0 0 0 0 255 255 255 0 0 0
0 0 0 0 0 0 255 255 255 0 0 0 0 0 0 0 0 0 255 255 255 0 0 0 0 0 0 0 0
0 255 255 255 0 0 0 0 0 0 0 0 0 255 255 255 0 0 0 0 0 0 0 0 0 255 255
255 0 0 0 0 0 0 0 0 0 255 255 255 0 0 0 0 0 0 0 0 0 255 255 255 0 0 0
0 0 0 0 0 0 255 255 255 0 0 0 0 0 0 0 0 0 255 255 255 0 0 0 0 0 0 0 0
0 255 255 255 0 0 0 0 0 0 0 0 0 255 255 255 0 0 0 0 0 0 0 0 0 255 255
255 0 0 0 0 0 0 0 0 0 255 255 255 0 0 0 0 0 0 0 0 0 137 137 137 137
137 137 137 137 137 137 137 137 137 137 137 137 137 137 137 137 137
137 137 137 137 137 137 137 137 137 137 137 137 137 137 137 137 137
137 137 137 137 137 137 137 137 137 137 137 137 137 137 137 137 137
137 137 137 137 137 137 137 137 137 137 137 137 137 137 137 137 137
137 137 137 137 137 137 137 137 137 137 137 137 137 137 137 137 137
137 137 137 137 137 137 137 137 137 137 137 137 137 137 137 137 137
137 137 137 137 137 137 137 137 137 137 137 137 137 137 137 137 137
137 137 137 137 137 137 137 137 137 137 137 137 137 137 137 137 137
137 137 137 137 137 137 137 137 137 137 137 137 137 137 137 137 137
137 137 137 137 137 137 137 137 137 137 137 137 137 137 137 137 137
137 137 137 137 137 137 137 137 137 137 137 137 137 137 137 137 137
137 137 137 137 137 137 137 137 137 137 137 137 137 137 137 137 137
137 137 137 137 137 137 137 137 137 137 137 137 137 137 137 137 137
137 137 137 137 137 137 137 137 137 137 137 137 137 137 137 137 137
137 137 137 137 137 137 137 137 137 137 137 137 137 137 137 137 137
137 137 137 137 137 137 137 137 137 137 137 137 137 137 137 137 137
137 137 137 137 137 137 137 137 137 137 137 137 137 137 137 137 137
137 137 137 137 137 137 137
0 0 0 0 0 0 0 0 0 255 255 255 0 0 0 0 0 0 0 0 0 255 255 255 0 0 0 0 0
0 0 0 0 255 255 255 0 0 0 0 0 0 0 0 0 255 255 255 0 0 0 0 0 0 0 0 0
255 255 255 0 0 0 0 0 0 0 0 0 255 255 255 0 0 0 0 0 0 0 0 0 255 255
255 0 0 0 0 0 0 0 0 0 255 255 255 0 0 0 0 0 0 0 0 0 255 255 255 0 0 0
0 0 0 0 0 0 255 255 255 0 0 0 0 0 0 0 0 0 255 255 255 0 0 0 0 0 0 0 0
0 255 255 255 0 0 0 0 0 0 0 0 0 255 255 255 0 0 0 0 0 0 0 0 0 255 255
255 0 0 0 0 0 0 0 0 0 255 255 255 0 0 0 0 0 0 0 0 0 255 255 255 0 0 0
0 0 0 0 0 0 255 255 255 0 0 0 0 0 0 0 0 0 255 255 255 0 0 0 0 0 0 0 0
0 255 255 255 0 0 0 0 0 0 0 0 0 255 255 255 0 0 0 0 0 0 0 0 0 255 255
255 0 0 0 0 0 0 0 0 0 255 255 255 0 0 0 0 0 0 0 0 0 255 255 255 0 0 0
0 0 0 0 0 0 255 255 255 0 0 0 0 0 0 0 0 0 255 255 255 137 137 137 137
137 137 137 137 137 137 137 137 137 137 137 137 137 137 137 137 137
137 137 137 137 137 137 137 137 137 137 137 137 137 137 137 137 137
137 137 137 137 137 137 137 137 137 137 137 137 137 137 137 137 137
137 137 137 137 137 137 137 137 137 137 137 137 137 137 137 137 137
137 137 137 137 137 137 137 137 137 137 137 137 137 137 137 137 137
137 137 137 137 137 137 137 137 137 137 137 137 137 137 137 137 137
137 137 137 137 137 137 137 137 137 137 137 137 137 137 137 137 137
137 137 137 137 137 137 137 137 137 137 137 137 137 137 137 137 137
137 137 137 137 137 137 137 137 137 137 137 137 137 137 137 137 137
137 137 137 137 137 137 137 137 137 137 137 137 137 137 137 137 137
137 137 137 137 137 137 137 137 137 137 137 137 137 137 137 137 137
137 137 137 137 137 137 137 137 137 137 137 137 137 137 137 137 137
137 137 137 137 137 137 137 137 137 137 137 137 137 137 137 137 137
137 137 137 137 137 137 137 137 137 137 137 137 137 137 137 137 137
137 137 137 137 137 137 137 137 137 137 137 137 137 137 137 137 137
137 137 137 137 137 137 137 137 137 137 137 137 137 137 137 137 137
137 137 137 137 137 137 137 137 137 137 137 137 137 137 137 137 137
137 137 137 137 137 137 137
0 0 0 0 0 0 255 255 255 0 0 0 0 0 0 0 0 0 255 255 255 0 0 0 0 0 0 0 0
0 255 255 255 0 0 0 0 0 0 0 0 0 255 255 255 0 0 0 0 0 0 0 0 0 255 255
255 0 0 0 0 0 0 0 0 0 255 255 255 0 0 0 0 0 0 0 0 0 255 255 255 0 0 0
0 0 0 0 0 0 255 255 255 0 0 0 0 0 0 0 0 0 255 255 255 0 0 0 0 0 0 0 0
0 255 255 255 0 0 0 0 0 0 0 0 0 255 255 255 0 0 0 0 0 0 0 0 0 255 255
255 0 0 0 0 0 0 0 0 0 255 255 255 0 0 0 0 0 0 0 0 0 255 255 255 0 0 0
0 0 0 0 0 0 255 255 255 0 0 0 0 0 0 0 0 0 255 255 255 0 0 0 0 0 0 0 0
0 255 255 255 0 0 0 0 0 0 0 0 0 255 255 255 0 0 0 0 0 0 0 0 0 255 255
255 0 0 0 0 0 0 0 0 0 255 255 255 0 0 0 0 0 0 0 0 0 255 255 255 0 0 0
0 0 0 0 0 0 255 255 255 0 0 0 0 0 0 0 0 0 255 255 255 0 0 0 0 0 0 0 0
0 255 255 255 0 0 0 0 0 0 0 0 0 255 255 255 0 0 0 137 137 137 137 137
137 137 137 137 137 137 137 137 137 137 137 137 137 137 137 137 137
137 137 137 137 137 137 137 137 137 137 137 137 137 137 137 137 137
137 137 137 137 137 137 137 137 137 137 137 137 137 137 137 137 137
137 137 137 137 137 137 137 137 137 137 137 137 137 137 137 137 137
137 137 137 137 137 137 137 137 137 137 137 137 137 137 137 137 137
137 137 137 137 137 137 137 137 137 137 137 137 137 137 137 137 137
137 137 137 137 137 137 137 137 137 137 137 137 137 137 137 137 137
137 137 137 137 137 137 137 137 137 137 137 137 137 137 137 137 137
137 137 137 137 137 137 137 137 137 137 137 137 137 137 137 137 137
137 137 137 137 137 137 137 137 137 137 137 137 137 137 137 137 137
137 137 137 137 137 137 137 137 137 137 137 137 137 137 137 137 137
137 137 137 137 137 137 137 137 137 137 137 137 137 137 137 137 137
137 137 137 137 137 137 137 137 137 137 137 137 137 137 137 137 137
137 137 137 137 137 137 137 137 137 137 137 137 137 137 137 137 137
137 137 137 137 137 137 137 137 137 137 137 137 137 137 137 137 137
137 137 137 137 137 137 137 137 137 137 137 137 137 137 137 137 137
137 137 137 137 137 137 137 137 137 137 137 137 137 137 137 137 137
137 137 137 137 137 137
0 0 0 255 255 255 0 0 0 0 0 0 0 0 0 255 255 255 0 0 0 0 0 0 0 0 0 255
255 255 0 0 0 0 0 0 0 0 0 255 255 255 0 0 0 0 0 0 0 0 0 255 255 255 0
0 0 0 0 0 0 0 0 255 255 255 0 0 0 0 0 0 0 0 0 255 255 255 0 0 0 0 0 0
0 0 0 255 255 255 0 0 0 0 0 0 0 0 0 255 255 255 0 0 0 0 0 0 0 0 0 255
255 255 0 0 0 0 0 0 0 0 0 255 255 255 0 0 0 0 0 0 0 0 0 255 255 255 0
0 0 0 0 0 0 0 0 255 255 255 0 0 0 0 0 0 0 0 0 255 255 255 0 0 0 0 0 0
0 0 0 255 255 255 0 0 0 0 0 0 0 0 0 255 255 255 0 0 0 0 0 0 0 0 0 255
255 255 0 0 0 0 0 0 0 0 0 255 255 255 0 0 0 0 0 0 0 0 0 255 255 255 0
0 0 0 0 0 0 0 0 255 255 255 0 0 0 0 0 0 0 0 0 255 255 255 0 0 0 0 0 0
0 0 0 255 255 255 0 0 0 0 0 0 0 0 0 255 255 255 0 0 0 0 0 0 0 0 0 255
255 255 0 0 0 0 0 0 0 0 0 255 255 255 0 0 0 0 0 0 137 137 137 137 137
137 137 137 137 137 137 137 137 137 137 137 137 137 137 137 137 137
137 137 137 137 137 137 137 137 137 137 137 137 137 137 137 137 137
137 137 137 137 137 137 137 137 137 137 137 137 137 137 137 137 137
137 137 137 137 137 137 137 137 137 137 137 137 137 137 137 137 137
137 137 137 137 137 137 137 137 137 137 137 137 137 137 137 137 137
137 137 137 137 137 137 137 137 137 137 137 137 137 137 137 137 137
137 137 137 137 137 137 137 137 137 137 137 137 137 137 137 137 137
137 137 137 137 137 137 137 137 137 137 137 137 137 137 137 137 137
137 137 137 137 137 137 137 137 137 137 137 137 137 137 137 137 137
137 137 137 137 137 137 137 137 137 137 137 137 137 137 137 137 137
137 137 137 137 137 137 137 137 137 137 137 137 137 137 137 137 137
137 137 137 137 137 137 137 137 137 137 137 137 137 137 137 137 137
137 137 137 137 137 137 137 137 137 137 137 137 137 137 137 137 137
137 137 137 137 137 137 137 137 137 137 137 137 137 137 137 137 137
137 137 137 137 137 137 137 137 137 137 137 137 137 137 137 137 137
137 137 137 137 137 137 137 137 137 137 137 137 137 137 137 137 137
137 137 137 137 137 137 137 137 137 137 137 137 137 137 137 137 137
137 137 137 137 137 137
255 255 255 0 0 0 0 0 0 0 0 0 255 255 255 0 0 0 0 0 0 0 0 0 255 255
255 0 0 0 0 0 0 0 0 0 255 255 255 0 0 0 0 0 0 0 0 0 255 255 255 0 0 0
0 0 0 0 0 0 255 255 255 0 0 0 0 0 0 0 0 0 255 255 255 0 0 0 0 0 0 0 0
0 255 255 255 0 0 0 0 0 0 0 0 0 255 255 255 0 0 0 0 0 0 0 0 0 255 255
255 0 0 0 0 0 0 0 0 0 255 255 255 0 0 0 0 0 0 0 0 0 255 255 255 0 0 0
0 0 0 0 0 0 255 255 255 0 0 0 0 0 0 0 0 0 255 255 255 0 0 0 0 0 0 0 0
0 255 255 255 0 0 0 0 0 0 0 0 0 255 255 255 0 0 0 0 0 0 0 0 0 255 255
255 0 0 0 0 0 0 0 0 0 255 255 255 0 0 0 0 0 0 0 0 0 255 255 255 0 0 0
0 0 0 0 0 0 255 255 255 0 0 0 0 0 0 0 0 0 255 255 255 0 0 0 0 0 0 0 0
0 255 255 255 0 0 0 0 0 0 0 0 0 255 255 255 0 0 0 0 0 0 0 0 0 255 255
255 0 0 0 0 0 0 0 0 0 255 255 255 0 0 0 0 0 0 0 0 0 137 137 137 137
137 137 137 137 137 137 137 137 137 137 137 137 137 137 137 137 137
137 137 137 137 137 137 137 137 137 137 137 137 137 137 137 137 137
137 137 137 137 137 137 137 137 137 137 137 137 137 137 137 137 137
137 137 137 137 137 137 137 137 137 137 137 137 137 137 137 137 137
137 137 137 137 137 137 137 137 137 137 137 137 137 137 137 137 137
137 137 137 137 137 137 137 137 137 137 137 137 137 137 137 137 137
137 137 137 137 137 137 137 137 137 137 137 137 137 137 137 137 137
137 137 137 137 137 137 137 137 137 137 137 137 137 137 137 137 137
137 137 137 137 137 137 137 137 137 137 137 137 137 137 137 137 137
137 137 137 137 137 137 137 137 137 137 137 137 137 137 137 137 137
137 137 137 137 137 137 137 137 137 137 137 137 137 137 137 137 137
137 137 137 137 137 137 137 137 137 137 137 137 137 137 137 137 137
137 137 137 137 137 137 137 137 137 137 137 137 137 137 137 137 137
137 137 137 137 137 137 137 137 137 137 137 137 137 137 137 137 137
137 137 137 137 137 137 137 137 137 137 137 137 137 137 137 137 137
137 137 137 137 137 137 137 137 137 137 137 137 137 137 137 137 137
137 137 137 137 137 137 137 137 137 137 137 137 137 137 137 137 137
137 137 137 137 137 137 137
0 0 0 0 0 0 0 0 0 255 255 255 0 0 0 0 0 0 0 0 0 255 255 255 0 0 0 0 0
0 0 0 0 255 255 255 0 0 0 0 0 0 0 0 0 255 255 255 0 0 0 0 0 0 0 0 0
255 255 255 0 0 0 0 0 0 0 0 0 255 255 255 0 0 0 0 0 0 0 0 0 255 255
255 0 0 0 0 0 0 0 0 0 255 255 255 0 0 0 0 0 0 0 0 0 255 255 255 0 0 0
0 0 0 0 0 0 255 255 255 0 0 0 0 0 0 0 0 0 255 255 255 0 0 0 0 0 0 0 0
0 255 255 255 0 0 0 0 0 0 0 0 0 255 255 255 0 0 0 0 0 0 0 0 0 255 255
255 0 0 0 0 0 0 0 0 0 255 255 255 0 0 0 0 0 0 0 0 0 255 255 255 0 0 0
0 0 0 0 0 0 255 255 255 0 0 0 0 0 0 0 0 0 255 255 255 0 0 0 0 0 0 0 0
0 255 255 255 0 0 0 0 0 0 0 0 0 255 255 255 0 0 0 0 0 0 0 0 0 255 255
255 0 0 0 0 0 0 0 0 0 255 255 255 0 0 0 0 0 0 0 0 0 255 255 255 0 0 0
0 0 0 0 0 0 255 255 255 0 0 0 0 0 0 0 0 0 255 255 255 137 137 137 137
137 137 137 137 137 137 137 137 137 137 137 137 137 137 137 137 137
137 137 137 137 137 137 137 137 137 137 137 137 137 137 137 137 137
137 137 137 137 137 137 137 137 137 137 137 137 137 137 137 137 137
137 137 137 137 137 137 137 137 137 137 137 137 137 137 137 137 137
137 137 137 137 137 137 137 137 137 137 137 137 137 137 137 137 137
137 137 137 137 137 137 137 137 137 137 137 137 137 137 137 137 137
137 137 137 137 137 137 137 137 137 137 137 137 137 137 137 137 137
137 137 137 137 137 137 137 137 137 137 137 137 137 137 137 137 137
137 137 137 137 137 137 137 137 137 137 137 137 137 137 137 137 137
137 137 137 137 137 137 137 137 137 137 137 137 137 137 137 137 137
137 137 137 137 137 137 137 137 137 137 137 137 137 137 137 137 137
137 137 137 137 137 137 137 137 137 137 137 137 137 137 137 137 137
137 137 137 137 137 137 137 137 137 137 137 137 137 137 137 137 137
137 137 137 137 137 137 137 137 137 137 137 137 137 137 137 137 137
137 137 137 137 137 137 137 137 137 137 137 137 137 137 137 137 137
137 137 137 137 137 137 137 137 137 137 137 137 137 137 137 137 137
137 137 137 137 137 137 137 137 137 137 137 137 137 137 137 137 137
137 137 137 137 137 137 137
0 0 0 0 0 0 255 255 255 0 0 0 0 0 0 0 0 0 255 255 255 0 0 0 0 0 0 0 0
0 255 255 255 0 0 0 0 0 0 0 0 0 255 255 255 0 0 0 0 0 0 0 0 0 255 255
255 0 0 0 0 0 0 0 0 0 255 255 255 0 0 0 0 0 0 0 0 0 255 255 255 0 0 0
0 0 0 0 0 0 255 255 255 0 0 0 0 0 0 0 0 0 255 255 255 0 0 0 0 0 0 0 0
0 255 255 255 0 0 0 0 0 0 0 0 0 255 255 255 0 0 0 0 0 0 0 0 0 255 255
255 0 0 0 0 0 0 0 0 0 255 255 255 0 0 0 0 0 0 0 0 0 255 255 255 0 0 0
0 0 0 0 0 0 255 255 255 0 0 0 0 0 0 0 0 0 255 255 255 0 0 0 0 0 0 0 0
0 255 255 255 0 0 0 0 0 0 0 0 0 255 255 255 0 0 0 0 0 0 0 0 0 255 255
255 0 0 0 0 0 0 0 0 0 255 255 255 0 0 0 0 0 0 0 0 0 255 255 255 0 0 0
0 0 0 0 0 0 255 255 255 0 0 0 0 0 0 0 0 0 255 255 255 0 0 0 0 0 0 0 0
0 255 255 255 0 0 0 0 0 0 0 0 0 255 255 255 0 0 0 137 137 137 137 137
137 137 137 137 137 137 137 137 137 137 137 137 137 137 137 137 137
137 137 137 137 137 137 137 137 137 137 137 137 137 137 137 137 137
137 137 137 137 137 137 137 137 137 137 137 137 137 137 137 137 137
137 137 137 137 137 137 137 137 137 137 137 137 137 137 137 137 137
137 137 137 137 137 137 137 137 137 137 137 137 137 137 137 137 137
137 137 137 137 137 137 137 137 137 137 137 137 137 137 137 137 137
137 137 137 137 137 137 137 137 137 137 137 137 137 137 137 137 137
137 137 137 137 137 137 137 137 137 137 137 137 137 137 137 137 137
137 137 137 137 137 137 137 137 137 137 137 137 137 137 137 137 137
137 137 137 137 137 137 137 137 137 137 137 137 137 137 137 137 137
137 137 137 137 137 137 137 137 137 137 137 137 137 137 137 137 137
137 137 137 137 137 137 137 137 137 137 137 137 137 137 137 137 137
137 137 137 137 137 137 137 137 137 137 137 137 137 137 137 137 137
137 137 137 137 137 137 137 137 137 137 137 137 137 137 137 137 137
137 137 137 137 137 137 137 137 137 137 137 137 137 137 137 137 137
137 137 137 137 137 137 137 137 137 137 137 137 137 137 137 137 137
137 137 137 137 137 137 137 137 137 137 137 137 137 137 137 137 137
137 137 137 137 137 137
0 0 0 255 255 255 0 0 0 0 0 0 0 0 0 255 255 255 0 0 0 0 0 0 0 0 0 255
255 255 0 0 0 0 0 0 0 0 0 255 255 255 0 0 0 0 0 0 0 0 0 255 255 255 0
0 0 0 0 0 0 0 0 255 255 255 0 0 0 0 0 0 0 0 0 255 255 255 0 0 0 0 0 0
0 0 0 255 255 255 0 0 0 0 0 0 0 0 0 255 255 255 0 0 0 0 0 0 0 0 0 255
255 255 0 0 0 0 0 0 0 0 0 255 255 255 0 0 0 0 0 0 0 0 0 255 255 255 0
0 0 0 0 0 0 0 0 255 255 255 0 0 0 0 0 0 0 0 0 255 255 255 0 0 0 0 0 0
0 0 0 255 255 255 0 0 0 0 0 0 0 0 0 255 255 255 0 0 0 0 0 0 0 0 0 255
255 255 0 0 0 0 0 0 0 0 0 255 255 255 0 0 0 0 0 0 0 0 0 255 255 255 0
0 0 0 0 0 0 0 0 255 255 255 0 0 0 0 0 0 0 0 0 255 255 255 0 0 0 0 0 0
0 0 0 255 255 255 0 0 0 0 0 0 0 0 0 255 255 255 0 0 0 0 0 0 0 0 0 255
255 255 0 0 0 0 0 0 0 0 0 255 255 255 0 0 0 0 0 0 137 137 137 137 137
137 137 137 137 137 137 137 137 137 137 137 137 137 137 137 137 137
137 137 137 137 137 137 137 137 137 137 137 137 137 137 137 137 137
137 137 137 137 137 137 137 137 137 137 137 137 137 137 137 137 137
137 137 137 137 137 137 137 137 137 137 137 137 137 137 137 137 137
137 137 137 137 137 137 137 137 137 137 137 137 137 137 137 137 137
137 137 137 137 137 137 137 137 137 137 137 137 137 137 137 137 137
137 137 137 137 137 137 137 137 137 137 137 137 137 137 137 137 137
137 137 137 137 137 137 137 137 137 137 137 137 137 137 137 137 137
137 137 137 137 137 137 137 137 137 137 137 137 137 137 137 137 137
137 137 137 137 137 137 137 137 137 137 137 137 137 137 137 137 137
137 137 137 137 137 137 137 137 137 137 137 137 137 137 137 137 137
137 137 137 137 137 137 137 137 137 137 137 137 137 137 137 137 137
137 137 137 137 137 137 137 137 137 137 137 137 137 137 137 137 137
137 137 137 137 137 137 137 137 137 137 137 137 137 137 137 137 137
137 137 137 137 137 137 137 137 137 137 137 137 137 137 137 137 137
137 137 137 137 137 137 137 137 137 137 137 137 137 137 137 137 137
137 137 137 137 137 137 137 137 137 137 137 137 137 137 137 137 137
137 137 137 137 137 137
255 255 255 0 0 0 0 0 0 0 0 0 255 255 255 0 0 0 0 0 0 0 0 0 255 255
255 0 0 0 0 0 0 0 0 0 255 255 255 0 0 0 0 0 0 0 0 0 255 255 255 0 0 0
0 0 0 0 0 0 255 255 255 0 0 0 0 0 0 0 0 0 255 255 255 0 0 0 0 0 0 0 0
0 255 255 255 0 0 0 0 0 0 0 0 0 255 255 255 0 0 0 0 0 0 0 0 0 255 255
255 0 0 0 0 0 0 0 0 0 255 255 255 0 0 0 0 0 0 0 0 0 255 255 255 0 0 0
0 0 0 0 0 0 255 255 255 0 0 0 0 0 0 0 0 0 255 255 255 0 0 0 0 0 0 0 0
0 255 255 255 0 0 0 0 0 0 0 0 0 255 255 255 0 0 0 0 0 0 0 0 0 255 255
255 0 0 0 0 0 0 0 0 0 255 255 255 0 0 0 0 0 0 0 0 0 255 255 255 0 0 0
0 0 0 0 0 0 255 255 255 0 0 0 0 0 0 0 0 0 255 255 255 0 0 0 0 0 0 0 0
0 255 255 255 0 0 0 0 0 0 0 0 0 255 255 255 0 0 0 0 0 0 0 0 0 255 255
255 0 0 0 0 0 0 0 0 0 255 255 255 0 0 0 0 0 0 0 0 0 137 137 137 137
137 137 137 137 137 137 137 137 137 137 137 137 137 137 137 137 137
137 137 137 137 137 137 137 137 137 137 137 137 137 137 137 137 137
137 137 137 137 137 137 137 137 137 137 137 137 137 137 137 137 137
137 137 137 137 137 137 137 137 137 137 137 137 137 137 137 137 137
137 137 137 137 137 137 137 137 137 137 137 137 137 137 137 137 137
137 137 137 137 137 137 137 137 137 137 137 137 137 137 137 137 137
137 137 137 137 137 137 137 137 137 137 137 137 137 137 137 137 137
137 137 137 137 137 137 137 137 137 137 137 137 137 137 137 137 137
137 137 137 137 137 137 137 137 137 137 137 137 137 137 137 137 137
137 137 137 137 137 137 137 137 137 137 137 137 137 137 137 137 137
137 137 137 137 137 137 137 137 137 137 137 137 137 137 137 137 137
137 137 137 137 137 137 137 137 137 137 137 137 137 137 137 137 137
137 137 137 137 137 137 137 137 137 137 137 137 137 137 137 137 137
137 137 137 137 137 137 137 137 137 137 137 137 137 137 137 137 137
137 137 137 137 137 137 137 137 137 137 137 137 137 137 137 137 137
137 137 137 137 137 137 137 137 137 137 137 137 137 137 137 137 137
137 137 137 137 137 137 137 137 137 137 137 137 137 137 137 137 137
137 137 137 137 137 137 137
0 0 0 0 0 0 0 0 0 255 255 255 0 0 0 0 0 0 0 0 0 255 255 255 0 0 0 0 0
0 0 0 0 255 255 255 0 0 0 0 0 0 0 0 0 255 255 255 0 0 0 0 0 0 0 0 0
255 255 255 0 0 0 0 0 0 0 0 0 255 255 255 0 0 0 0 0 0 0 0 0 255 255
255 0 0 0 0 0 0 0 0 0 255 255 255 0 0 0 0 0 0 0 0 0 255 255 255 0 0 0
0 0 0 0 0 0 255 255 255 0 0 0 0 0 0 0 0 0 255 255 255 0 0 0 0 0 0 0 0
0 255 255 255 0 0 0 0 0 0 0 0 0 255 255 255 0 0 0 0 0 0 0 0 0 255 255
255 0 0 0 0 0 0 0 0 0 255 255 255 0 0 0 0 0 0 0 0 0 255 255 255 0 0 0
0 0 0 0 0 0 255 255 255 0 0 0 0 0 0 0 0 0 255 255 255 0 0 0 0 0 0 0 0
0 255 255 255 0 0 0 0 0 0 0 0 0 255 255 255 0 0 0 0 0 0 0 0 0 255 255
255 0 0 0 0 0 0 0 0 0 255 255 255 0 0 0 0 0 0 0 0 0 255 255 255 0 0 0
0 0 0 0 0 0 255 255 255 0 0 0 0 0 0 0 0 0 255 255 255 137 137 137 137
137 137 137 137 137 137 137 137 137 137 137 137 137 137 137 137 137
137 137 137 137 137 137 137 137 137 137 137 137 137 137 137 137 137
137 137 137 137 137 137 137 137 137 137 137 137 137 137 137 137 137
137 137 137 137 137 137 137 137 137 137 137 137 137 137 137 137 137
137 137 137 137 137 137 137 137 137 137 137 137 137 137 137 137 137
137 137 137 137 137 137 137 137 137 137 137 137 137 137 137 137 137
137 137 137 137 137 137 137 137 137 137 137 137 137 137 137 137 137
137 137 137 137 137 137 137 137 137 137 137 137 137 137 137 137 137
137 137 137 137 137 137 137 137 137 137 137 137 137 137 137 137 137
137 137 137 137 137 137 137 137 137 137 137 137 137 137 137 137 137
137 137 137 137 137 137 137 137 137 137 137 137 137 137 137 137 137
137 137 137 137 137 137 137 137 137 137 137 137 137 137 137 137 137
137 137 137 137 137 137 137 137 137 137 137 137 137 137 137 137 137
137 137 137 137 137 137 137 137 137 137 137 137 137 137 137 137 137
137 137 137 137 137 137 137 137 137 137 137 137 137 137 137 137 137
137 137 137 137 137 137 137 137 137 137 137 137 137 137 137 137 137
137 137 137 137 137 137 137 137 137 137 137 137 137 137 137 137 137
137 137 137 137 137 137 137
0 0 0 0 0 0 255 255 255 0 0 0 0 0 0 0 0 0 255 255 255 0 0 0 0 0 0 0 0
0 255 255 255 0 0 0 0 0 0 0 0 0 255 255 255 0 0 0 0 0 0 0 0 0 255 255
255 0 0 0 0 0 0 0 0 0 255 255 255 0 0 0 0 0 0 0 0 0 255 255 255 0 0 0
0 0 0 0 0 0 255 255 255 0 0 0 0 0 0 0 0 0 255 255 255 0 0 0 0 0 0 0 0
0 255 255 255 0 0 0 0 0 0 0 0 0 255 255 255 0 0 0 0 0 0 0 0 0 255 255
255 0 0 0 0 0 0 0 0 0 255 255 255 0 0 0 0 0 0 0 0 0 255 255 255 0 0 0
0 0 0 0 0 0 255 255 255 0 0 0 0 0 0 0 0 0 255 255 255 0 0 0 0 0 0 0 0
0 255 255 255 0 0 0 0 0 0 0 0 0 255 255 255 0 0 0 0 0 0 0 0 0 255 255
255 0 0 0 0 0 0 0 0 0 255 255 255 0 0 0 0 0 0 0 0 0 255 255 255 0 0 0
0 0 0 0 0 0 255 255 255 0 0 0 0 0 0 0 0 0 255 255 255 0 0 0 0 0 0 0 0
0 255 255 255 0 0 0 0 0 0 0 0 0 255 255 255 0 0 0 137 137 137 137 137
137 137 137 137 137 137 137 137 137 137 137 137 137 137 137 137 137
137 137 137 137 137 137 137 137 137 137 137 137 137 137 137 137 137
137 137 137 137 137 137 137 137 137 137 137 137 137 137 137 137 137
137 137 137 137 137 137 137 137 137 137 137 137 137 137 137 137 137
137 137 137 137 137 137 137 137 137 137 137 137 137 137 137 137 137
137 137 137 137 137 137 137 137 137 137 137 137 137 137 137 137 137
137 137 137 137 137 137 137 137 137 137 137 137 137 137 137 137 137
137 137 137 137 137 137 137 137 137 137 137 137 137 137 137 137 137
137 137 137 137 137 137 137 137 137 137 137 137 137 137 137 137 137
137 137 137 137 137 137 137 137 137 137 137 137 137 137 137 137 137
137 137 137 137 137 137 137 137 137 137 137 137 137 137 137 137 137
137 137 137 137 137 137 137 137 137 137 137 137 137 137 137 137 137
137 137 137 137 137 137 137 137 137 137 137 137 137 137 137 137 137
137 137 137 137 137 137 137 137 137 137 137 137 137 137 137 137 137
137 137 137 137 137 137 137 137 137 137 137 137 137 137 137 137 137
137 137 137 137 137 137 137 137 137 137 137 137 137 137 137 137 137
137 137 137 137 137 137 137 137 137 137 137 137 137 137 137 137 137
137 137 137 137 137 137
0 0 0 255 255 255 0 0 0 0 0 0 0 0 0 255 255 255 0 0 0 0 0 0 0 0 0 255
255 255 0 0 0 0 0 0 0 0 0 255 255 255 0 0 0 0 0 0 0 0 0 255 255 255 0
0 0 0 0 0 0 0 0 255 255 255 0 0 0 0 0 0 0 0 0 255 255 255 0 0 0 0 0 0
0 0 0 255 255 255 0 0 0 0 0 0 0 0 0 255 255 255 0 0 0 0 0 0 0 0 0 255
255 255 0 0 0 0 0 0 0 0 0 255 255 255 0 0 0 0 0 0 0 0 0 255 255 255 0
0 0 0 0 0 0 0 0 255 255 255 0 0 0 0 0 0 0 0 0 255 255 255 0 0 0 0 0 0
0 0 0 255 255 255 0 0 0 0 0 0 0 0 0 255 255 255 0 0 0 0 0 0 0 0 0 255
255 255 0 0 0 0 0 0 0 0 0 255 255 255 0 0 0 0 0 0 0 0 0 255 255 255 0
0 0 0 0 0 0 0 0 255 255 255 0 0 0 0 0 0 0 0 0 255 255 255 0 0 0 0 0 0
0 0 0 255 255 255 0 0 0 0 0 0 0 0 0 255 255 255 0 0 0 0 0 0 0 0 0 255
255 255 0 0 0 0 0 0 0 0 0 255 255 255 0 0 0 0 0 0 137 137 137 137 137
137 137 137 137 137 137 137 137 137 137 137 137 137 137 137 137 137
137 137 137 137 137 137 137 137 137 137 137 137 137 137 137 137 137
137 137 137 137 137 137 137 137 137 137 137 137 137 137 137 137 137
137 137 137 137 137 137 137 137 137 137 137 137 137 137 137 137 137
137 137 137 137 137 137 137 137 137 137 137 137 137 137 137 137 137
137 137 137 137 137 137 137 137 137 137 137 137 137 137 137 137 137
137 137 137 137 137 137 137 137 137 137 137 137 137 137 137 137 137
137 137 137 137 137 137 137 137 137 137 137 137 137 137 137 137 137
137 137 137 137 137 137 137 137 137 137 137 137 137 137 137 137 137
137 137 137 137 137 137 137 137 137 137 137 137 137 137 137 137 137
137 137 137 137 137 137 137 137 137 137 137 137 137 137 137 137 137
137 137 137 137 137 137 137 137 137 137 137 137 137 137 137 137 137
137 137 137 137 137 137 137 137 137 137 137 137 137 137 137 137 137
137 137 137 137 137 137 137 137 137 137 137 137 137 137 137 137 137
137 137 137 137 137 137 137 137 137 137 137 137 137 137 137 137 137
137 137 137 137 137 137 137 137 137 137 137 137 137 137 137 137 137
137 137 137 137 137 137 137 137 137 137 137 137 137 137 137 137 137
137 137 137 137 137 137
255 255 255 0 0 0 0 0 0 0 0 0 255 255 255 0 0 0 0 0 0 0 0 0 255 255
255 0 0 0 0 0 0 0 0 0 255 255 255 0 0 0 0 0 0 0 0 0 255 255 255 0 0 0
0 0 0 0 0 0 255 255 255 0 0 0 0 0 0 0 0 0 255 255 255 0 0 0 0 0 0 0 0
0 255 255 255 0 0 0 0 0 0 0 0 0 255 255 255 0 0 0 0 0 0 0 0 0 255 255
255 0 0 0 0 0 0 0 0 0 255 255 255 0 0 0 0 0 0 0 0 0 255 255 255 0 0 0
0 0 0 0 0 0 255 255 255 0 0 0 0 0 0 0 0 0 255 255 255 0 0 0 0 0 0 0 0
0 255 255 255 0 0 0 0 0 0 0 0 0 255 255 255 0 0 0 0 0 0 0 0 0 255 255
255 0 0 0 0 0 0 0 0 0 255 255 255 0 0 0 0 0 0 0 0 0 255 255 255 0 0 0
0 0 0 0 0 0 255 255 255 0 0 0 0 0 0 0 0 0 255 255 255 0 0 0 0 0 0 0 0
0 255 255 255 0 0 0 0 0 0 0 0 0 255 255 255 0 0 0 0 0 0 0 0 0 255 255
255 0 0 0 0 0 0 0 0 0 255 255 255 0 0 0 0 0 0 0 0 0 137 137 137 137
137 137 137 137 137 137 137 137 137 137 137 137 137 137 137 137 137
137 137 137 137 137 137 137 137 137 137 137 137 137 137 137 137 137
137 137 137 137 137 137 137 137 137 137 137 137 137 137 137 137 137
137 137 137 137 137 137 137 137 137 137 137 137 137 137 137 137 137
137 137 137 137 137 137 137 137 137 137 137 137 137 137 137 137 137
137 137 137 137 137 137 137 137 137 137 137 137 137 137 137 137 137
137 137 137 137 137 137 137 137 137 137 137 137 137 137 137 137 137
137 137 137 137 137 137 137 137 137 137 137 137 137 137 137 137 137
137 137 137 137 137 137 137 137 137 137 137 137 137 137 137 137 137
137 137 137 137 137 137 137 137 137 137 137 137 137 137 137 137 137
137 137 137 137 137 137 137 137 137 137 137 137 137 137 137 137 137
137 137 137 137 137 137 137 137 137 137 137 137 137 137 137 137 137
137 137 137 137 137 137 137 137 137 137 137 137 137 137 137 137 137
137 137 137 137 137 137 137 137 137 137 137 137 137 137 137 137 137
137 137 137 137 137 137 137 137 137 137 137 137 137 137 137 137 137
137 137 137 137 137 137 137 137 137 137 137 137 137 137 137 137 137
137 137 137 137 137 137 137 137 137 137 137 137 137 137 137 137 137
137 137 137 137 137 137 137
0 0 0 0 0 0 0 0 0 255 255 255 0 0 0 0 0 0 0 0 0 255 255 255 0 0 0 0 0
0 0 0 0 255 255 255 0 0 0 0 0 0 0 0 0 255 255 255 0 0 0 0 0 0 0 0 0
255 255 255 0 0 0 0 0 0 0 0 0 255 255 255 0 0 0 0 0 0 0 0 0 255 255
255 0 0 0 0 0 0 0 0 0 255 255 255 0 0 0 0 0 0 0 0 0 255 255 255 0 0 0
0 0 0 0 0 0 255 255 255 0 0 0 0 0 0 0 0 0 255 255 255 0 0 0 0 0 0 0 0
0 255 255 255 0 0 0 0 0 0 0 0 0 255 255 255 0 0 0 0 0 0 0 0 0 255 255
255 0 0 0 0 0 0 0 0 0 255 255 255 0 0 0 0 0 0 0 0 0 255 255 255 0 0 0
0 0 0 0 0 0 255 255 255 0 0 0 0 0 0 0 0 0 255 255 255 0 0 0 0 0 0 0 0
0 255 255 255 0 0 0 0 0 0 0 0 0 255 255 255 0 0 0 0 0 0 0 0 0 255 255
255 0 0 0 0 0 0 0 0 0 255 255 255 0 0 0 0 0 0 0 0 0 255 255 255 0 0 0
0 0 0 0 0 0 255 255 255 0 0 0 0 0 0 0 0 0 255 255 255 137 137 137 137
137 137 137 137 137 137 137 137 137 137 137 137 137 137 137 137 137
137 137 137 137 137 137 137 137 137 137 137 137 137 137 137 137 137
137 137 137 137 137 137 137 137 137 137 137 137 137 137 137 137 137
137 137 137 137 137 137 137 137 137 137 137 137 137 137 137 137 137
137 137 137 137 137 137 137 137 137 137 137 137 137 137 137 137 137
137 137 137 137 137 137 137 137 137 137 137 137 137 137 137 137 137
137 137 137 137 137 137 137 137 137 137 137 137 137 137 137 137 137
137 137 137 137 137 137 137 137 137 137 137 137 137 137 137 137 137
137 137 137 137 137 137 137 137 137 137 137 137 137 137 137 137 137
137 137 137 137 137 137 137 137 137 137 137 137 137 137 137 137 137
137 137 137 137 137 137 137 137 137 137 137 137 137 137 137 137 137
137 137 137 137 137 137 137 137 137 137 137 137 137 137 137 137 137
137 137 137 137 137 137 137 137 137 137 137 137 137 137 137 137 137
137 137 137 137 137 137 137 137 137 137 137 137 137 137 137 137 137
137 137 137 137 137 137 137 137 137 137 137 137 137 137 137 137 137
137 137 137 137 137 137 137 137 137 137 137 137 137 137 137 137 137
137 137 137 137 137 137 137 137 137 137 137 137 137 137 137 137 137
137 137 137 137 137 137 137
0 0 0 0 0 0 255 255 255 0 0 0 0 0 0 0 0 0 255 255 255 0 0 0 0 0 0 0 0
0 255 255 255 0 0 0 0 0 0 0 0 0 255 255 255 0 0 0 0 0 0 0 0 0 255 255
255 0 0 0 0 0 0 0 0 0 255 255 255 0 0 0 0 0 0 0 0 0 255 255 255 0 0 0
0 0 0 0 0 0 255 255 255 0 0 0 0 0 0 0 0 0 255 255 255 0 0 0 0 0 0 0 0
0 255 255 255 0 0 0 0 0 0 0 0 0 255 255 255 0 0 0 0 0 0 0 0 0 255 255
255 0 0 0 0 0 0 0 0 0 255 255 255 0 0 0 0 0 0 0 0 0 255 255 255 0 0 0
0 0 0 0 0 0 255 255 255 0 0 0 0 0 0 0 0 0 255 255 255 0 0 0 0 0 0 0 0
0 255 255 255 0 0 0 0 0 0 0 0 0 255 255 255 0 0 0 0 0 0 0 0 0 255 255
255 0 0 0 0 0 0 0 0 0 255 255 255 0 0 0 0 0 0 0 0 0 255 255 255 0 0 0
0 0 0 0 0 0 255 255 255 0 0 0 0 0 0 0 0 0 255 255 255 0 0 0 0 0 0 0 0
0 255 255 255 0 0 0 0 0 0 0 0 0 255 255 255 0 0 0 137 137 137 137 137
137 137 137 137 137 137 137 137 137 137 137 137 137 137 137 137 137
137 137 137 137 137 137 137 137 137 137 137 137 137 137 137 137 137
137 137 137 137 137 137 137 137 137 137 137 137 137 137 137 137 137
137 137 137 137 137 137 137 137 137 137 137 137 137 137 137 137 137
137 137 137 137 137 137 137 137 137 137 137 137 137 137 137 137 137
137 137 137 137 137 137 137 137 137 137 137 137 137 137 137 137 137
137 137 137 137 137 137 137 137 137 137 137 137 137 137 137 137 137
137 137 137 137 137 137 137 137 137 137 137 137 137 137 137 137 137
137 137 137 137 137 137 137 137 137 137 137 137 137 137 137 137 137
137 137 137 137 137 137 137 137 137 137 137 137 137 137 137 137 137
137 137 137 137 137 137 137 137 137 137 137 137 137 137 137 137 137
137 137 137 137 137 137 137 137 137 137 137 137 137 137 137 137 137
137 137 137 137 137 137 137 137 137 137 137 137 137 137 137 137 137
137 137 137 137 137 137 137 137 137 137 137 137 137 137 137 137 137
137 137 137 137 137 137 137 137 137 137 137 137 137 137 137 137 137
137 137 137 137 137 137 137 137 137 137 137 137 137 137 137 137 137
137 137 137 137 137 137 137 137 137 137 137 137 137 137 137 137 137
137 137 137 137 137 137
0 0 0 255 255 255 0 0 0 0 0 0 0 0 0 255 255 255 0 0 0 0 0 0 0 0 0 255
255 255 0 0 0 0 0 0 0 0 0 255 255 255 0 0 0 0 0 0 0 0 0 255 255 255 0
0 0 0 0 0 0 0 0 255 255 255 0 0 0 0 0 0 0 0 0 255 255 255 0 0 0 0 0 0
0 0 0 255 255 255 0 0 0 0 0 0 0 0 0 255 255 255 0 0 0 0 0 0 0 0 0 255
255 255 0 0 0 0 0 0 0 0 0 255 255 255 0 0 0 0 0 0 0 0 0 255 255 255 0
0 0 0 0 0 0 0 0 255 255 255 0 0 0 0 0 0 0 0 0 255 255 255 0 0 0 0 0 0
0 0 0 255 255 255 0 0 0 0 0 0 0 0 0 255 255 255 0 0 0 0 0 0 0 0 0 255
255 255 0 0 0 0 0 0 0 0 0 255 255 255 0 0 0 0 0 0 0 0 0 255 255 255 0
0 0 0 0 0 0 0 0 255 255 255 0 0 0 0 0 0 0 0 0 255 255 255 0 0 0 0 0 0
0 0 0 255 255 255 0 0 0 0 0 0 0 0 0 255 255 255 0 0 0 0 0 0 0 0 0 255
255 255 0 0 0 0 0 0 0 0 0 255 255 255 0 0 0 0 0 0 137 137 137 137 137
137 137 137 137 137 137 137 137 137 137 137 137 137 137 137 137 137
137 137 137 137 137 137 137 137 137 137 137 137 137 137 137 137 137
137 137 137 137 137 137 137 137 137 137 137 137 137 137 137 137 137
137 137 137 137 137 137 137 137 137 137 137 137 137 137 137 137 137
137 137 137 137 137 137 137 137 137 137 137 137 137 137 137 137 137
137 137 137 137 137 137 137 137 137 137 137 137 137 137 137 137 137
137 137 137 137 137 137 137 137 137 137 137 137 137 137 137 137 137
137 137 137 137 137 137 137 137 137 137 137 137 137 137 137 137 137
137 137 137 137 137 137 137 137 137 137 137 137 137 137 137 137 137
137 137 137 137 137 137 137 137 137 137 137 137 137 137 137 137 137
137 137 137 137 137 137 137 137 137 137 137 137 137 137 137 137 137
137 137 137 137 137 137 137 137 137 137 137 137 137 137 137 137 137
137 137 137 137 137 137 137 137 137 137 137 137 137 137 137 137 137
137 137 137 137 137 137 137 137 137 137 137 137 137 137 137 137 137
137 137 137 137 137 137 137 137 137 137 137 137 137 137 137 137 137
137 137 137 137 137 137 137 137 137 137 137 137 137 137 137 137 137
137 137 137 137 137 137 137 137 137 137 137 137 137 137 137 137 137
137 137 137 137 137 137
255 255 255 0 0 0 0 0 0 0 0 0 255 255 255 0 0 0 0 0 0 0 0 0 255 255
255 0 0 0 0 0 0 0 0 0 255 255 255 0 0 0 0 0 0 0 0 0 255 255 255 0 0 0
0 0 0 0 0 0 255 255 255 0 0 0 0 0 0 0 0 0 255 255 255 0 0 0 0 0 0 0 0
0 255 255 255 0 0 0 0 0 0 0 0 0 255 255 255 0 0 0 0 0 0 0 0 0 255 255
255 0 0 0 0 0 0 0 0 0 255 255 255 0 0 0 0 0 0 0 0 0 255 255 255 0 0 0
0 0 0 0 0 0 255 255 255 0 0 0 0 0 0 0 0 0 255 255 255 0 0 0 0 0 0 0 0
0 255 255 255 0 0 0 0 0 0 0 0 0 255 255 255 0 0 0 0 0 0 0 0 0 255 255
255 0 0 0 0 0 0 0 0 0 255 255 255 0 0 0 0 0 0 0 0 0 255 255 255 0 0 0
0 0 0 0 0 0 255 255 255 0 0 0 0 0 0 0 0 0 255 255 255 0 0 0 0 0 0 0 0
0 255 255 255 0 0 0 0 0 0 0 0 0 255 255 255 0 0 0 0 0 0 0 0 0 255 255
255 0 0 0 0 0 0 0 0 0 255 255 255 0 0 0 0 0 0 0 0 0 137 137 137 137
137 137 137 137 137 137 137 137 137 137 137 137 137 137 137 137 137
137 137 137 137 137 137 137 137 137 137 137 137 137 137 137 137 137
137 137 137 137 137 137 137 137 137 137 137 137 137 137 137 137 137
137 137 137 137 137 137 137 137 137 137 137 137 137 137 137 137 137
137 137 137 137 137 137 137 137 137 137 137 137 137 137 137 137 137
137 137 137 137 137 137 137 137 137 137 137 137 137 137 137 137 137
137 137 137 137 137 137 137 137 137 137 137 137 137 137 137 137 137
137 137 137 137 137 137 137 137 137 137 137 137 137 137 137 137 137
137 137 137 137 137 137 137 137 137 137 137 137 137 137 137 137 137
137 137 137 137 137 137 137 137 137 137 137 137 137 137 137 137 137
137 137 137 137 137 137 137 137 137 137 137 137 137 137 137 137 137
137 137 137 137 137 137 137 137 137 137 137 137 137 137 137 137 137
137 137 137 137 137 137 137 137 137 137 137 137 137 137 137 137 137
137 137 137 137 137 137 137 137 137 137 137 137 137 137 137 137 137
137 137 137 137 137 137 137 137 137 137 137 137 137 137 137 137 137
137 137 137 137 137 137 137 137 137 137 137 137 137 137 137 137 137
137 137 137 137 137 137 137 137 137 137 137 137 137 137 137 137 137
137 137 137 137 137 137 137
0 0 0 0 0 0 0 0 0 255 255 255 0 0 0 0 0 0 0 0 0 255 255 255 0 0 0 0 0
0 0 0 0 255 255 255 0 0 0 0 0 0 0 0 0 255 255 255 0 0 0 0 0 0 0 0 0
255 255 255 0 0 0 0 0 0 0 0 0 255 255 255 0 0 0 0 0 0 0 0 0 255 255
255 0 0 0 0 0 0 0 0 0 255 255 255 0 0 0 0 0 0 0 0 0 255 255 255 0 0 0
0 0 0 0 0 0 255 255 255 0 0 0 0 0 0 0 0 0 255 255 255 0 0 0 0 0 0 0 0
0 255 255 255 0 0 0 0 0 0 0 0 0 255 255 255 0 0 0 0 0 0 0 0 0 255 255
255 0 0 0 0 0 0 0 0 0 255 255 255 0 0 0 0 0 0 0 0 0 255 255 255 0 0 0
0 0 0 0 0 0 255 255 255 0 0 0 0 0 0 0 0 0 255 255 255 0 0 0 0 0 0 0 0
0 255 255 255 0 0 0 0 0 0 0 0 0 255 255 255 0 0 0 0 0 0 0 0 0 255 255
255 0 0 0 0 0 0 0 0 0 255 255 255 0 0 0 0 0 0 0 0 0 255 255 255 0 0 0
0 0 0 0 0 0 255 255 255 0 0 0 0 0 0 0 0 0 255 255 255 137 137 137 137
137 137 137 137 137 137 137 137 137 137 137 137 137 137 137 137 137
137 137 137 137 137 137 137 137 137 137 137 137 137 137 137 137 137
137 137 137 137 137 137 137 137 137 137 137 137 137 137 137 137 137
137 137 137 137 137 137 137 137 137 137 137 137 137 137 137 137 137
137 137 137 137 137 137 137 137 137 137 137 137 137 137 137 137 137
137 137 137 137 137 137 137 137 137 137 137 137 137 137 137 137 137
137 137 137 137 137 137 137 137 137 137 137 137 137 137 137 137 137
137 137 137 137 137 137 137 137 137 137 137 137 137 137 137 137 137
137 137 137 137 137 137 137 137 137 137 137 137 137 137 137 137 137
137 137 137 137 137 137 137 137 137 137 137 137 137 137 137 137 137
137 137 137 137 137 137 137 137 137 137 137 137 137 137 137 137 137
137 137 137 137 137 137 137 137 137 137 137 137 137 137 137 137 137
137 137 137 137 137 137 137 137 137 137 137 137 137 137 137 137 137
137 137 137 137 137 137 137 137 137 137 137 137 137 137 137 137 137
137 137 137 137 137 137 137 137 137 137 137 137 137 137 137 137 137
137 137 137 137 137 137 137 137 137 137 137 137 137 137 137 137 137
137 137 137 137 137 137 137 137 137 137 137 137 137 137 137 137 137
137 137 137 137 137 137 137
0 0 0 0 0 0 255 255 255 0 0 0 0 0 0 0 0 0 255 255 255 0 0 0 0 0 0 0 0
0 255 255 255 0 0 0 0 0 0 0 0 0 255 255 255 0 0 0 0 0 0 0 0 0 255 255
255 0 0 0 0 0 0 0 0 0 255 255 255 0 0 0 0 0 0 0 0 0 255 255 255 0 0 0
0 0 0 0 0 0 255 255 255 0 0 0 0 0 0 0 0 0 255 255 255 0 0 0 0 0 0 0 0
0 255 255 255 0 0 0 0 0 0 0 0 0 255 255 255 0 0 0 0 0 0 0 0 0 255 255
255 0 0 0 0 0 0 0 0 0 255 255 255 0 0 0 0 0 0 0 0 0 255 255 255 0 0 0
0 0 0 0 0 0 255 255 255 0 0 0 0 0 0 0 0 0 255 255 255 0 0 0 0 0 0 0 0
0 255 255 255 0 0 0 0 0 0 0 0 0 255 255 255 0 0 0 0 0 0 0 0 0 255 255
255 0 0 0 0 0 0 0 0 0 255 255 255 0 0 0 0 0 0 0 0 0 255 255 255 0 0 0
0 0 0 0 0 0 255 255 255 0 0 0 0 0 0 0 0 0 255 255 255 0 0 0 0 0 0 0 0
0 255 255 255 0 0 0 0 0 0 0 0 0 255 255 255 0 0 0 137 137 137 137 137
137 137 137 137 137 137 137 137 137 137 137 137 137 137 137 137 137
137 137 137 137 137 137 137 137 137 137 137 137 137 137 137 137 137
137 137 137 137 137 137 137 137 137 137 137 137 137 137 137 137 137
137 137 137 137 137 137 137 137 137 137 137 137 137 137 137 137 137
137 137 137 137 137 137 137 137 137 137 137 137 137 137 137 137 137
137 137 137 137 137 137 137 137 137 137 137 137 137 137 137 137 137
137 137 137 137 137 137 137 137 137 137 137 137 137 137 137 137 137
137 137 137 137 137 137 137 137 137 137 137 137 137 137 137 137 137
137 137 137 137 137 137 137 137 137 137 137 137 137 137 137 137 137
137 137 137 137 137 137 137 137 137 137 137 137 137 137 137 137 137
137 137 137 137 137 137 137 137 137 137 137 137 137 137 137 137 137
137 137 137 137 137 137 137 137 137 137 137 137 137 137 137 137 137
137 137 137 137 137 137 137 137 137 137 137 137 137 137 137 137 137
137 137 137 137 137 137 137 137 137 137 137 137 137 137 137 137 137
137 137 137 137 137 137 137 137 137 137 137 137 137 137 137 137 137
137 137 137 137 137 137 137 137 137 137 137 137 137 137 137 137 137
137 137 137 137 137 137 137 137 137 137 137 137 137 137 137 137 137
137 137 137 137 137 137
0 0 0 255 255 255 0 0 0 0 0 0 0 0 0 255 255 255 0 0 0 0 0 0 0 0 0 255
255 255 0 0 0 0 0 0 0 0 0 255 255 255 0 0 0 0 0 0 0 0 0 255 255 255 0
0 0 0 0 0 0 0 0 255 255 255 0 0 0 0 0 0 0 0 0 255 255 255 0 0 0 0 0 0
0 0 0 255 255 255 0 0 0 0 0 0 0 0 0 255 255 255 0 0 0 0 0 0 0 0 0 255
255 255 0 0 0 0 0 0 0 0 0 255 255 255 0 0 0 0 0 0 0 0 0 255 255 255 0
0 0 0 0 0 0 0 0 255 255 255 0 0 0 0 0 0 0 0 0 255 255 255 0 0 0 0 0 0
0 0 0 255 255 255 0 0 0 0 0 0 0 0 0 255 255 255 0 0 0 0 0 0 0 0 0 255
255 255 0 0 0 0 0 0 0 0 0 255 255 255 0 0 0 0 0 0 0 0 0 255 255 255 0
0 0 0 0 0 0 0 0 255 255 255 0 0 0 0 0 0 0 0 0 255 255 255 0 0 0 0 0 0
0 0 0 255 255 255 0 0 0 0 0 0 0 0 0 255 255 255 0 0 0 0 0 0 0 0 0 255
255 255 0 0 0 0 0 0 0 0 0 255 255 255 0 0 0 0 0 0 137 137 137 137 137
137 137 137 137 137 137 137 137 137 137 137 137 137 137 137 137 137
137 137 137 137 137 137 137 137 137 137 137 137 137 137 137 137 137
137 137 137 137 137 137 137 137 137 137 137 137 137 137 137 137 137
137 137 137 137 137 137 137 137 137 137 137 137 137 137 137 137 137
137 137 137 137 137 137 137 137 137 137 137 137 137 137 137 137 137
137 137 137 137 137 137 137 137 137 137 137 137 137 137 137 137 137
137 137 137 137 137 137 137 137 137 137 137 137 137 137 137 137 137
137 137 137 137 137 137 137 137 137 137 137 137 137 137 137 137 137
137 137 137 137 137 137 137 137 137 137 137 137 137 137 137 137 137
137 137 137 137 137 137 137 137 137 137 137 137 137 137 137 137 137
137 137 137 137 137 137 137 137 137 137 137 137 137 137 137 137 137
137 137 137 137 137 137 137 137 137 137 137 137 137 137 137 137 137
137 137 137 137 137 137 137 137 137 137 137 137 137 137 137 137 137
137 137 137 137 137 137 137 137 137 137 137 137 137 137 137 137 137
137 137 137 137 137 137 137 137 137 137 137 137 137 137 137 137 137
137 137 137 137 137 137 137 137 137 137 137 137 137 137 137 137 137
137 137 137 137 137 137 137 137 137 137 137 137 137 137 137 137 137
137 137 137 137 137 137
255 255 255 0 0 0 0 0 0 0 0 0 255 255 255 0 0 0 0 0 0 0 0 0 255 255
255 0 0 0 0 0 0 0 0 0 255 255 255 0 0 0 0 0 0 0 0 0 255 255 255 0 0 0
0 0 0 0 0 0 255 255 255 0 0 0 0 0 0 0 0 0 255 255 255 0 0 0 0 0 0 0 0
0 255 255 255 0 0 0 0 0 0 0 0 0 255 255 255 0 0 0 0 0 0 0 0 0 255 255
255 0 0 0 0 0 0 0 0 0 255 255 255 0 0 0 0 0 0 0 0 0 255 255 255 0 0 0
0 0 0 0 0 0 255 255 255 0 0 0 0 0 0 0 0 0 255 255 255 0 0 0 0 0 0 0 0
0 255 255 255 0 0 0 0 0 0 0 0 0 255 255 255 0 0 0 0 0 0 0 0 0 255 255
255 0 0 0 0 0 0 0 0 0 255 255 255 0 0 0 0 0 0 0 0 0 255 255 255 0 0 0
0 0 0 0 0 0 255 255 255 0 0 0 0 0 0 0 0 0 255 255 255 0 0 0 0 0 0 0 0
0 255 255 255 0 0 0 0 0 0 0 0 0 255 255 255 0 0 0 0 0 0 0 0 0 255 255
255 0 0 0 0 0 0 0 0 0 255 255 255 0 0 0 0 0 0 0 0 0 137 137 137 137
137 137 137 137 137 137 137 137 137 137 137 137 137 137 137 137 137
137 137 137 137 137 137 137 137 137 137 137 137 137 137 137 137 137
137 137 137 137 137 137 137 137 137 137 137 137 137 137 137 137 137
137 137 137 137 137 137 137 137 137 137 137 137 137 137 137 137 137
137 137 137 137 137 137 137 137 137 137 137 137 137 137 137 137 137
137 137 137 137 137 137 137 137 137 137 137 137 137 137 137 137 137
137 137 137 137 137 137 137 137 137 137 137 137 137 137 137 137 137
137 137 137 137 137 137 137 137 137 137 137 137 137 137 137 137 137
137 137 137 137 137 137 137 137 137 137 137 137 137 137 137 137 137
137 137 137 137 137 137 137 137 137 137 137 137 137 137 137 137 137
137 137 137 137 137 137 137 137 137 137 137 137 137 137 137 137 137
137 137 137 137 137 137 137 137 137 137 137 137 137 137 137 137 137
137 137 137 137 137 137 137 137 137 137 137 137 137 137 137 137 137
137 137 137 137 137 137 137 137 137 137 137 137 137 137 137 137 137
137 137 137 137 137 137 137 137 137 137 137 137 137 137 137 137 137
137 137 137 137 137 137 137 137 137 137 137 137 137 137 137 137 137
137 137 137 137 137 137 137 137 137 137 137 137 137 137 137 137 137
137 137 137 137 137 137 137
0 0 0 0 0 0 0 0 0 255 255 255 0 0 0 0 0 0 0 0 0 255 255 255 0 0 0 0 0
0 0 0 0 255 255 255 0 0 0 0 0 0 0 0 0 255 255 255 0 0 0 0 0 0 0 0 0
255 255 255 0 0 0 0 0 0 0 0 0 255 255 255 0 0 0 0 0 0 0 0 0 255 255
255 0 0 0 0 0 0 0 0 0 255 255 255 0 0 0 0 0 0 0 0 0 255 255 255 0 0 0
0 0 0 0 0 0 255 255 255 0 0 0 0 0 0 0 0 0 255 255 255 0 0 0 0 0 0 0 0
0 255 255 255 0 0 0 0 0 0 0 0 0 255 255 255 0 0 0 0 0 0 0 0 0 255 255
255 0 0 0 0 0 0 0 0 0 255 255 255 0 0 0 0 0 0 0 0 0 255 255 255 0 0 0
0 0 0 0 0 0 255 255 255 0 0 0 0 0 0 0 0 0 255 255 255 0 0 0 0 0 0 0 0
0 255 255 255 0 0 0 0 0 0 0 0 0 255 255 255 0 0 0 0 0 0 0 0 0 255 255
255 0 0 0 0 0 0 0 0 0 255 255 255 0 0 0 0 0 0 0 0 0 255 255 255 0 0 0
0 0 0 0 0 0 255 255 255 0 0 0 0 0 0 0 0 0 255 255 255 137 137 137 137
137 137 137 137 137 137 137 137 137 137 137 137 137 137 137 137 137
137 137 137 137 137 137 137 137 137 137 137 137 137 137 137 137 137
137 137 137 137 137 137 137 137 137 137 137 137 137 137 137 137 137
137 137 137 137 137 137 137 137 137 137 137 137 137 137 137 137 137
137 137 137 137 137 137 137 137 137 137 137 137 137 137 137 137 137
137 137 137 137 137 137 137 137 137 137 137 137 137 137 137 137 137
137 137 137 137 137 137 137 137 137 137 137 137 137 137 137 137 137
137 137 137 137 137 137 137 137 137 137 137 137 137 137 137 137 137
137 137 137 137 137 137 137 137 137 137 137 137 137 137 137 137 137
137 137 137 137 137 137 137 137 137 137 137 137 137 137 137 137 137
137 137 137 137 137 137 137 137 137 137 137 137 137 137 137 137 137
137 137 137 137 137 137 137 137 137 137 137 137 137 137 137 137 137
137 137 137 137 137 137 137 137 137 137 137 137 137 137 137 137 137
137 137 137 137 137 137 137 137 137 137 137 137 137 137 137 137 137
137 137 137 137 137 137 137 137 137 137 137 137 137 137 137 137 137
137 137 137 137 137 137 137 137 137 137 137 137 137 137 137 137 137
137 137 137 137 137 137 137 137 137 137 137 137 137 137 137 137 137
137 137 137 137 137 137 137
0 0 0 0 0 0 255 255 255 0 0 0 0 0 0 0 0 0 255 255 255 0 0 0 0 0 0 0 0
0 255 255 255 0 0 0 0 0 0 0 0 0 255 255 255 0 0 0 0 0 0 0 0 0 255 255
255 0 0 0 0 0 0 0 0 0 255 255 255 0 0 0 0 0 0 0 0 0 255 255 255 0 0 0
0 0 0 0 0 0 255 255 255 0 0 0 0 0 0 0 0 0 255 255 255 0 0 0 0 0 0 0 0
0 255 255 255 0 0 0 0 0 0 0 0 0 255 255 255 0 0 0 0 0 0 0 0 0 255 255
255 0 0 0 0 0 0 0 0 0 255 255 255 0 0 0 0 0 0 0 0 0 255 255 255 0 0 0
0 0 0 0 0 0 255 255 255 0 0 0 0 0 0 0 0 0 255 255 255 0 0 0 0 0 0 0 0
0 255 255 255 0 0 0 0 0 0 0 0 0 255 255 255 0 0 0 0 0 0 0 0 0 255 255
255 0 0 0 0 0 0 0 0 0 255 255 255 0 0 0 0 0 0 0 0 0 255 255 255 0 0 0
0 0 0 0 0 0 255 255 255 0 0 0 0 0 0 0 0 0 255 255 255 0 0 0 0 0 0 0 0
0 255 255 255 0 0 0 0 0 0 0 0 0 255 255 255 0 0 0 137 137 137 137 137
137 137 137 137 137 137 137 137 137 137 137 137 137 137 137 137 137
137 137 137 137 137 137 137 137 137 137 137 137 137 137 137 137 137
137 137 137 137 137 137 137 137 137 137 137 137 137 137 137 137 137
137 137 137 137 137 137 137 137 137 137 137 137 137 137 137 137 137
137 137 137 137 137 137 137 137 137 137 137 137 137 137 137 137 137
137 137 137 137 137 137 137 137 137 137 137 137 137 137 137 137 137
137 137 137 137 137 137 137 137 137 137 137 137 137 137 137 137 137
137 137 137 137 137 137 137 137 137 137 137 137 137 137 137 137 137
137 137 137 137 137 137 137 137 137 137 137 137 137 137 137 137 137
137 137 137 137 137 137 137 137 137 137 137 137 137 137 137 137 137
137 137 137 137 137 137 137 137 137 137 137 137 137 137 137 137 137
137 137 137 137 137 137 137 137 137 137 137 137 137 137 137 137 137
137 137 137 137 137 137 137 137 137 137 137 137 137 137 137 137 137
137 137 137 137 137 137 137 137 137 137 137 137 137 137 137 137 137
137 137 137 137 137 137 137 137 137 137 137 137 137 137 137 137 137
137 137 137 137 137 137 137 137 137 137 137 137 137 137 137 137 137
137 137 137 137 137 137 137 137 137 137 137 137 137 137 137 137 137
137 137 137 137 137 137
0 0 0 255 255 255 0 0 0 0 0 0 0 0 0 255 255 255 0 0 0 0 0 0 0 0 0 255
255 255 0 0 0 0 0 0 0 0 0 255 255 255 0 0 0 0 0 0 0 0 0 255 255 255 0
0 0 0 0 0 0 0 0 255 255 255 0 0 0 0 0 0 0 0 0 255 255 255 0 0 0 0 0 0
0 0 0 255 255 255 0 0 0 0 0 0 0 0 0 255 255 255 0 0 0 0 0 0 0 0 0 255
255 255 0 0 0 0 0 0 0 0 0 255 255 255 0 0 0 0 0 0 0 0 0 255 255 255 0
0 0 0 0 0 0 0 0 255 255 255 0 0 0 0 0 0 0 0 0 255 255 255 0 0 0 0 0 0
0 0 0 255 255 255 0 0 0 0 0 0 0 0 0 255 255 255 0 0 0 0 0 0 0 0 0 255
255 255 0 0 0 0 0 0 0 0 0 255 255 255 0 0 0 0 0 0 0 0 0 255 255 255 0
0 0 0 0 0 0 0 0 255 255 255 0 0 0 0 0 0 0 0 0 255 255 255 0 0 0 0 0 0
0 0 0 255 255 255 0 0 0 0 0 0 0 0 0 255 255 255 0 0 0 0 0 0 0 0 0 255
255 255 0 0 0 0 0 0 0 0 0 255 255 255 0 0 0 0 0 0 137 137 137 137 137
137 137 137 137 137 137 137 137 137 137 137 137 137 137 137 137 137
137 137 137 137 137 137 137 137 137 137 137 137 137 137 137 137 137
137 137 137 137 137 137 137 137 137 137 137 137 137 137 137 137 137
137 137 137 137 137 137 137 137 137 137 137 137 137 137 137 137 137
137 137 137 137 137 137 137 137 137 137 137 137 137 137 137 137 137
137 137 137 137 137 137 137 137 137 137 137 137 137 137 137 137 137
137 137 137 137 137 137 137 137 137 137 137 137 137 137 137 137 137
137 137 137 137 137 137 137 137 137 137 137 137 137 137 137 137 137
137 137 137 137 137 137 137 137 137 137 137 137 137 137 137 137 137
137 137 137 137 137 137 137 137 137 137 137 137 137 137 137 137 137
137 137 137 137 137 137 137 137 137 137 137 137 137 137 137 137 137
137 137 137 137 137 137 137 137 137 137 137 137 137 137 137 137 137
137 137 137 137 137 137 137 137 137 137 137 137 137 137 137 137 137
137 137 137 137 137 137 137 137 137 137 137 137 137 137 137 137 137
137 137 137 137 137 137 137 137 137 137 137 137 137 137 137 137 137
137 137 137 137 137 137 137 137 137 137 137 137 137 137 137 137 137
137 137 137 137 137 137 137 137 137 137 137 137 137 137 137 137 137
137 137 137 137 137 137
255 255 255 0 0 0 0 0 0 0 0 0 255 255 255 0 0 0 0 0 0 0 0 0 255 255
255 0 0 0 0 0 0 0 0 0 255 255 255 0 0 0 0 0 0 0 0 0 255 255 255 0 0 0
0 0 0 0 0 0 255 255 255 0 0 0 0 0 0 0 0 0 255 255 255 0 0 0 0 0 0 0 0
0 255 255 255 0 0 0 0 0 0 0 0 0 255 255 255 0 0 0 0 0 0 0 0 0 255 255
255 0 0 0 0 0 0 0 0 0 255 255 255 0 0 0 0 0 0 0 0 0 255 255 255 0 0 0
0 0 0 0 0 0 255 255 255 0 0 0 0 0 0 0 0 0 255 255 255 0 0 0 0 0 0 0 0
0 255 255 255 0 0 0 0 0 0 0 0 0 255 255 255 0 0 0 0 0 0 0 0 0 255 255
255 0 0 0 0 0 0 0 0 0 255 255 255 0 0 0 0 0 0 0 0 0 255 255 255 0 0 0
0 0 0 0 0 0 255 255 255 0 0 0 0 0 0 0 0 0 255 255 255 0 0 0 0 0 0 0 0
0 255 255 255 0 0 0 0 0 0 0 0 0 255 255 255 0 0 0 0 0 0 0 0 0 255 255
255 0 0 0 0 0 0 0 0 0 255 255 255 0 0 0 0 0 0 0 0 0 137 137 137 137
137 137 137 137 137 137 137 137 137 137 137 137 137 137 137 137 137
137 137 137 137 137 137 137 137 137 137 137 137 137 137 137 137 137
137 137 137 137 137 137 137 137 137 137 137 137 137 137 137 137 137
137 137 137 137 137 137 137 137 137 137 137 137 137 137 137 137 137
137 137 137 137 137 137 137 137 137 137 137 137 137 137 137 137 137
137 137 137 137 137 137 137 137 137 137 137 137 137 137 137 137 137
137 137 137 137 137 137 137 137 137 137 137 137 137 137 137 137 137
137 137 137 137 137 137 137 137 137 137 137 137 137 137 137 137 137
137 137 137 137 137 137 137 137 137 137 137 137 137 137 137 137 137
137 137 137 137 137 137 137 137 137 137 137 137 137 137 137 137 137
137 137 137 137 137 137 137 137 137 137 137 137 137 137 137 137 137
137 137 137 137 137 137 137 137 137 137 137 137 137 137 137 137 137
137 137 137 137 137 137 137 137 137 137 137 137 137 137 137 137 137
137 137 137 137 137 137 137 137 137 137 137 137 137 137 137 137 137
137 137 137 137 137 137 137 137 137 137 137 137 137 137 137 137 137
137 137 137 137 137 137 137 137 137 137 137 137 137 137 137 137 137
137 137 137 137 137 137 137 137 137 137 137 137 137 137 137 137 137
137 137 137 137 137 137 137
0 0 0 0 0 0 0 0 0 255 255 255 0 0 0 0 0 0 0 0 0 255 255 255 0 0 0 0 0
0 0 0 0 255 255 255 0 0 0 0 0 0 0 0 0 255 255 255 0 0 0 0 0 0 0 0 0
255 255 255 0 0 0 0 0 0 0 0 0 255 255 255 0 0 0 0 0 0 0 0 0 255 255
255 0 0 0 0 0 0 0 0 0 255 255 255 0 0 0 0 0 0 0 0 0 255 255 255 0 0 0
0 0 0 0 0 0 255 255 255 0 0 0 0 0 0 0 0 0 255 255 255 0 0 0 0 0 0 0 0
0 255 255 255 0 0 0 0 0 0 0 0 0 255 255 255 0 0 0 0 0 0 0 0 0 255 255
255 0 0 0 0 0 0 0 0 0 255 255 255 0 0 0 0 0 0 0 0 0 255 255 255 0 0 0
0 0 0 0 0 0 255 255 255 0 0 0 0 0 0 0 0 0 255 255 255 0 0 0 0 0 0 0 0
0 255 255 255 0 0 0 0 0 0 0 0 0 255 255 255 0 0 0 0 0 0 0 0 0 255 255
255 0 0 0 0 0 0 0 0 0 255 255 255 0 0 0 0 0 0 0 0 0 255 255 255 0 0 0
0 0 0 0 0 0 255 255 255 0 0 0 0 0 0 0 0 0 255 255 255 137 137 137 137
137 137 137 137 137 137 137 137 137 137 137 137 137 137 137 137 137
137 137 137 137 137 137 137 137 137 137 137 137 137 137 137 137 137
137 137 137 137 137 137 137 137 137 137 137 137 137 137 137 137 137
137 137 137 137 137 137 137 137 137 137 137 137 137 137 137 137 137
137 137 137 137 137 137 137 137 137 137 137 137 137 137 137 137 137
137 137 137 137 137 137 137 137 137 137 137 137 137 137 137 137 137
137 137 137 137 137 137 137 137 137 137 137 137 137 137 137 137 137
137 137 137 137 137 137 137 137 137 137 137 137 137 137 137 137 137
137 137 137 137 137 137 137 137 137 137 137 137 137 137 137 137 137
137 137 137 137 137 137 137 137 137 137 137 137 137 137 137 137 137
137 137 137 137 137 137 137 137 137 137 137 137 137 137 137 137 137
137 137 137 137 137 137 137 137 137 137 137 137 137 137 137 137 137
137 137 137 137 137 137 137 137 137 137 137 137 137 137 137 137 137
137 137 137 137 137 137 137 137 137 137 137 137 137 137 137 137 137
137 137 137 137 137 137 137 137 137 137 137 137 137 137 137 137 137
137 137 137 137 137 137 137 137 137 137 137 137 137 137 137 137 137
137 137 137 137 137 137 137 137 137 137 137 137 137 137 137 137 137
137 137 137 137 137 137 137
0 0 0 0 0 0 255 255 255 0 0 0 0 0 0 0 0 0 255 255 255 0 0 0 0 0 0 0 0
0 255 255 255 0 0 0 0 0 0 0 0 0 255 255 255 0 0 0 0 0 0 0 0 0 255 255
255 0 0 0 0 0 0 0 0 0 255 255 255 0 0 0 0 0 0 0 0 0 255 255 255 0 0 0
0 0 0 0 0 0 255 255 255 0 0 0 0 0 0 0 0 0 255 255 255 0 0 0 0 0 0 0 0
0 255 255 255 0 0 0 0 0 0 0 0 0 255 255 255 0 0 0 0 0 0 0 0 0 255 255
255 0 0 0 0 0 0 0 0 0 255 255 255 0 0 0 0 0 0 0 0 0 255 255 255 0 0 0
0 0 0 0 0 0 255 255 255 0 0 0 0 0 0 0 0 0 255 255 255 0 0 0 0 0 0 0 0
0 255 255 255 0 0 0 0 0 0 0 0 0 255 255 255 0 0 0 0 0 0 0 0 0 255 255
255 0 0 0 0 0 0 0 0 0 255 255 255 0 0 0 0 0 0 0 0 0 255 255 255 0 0 0
0 0 0 0 0 0 255 255 255 0 0 0 0 0 0 0 0 0 255 255 255 0 0 0 0 0 0 0 0
0 255 255 255 0 0 0 0 0 0 0 0 0 255 255 255 0 0 0 137 137 137 137 137
137 137 137 137 137 137 137 137 137 137 137 137 137 137 137 137 137
137 137 137 137 137 137 137 137 137 137 137 137 137 137 137 137 137
137 137 137 137 137 137 137 137 137 137 137 137 137 137 137 137 137
137 137 137 137 137 137 137 137 137 137 137 137 137 137 137 137 137
137 137 137 137 137 137 137 137 137 137 137 137 137 137 137 137 137
137 137 137 137 137 137 137 137 137 137 137 137 137 137 137 137 137
137 137 137 137 137 137 137 137 137 137 137 137 137 137 137 137 137
137 137 137 137 137 137 137 137 137 137 137 137 137 137 137 137 137
137 137 137 137 137 137 137 137 137 137 137 137 137 137 137 137 137
137 137 137 137 137 137 137 137 137 137 137 137 137 137 137 137 137
137 137 137 137 137 137 137 137 137 137 137 137 137 137 137 137 137
137 137 137 137 137 137 137 137 137 137 137 137 137 137 137 137 137
137 137 137 137 137 137 137 137 137 137 137 137 137 137 137 137 137
137 137 137 137 137 137 137 137 137 137 137 137 137 137 137 137 137
137 137 137 137 137 137 137 137 137 137 137 137 137 137 137 137 137
137 137 137 137 137 137 137 137 137 137 137 137 137 137 137 137 137
137 137 137 137 137 137 137 137 137 137 137 137 137 137 137 137 137
137 137 137 137 137 137
0 0 0 255 255 255 0 0 0 0 0 0 0 0 0 255 255 255 0 0 0 0 0 0 0 0 0 255
255 255 0 0 0 0 0 0 0 0 0 255 255 255 0 0 0 0 0 0 0 0 0 255 255 255 0
0 0 0 0 0 0 0 0 255 255 255 0 0 0 0 0 0 0 0 0 255 255 255 0 0 0 0 0 0
0 0 0 255 255 255 0 0 0 0 0 0 0 0 0 255 255 255 0 0 0 0 0 0 0 0 0 255
255 255 0 0 0 0 0 0 0 0 0 255 255 255 0 0 0 0 0 0 0 0 0 255 255 255 0
0 0 0 0 0 0 0 0 255 255 255 0 0 0 0 0 0 0 0 0 255 255 255 0 0 0 0 0 0
0 0 0 255 255 255 0 0 0 0 0 0 0 0 0 255 255 255 0 0 0 0 0 0 0 0 0 255
255 255 0 0 0 0 0 0 0 0 0 255 255 255 0 0 0 0 0 0 0 0 0 255 255 255 0
0 0 0 0 0 0 0 0 255 255 255 0 0 0 0 0 0 0 0 0 255 255 255 0 0 0 0 0 0
0 0 0 255 255 255 0 0 0 0 0 0 0 0 0 255 255 255 0 0 0 0 0 0 0 0 0 255
255 255 0 0 0 0 0 0 0 0 0 255 255 255 0 0 0 0 0 0 137 137 137 137 137
137 137 137 137 137 137 137 137 137 137 137 137 137 137 137 137 137
137 137 137 137 137 137 137 137 137 137 137 137 137 137 137 137 137
137 137 137 137 137 137 137 137 137 137 137 137 137 137 137 137 137
137 137 137 137 137 137 137 137 137 137 137 137 137 137 137 137 137
137 137 137 137 137 137 137 137 137 137 137 137 137 137 137 137 137
137 137 137 137 137 137 137 137 137 137 137 137 137 137 137 137 137
137 137 137 137 137 137 137 137 137 137 137 137 137 137 137 137 137
137 137 137 137 137 137 137 137 137 137 137 137 137 137 137 137 137
137 137 137 137 137 137 137 137 137 137 137 137 137 137 137 137 137
137 137 137 137 137 137 137 137 137 137 137 137 137 137 137 137 137
137 137 137 137 137 137 137 137 137 137 137 137 137 137 137 137 137
137 137 137 137 137 137 137 137 137 137 137 137 137 137 137 137 137
137 137 137 137 137 137 137 137 137 137 137 137 137 137 137 137 137
137 137 137 137 137 137 137 137 137 137 137 137 137 137 137 137 137
137 137 137 137 137 137 137 137 137 137 137 137 137 137 137 137 137
137 137 137 137 137 137 137 137 137 137 137 137 137 137 137 137 137
137 137 137 137 137 137 137 137 137 137 137 137 137 137 137 137 137
137 137 137 137 137 137
255 255 255 0 0 0 0 0 0 0 0 0 255 255 255 0 0 0 0 0 0 0 0 0 255 255
255 0 0 0 0 0 0 0 0 0 255 255 255 0 0 0 0 0 0 0 0 0 255 255 255 0 0 0
0 0 0 0 0 0 255 255 255 0 0 0 0 0 0 0 0 0 255 255 255 0 0 0 0 0 0 0 0
0 255 255 255 0 0 0 0 0 0 0 0 0 255 255 255 0 0 0 0 0 0 0 0 0 255 255
255 0 0 0 0 0 0 0 0 0 255 255 255 0 0 0 0 0 0 0 0 0 255 255 255 0 0 0
0 0 0 0 0 0 255 255 255 0 0 0 0 0 0 0 0 0 255 255 255 0 0 0 0 0 0 0 0
0 255 255 255 0 0 0 0 0 0 0 0 0 255 255 255 0 0 0 0 0 0 0 0 0 255 255
255 0 0 0 0 0 0 0 0 0 255 255 255 0 0 0 0 0 0 0 0 0 255 255 255 0 0 0
0 0 0 0 0 0 255 255 255 0 0 0 0 0 0 0 0 0 255 255 255 0 0 0 0 0 0 0 0
0 255 255 255 0 0 0 0 0 0 0 0 0 255 255 255 0 0 0 0 0 0 0 0 0 255 255
255 0 0 0 0 0 0 0 0 0 255 255 255 0 0 0 0 0 0 0 0 0 137 137 137 137
137 137 137 137 137 137 137 137 137 137 137 137 137 137 137 137 137
137 137 137 137 137 137 137 137 137 137 137 137 137 137 137 137 137
137 137 137 137 137 137 137 137 137 137 137 137 137 137 137 137 137
137 137 137 137 137 137 137 137 137 137 137 137 137 137 137 137 137
137 137 137 137 137 137 137 137 137 137 137 137 137 137 137 137 137
137 137 137 137 137 137 137 137 137 137 137 137 137 137 137 137 137
137 137 137 137 137 137 137 137 137 137 137 137 137 137 137 137 137
137 137 137 137 137 137 137 137 137 137 137 137 137 137 137 137 137
137 137 137 137 137 137 137 137 137 137 137 137 137 137 137 137 137
137 137 137 137 137 137 137 137 137 137 137 137 137 137 137 137 137
137 137 137 137 137 137 137 137 137 137 137 137 137 137 137 137 137
137 137 137 137 137 137 137 137 137 137 137 137 137 137 137 137 137
137 137 137 137 137 137 137 137 137 137 137 137 137 137 137 137 137
137 137 137 137 137 137 137 137 137 137 137 137 137 137 137 137 137
137 137 137 137 137 137 137 137 137 137 137 137 137 137 137 137 137
137 137 137 137 137 137 137 137 137 137 137 137 137 137 137 137 137
137 137 137 137 137 137 137 137 137 137 137 137 137 137 137 137 137
137 137 137 137 137 137 137
0 0 0 0 0 0 0 0 0 255 255 255 0 0 0 0 0 0 0 0 0 255 255 255 0 0 0 0 0
0 0 0 0 255 255 255 0 0 0 0 0 0 0 0 0 255 255 255 0 0 0 0 0 0 0 0 0
255 255 255 0 0 0 0 0 0 0 0 0 255 255 255 0 0 0 0 0 0 0 0 0 255 255
255 0 0 0 0 0 0 0 0 0 255 255 255 0 0 0 0 0 0 0 0 0 255 255 255 0 0 0
0 0 0 0 0 0 255 255 255 0 0 0 0 0 0 0 0 0 255 255 255 0 0 0 0 0 0 0 0
0 255 255 255 0 0 0 0 0 0 0 0 0 255 255 255 0 0 0 0 0 0 0 0 0 255 255
255 0 0 0 0 0 0 0 0 0 255 255 255 0 0 0 0 0 0 0 0 0 255 255 255 0 0 0
0 0 0 0 0 0 255 255 255 0 0 0 0 0 0 0 0 0 255 255 255 0 0 0 0 0 0 0 0
0 255 255 255 0 0 0 0 0 0 0 0 0 255 255 255 0 0 0 0 0 0 0 0 0 255 255
255 0 0 0 0 0 0 0 0 0 255 255 255 0 0 0 0 0 0 0 0 0 255 255 255 0 0 0
0 0 0 0 0 0 255 255 255 0 0 0 0 0 0 0 0 0 255 255 255 137 137 137 137
137 137 137 137 137 137 137 137 137 137 137 137 137 137 137 137 137
137 137 137 137 137 137 137 137 137 137 137 137 137 137 137 137 137
137 137 137 137 137 137 137 137 137 137 137 137 137 137 137 137 137
137 137 137 137 137 137 137 137 137 137 137 137 137 137 137 137 137
137 137 137 137 137 137 137 137 137 137 137 137 137 137 137 137 137
137 137 137 137 137 137 137 137 137 137 137 137 137 137 137 137 137
137 137 137 137 137 137 137 137 137 137 137 137 137 137 137 137 137
137 137 137 137 137 137 137 137 137 137 137 137 137 137 137 137 137
137 137 137 137 137 137 137 137 137 137 137 137 137 137 137 137 137
137 137 137 137 137 137 137 137 137 137 137 137 137 137 137 137 137
137 137 137 137 137 137 137 137 137 137 137 137 137 137 137 137 137
137 137 137 137 137 137 137 137 137 137 137 137 137 137 137 137 137
137 137 137 137 137 137 137 137 137 137 137 137 137 137 137 137 137
137 137 137 137 137 137 137 137 137 137 137 137 137 137 137 137 137
137 137 137 137 137 137 137 137 137 137 137 137 137 137 137 137 137
137 137 137 137 137 137 137 137 137 137 137 137 137 137 137 137 137
137 137 137 137 137 137 137 137 137 137 137 137 137 137 137 137 137
137 137 137 137 137 137 137
0 0 0 0 0 0 255 255 255 0 0 0 0 0 0 0 0 0 255 255 255 0 0 0 0 0 0 0 0
0 255 255 255 0 0 0 0 0 0 0 0 0 255 255 255 0 0 0 0 0 0 0 0 0 255 255
255 0 0 0 0 0 0 0 0 0 255 255 255 0 0 0 0 0 0 0 0 0 255 255 255 0 0 0
0 0 0 0 0 0 255 255 255 0 0 0 0 0 0 0 0 0 255 255 255 0 0 0 0 0 0 0 0
0 255 255 255 0 0 0 0 0 0 0 0 0 255 255 255 0 0 0 0 0 0 0 0 0 255 255
255 0 0 0 0 0 0 0 0 0 255 255 255 0 0 0 0 0 0 0 0 0 255 255 255 0 0 0
0 0 0 0 0 0 255 255 255 0 0 0 0 0 0 0 0 0 255 255 255 0 0 0 0 0 0 0 0
0 255 255 255 0 0 0 0 0 0 0 0 0 255 255 255 0 0 0 0 0 0 0 0 0 255 255
255 0 0 0 0 0 0 0 0 0 255 255 255 0 0 0 0 0 0 0 0 0 255 255 255 0 0 0
0 0 0 0 0 0 255 255 255 0 0 0 0 0 0 0 0 0 255 255 255 0 0 0 0 0 0 0 0
0 255 255 255 0 0 0 0 0 0 0 0 0 255 255 255 0 0 0 137 137 137 137 137
137 137 137 137 137 137 137 137 137 137 137 137 137 137 137 137 137
137 137 137 137 137 137 137 137 137 137 137 137 137 137 137 137 137
137 137 137 137 137 137 137 137 137 137 137 137 137 137 137 137 137
137 137 137 137 137 137 137 137 137 137 137 137 137 137 137 137 137
137 137 137 137 137 137 137 137 137 137 137 137 137 137 137 137 137
137 137 137 137 137 137 137 137 137 137 137 137 137 137 137 137 137
137 137 137 137 137 137 137 137 137 137 137 137 137 137 137 137 137
137 137 137 137 137 137 137 137 137 137 137 137 137 137 137 137 137
137 137 137 137 137 137 137 137 137 137 137 137 137 137 137 137 137
137 137 137 137 137 137 137 137 137 137 137 137 137 137 137 137 137
137 137 137 137 137 137 137 137 137 137 137 137 137 137 137 137 137
137 137 137 137 137 137 137 137 137 137 137 137 137 137 137 137 137
137 137 137 137 137 137 137 137 137 137 137 137 137 137 137 137 137
137 137 137 137 137 137 137 137 137 137 137 137 137 137 137 137 137
137 137 137 137 137 137 137 137 137 137 137 137 137 137 137 137 137
137 137 137 137 137 137 137 137 137 137 137 137 137 137 137 137 137
137 137 137 137 137 137 137 137 137 137 137 137 137 137 137 137 137
137 137 137 137 137 137
0 0 0 255 255 255 0 0 0 0 0 0 0 0 0 255 255 255 0 0 0 0 0 0 0 0 0 255
255 255 0 0 0 0 0 0 0 0 0 255 255 255 0 0 0 0 0 0 0 0 0 255 255 255 0
0 0 0 0 0 0 0 0 255 255 255 0 0 0 0 0 0 0 0 0 255 255 255 0 0 0 0 0 0
0 0 0 255 255 255 0 0 0 0 0 0 0 0 0 255 255 255 0 0 0 0 0 0 0 0 0 255
255 255 0 0 0 0 0 0 0 0 0 255 255 255 0 0 0 0 0 0 0 0 0 255 255 255 0
0 0 0 0 0 0 0 0 255 255 255 0 0 0 0 0 0 0 0 0 255 255 255 0 0 0 0 0 0
0 0 0 255 255 255 0 0 0 0 0 0 0 0 0 255 255 255 0 0 0 0 0 0 0 0 0 255
255 255 0 0 0 0 0 0 0 0 0 255 255 255 0 0 0 0 0 0 0 0 0 255 255 255 0
0 0 0 0 0 0 0 0 255 255 255 0 0 0 0 0 0 0 0 0 255 255 255 0 0 0 0 0 0
0 0 0 255 255 255 0 0 0 0 0 0 0 0 0 255 255 255 0 0 0 0 0 0 0 0 0 255
255 255 0 0 0 0 0 0 0 0 0 255 255 255 0 0 0 0 0 0 137 137 137 137 137
137 137 137 137 137 137 137 137 137 137 137 137 137 137 137 137 137
137 137 137 137 137 137 137 137 137 137 137 137 137 137 137 137 137
137 137 137 137 137 137 137 137 137 137 137 137 137 137 137 137 137
137 137 137 137 137 137 137 137 137 137 137 137 137 137 137 137 137
137 137 137 137 137 137 137 137 137 137 137 137 137 137 137 137 137
137 137 137 137 137 137 137 137 137 137 137 137 137 137 137 137 137
137 137 137 137 137 137 137 137 137 137 137 137 137 137 137 137 137
137 137 137 137 137 137 137 137 137 137 137 137 137 137 137 137 137
137 137 137 137 137 137 137 137 137 137 137 137 137 137 137 137 137
137 137 137 137 137 137 137 137 137 137 137 137 137 137 137 137 137
137 137 137 137 137 137 137 137 137 137 137 137 137 137 137 137 137
137 137 137 137 137 137 137 137 137 137 137 137 137 137 137 137 137
137 137 137 137 137 137 137 137 137 137 137 137 137 137 137 137 137
137 137 137 137 137 137 137 137 137 137 137 137 137 137 137 137 137
137 137 137 137 137 137 137 137 137 137 137 137 137 137 137 137 137
137 137 137 137 137 137 137 137 137 137 137 137 137 137 137 137 137
137 137 137 137 137 137 137 137 137 137 137 137 137 137 137 137 137
137 137 137 137 137 137
255 255 255 0 0 0 0 0 0 0 0 0 255 255 255 0 0 0 0 0 0 0 0 0 255 255
255 0 0 0 0 0 0 0 0 0 255 255 255 0 0 0 0 0 0 0 0 0 255 255 255 0 0 0
0 0 0 0 0 0 255 255 255 0 0 0 0 0 0 0 0 0 255 255 255 0 0 0 0 0 0 0 0
0 255 255 255 0 0 0 0 0 0 0 0 0 255 255 255 0 0 0 0 0 0 0 0 0 255 255
255 0 0 0 0 0 0 0 0 0 255 255 255 0 0 0 0 0 0 0 0 0 255 255 255 0 0 0
0 0 0 0 0 0 255 255 255 0 0 0 0 0 0 0 0 0 255 255 255 0 0 0 0 0 0 0 0
0 255 255 255 0 0 0 0 0 0 0 0 0 255 255 255 0 0 0 0 0 0 0 0 0 255 255
255 0 0 0 0 0 0 0 0 0 255 255 255 0 0 0 0 0 0 0 0 0 255 255 255 0 0 0
0 0 0 0 0 0 255 255 255 0 0 0 0 0 0 0 0 0 255 255 255 0 0 0 0 0 0 0 0
0 255 255 255 0 0 0 0 0 0 0 0 0 255 255 255 0 0 0 0 0 0 0 0 0 255 255
255 0 0 0 0 0 0 0 0 0 255 255 255 0 0 0 0 0 0 0 0 0 137 137 137 137
137 137 137 137 137 137 137 137 137 137 137 137 137 137 137 137 137
137 137 137 137 137 137 137 137 137 137 137 137 137 137 137 137 137
137 137 137 137 137 137 137 137 137 137 137 137 137 137 137 137 137
137 137 137 137 137 137 137 137 137 137 137 137 137 137 137 137 137
137 137 137 137 137 137 137 137 137 137 137 137 137 137 137 137 137
137 137 137 137 137 137 137 137 137 137 137 137 137 137 137 137 137
137 137 137 137 137 137 137 137 137 137 137 137 137 137 137 137 137
137 137 137 137 137 137 137 137 137 137 137 137 137 137 137 137 137
137 137 137 137 137 137 137 137 137 137 137 137 137 137 137 137 137
137 137 137 137 137 137 137 137 137 137 137 137 137 137 137 137 137
137 137 137 137 137 137 137 137 137 137 137 137 137 137 137 137 137
137 137 137 137 137 137 137 137 137 137 137 137 137 137 137 137 137
137 137 137 137 137 137 137 137 137 137 137 137 137 137 137 137 137
137 137 137 137 137 137 137 137 137 137 137 137 137 137 137 137 137
137 137 137 137 137 137 137 137 137 137 137 137 137 137 137 137 137
137 137 137 137 137 137 137 137 137 137 137 137 137 137 137 137 137
137 137 137 137 137 137 137 137 137 137 137 137 137 137 137 137 137
137 137 137 137 137 137 137
0 0 0 0 0 0 0 0 0 255 255 255 0 0 0 0 0 0 0 0 0 255 255 255 0 0 0 0 0
0 0 0 0 255 255 255 0 0 0 0 0 0 0 0 0 255 255 255 0 0 0 0 0 0 0 0 0
255 255 255 0 0 0 0 0 0 0 0 0 255 255 255 0 0 0 0 0 0 0 0 0 255 255
255 0 0 0 0 0 0 0 0 0 255 255 255 0 0 0 0 0 0 0 0 0 255 255 255 0 0 0
0 0 0 0 0 0 255 255 255 0 0 0 0 0 0 0 0 0 255 255 255 0 0 0 0 0 0 0 0
0 255 255 255 0 0 0 0 0 0 0 0 0 255 255 255 0 0 0 0 0 0 0 0 0 255 255
255 0 0 0 0 0 0 0 0 0 255 255 255 0 0 0 0 0 0 0 0 0 255 255 255 0 0 0
0 0 0 0 0 0 255 255 255 0 0 0 0 0 0 0 0 0 255 255 255 0 0 0 0 0 0 0 0
0 255 255 255 0 0 0 0 0 0 0 0 0 255 255 255 0 0 0 0 0 0 0 0 0 255 255
255 0 0 0 0 0 0 0 0 0 255 255 255 0 0 0 0 0 0 0 0 0 255 255 255 0 0 0
0 0 0 0 0 0 255 255 255 0 0 0 0 0 0 0 0 0 255 255 255 137 137 137 137
137 137 137 137 137 137 137 137 137 137 137 137 137 137 137 137 137
137 137 137 137 137 137 137 137 137 137 137 137 137 137 137 137 137
137 137 137 137 137 137 137 137 137 137 137 137 137 137 137 137 137
137 137 137 137 137 137 137 137 137 137 137 137 137 137 137 137 137
137 137 137 137 137 137 137 137 137 137 137 137 137 137 137 137 137
137 137 137 137 137 137 137 137 137 137 137 137 137 137 137 137 137
137 137 137 137 137 137 137 137 137 137 137 137 137 137 137 137 137
137 137 137 137 137 137 137 137 137 137 137 137 137 137 137 137 137
137 137 137 137 137 137 137 137 137 137 137 137 137 137 137 137 137
137 137 137 137 137 137 137 137 137 137 137 137 137 137 137 137 137
137 137 137 137 137 137 137 137 137 137 137 137 137 137 137 137 137
137 137 137 137 137 137 137 137 137 137 137 137 137 137 137 137 137
137 137 137 137 137 137 137 137 137 137 137 137 137 137 137 137 137
137 137 137 137 137 137 137 137 137 137 137 137 137 137 137 137 137
137 137 137 137 137 137 137 137 137 137 137 137 137 137 137 137 137
137 137 137 137 137 137 137 137 137 137 137 137 137 137 137 137 137
137 137 137 137 137 137 137 137 137 137 137 137 137 137 137 137 137
137 137 137 137 137 137 137
0 0 0 0 0 0 255 255 255 0 0 0 0 0 0 0 0 0 255 255 255 0 0 0 0 0 0 0 0
0 255 255 255 0 0 0 0 0 0 0 0 0 255 255 255 0 0 0 0 0 0 0 0 0 255 255
255 0 0 0 0 0 0 0 0 0 255 255 255 0 0 0 0 0 0 0 0 0 255 255 255 0 0 0
0 0 0 0 0 0 255 255 255 0 0 0 0 0 0 0 0 0 255 255 255 0 0 0 0 0 0 0 0
0 255 255 255 0 0 0 0 0 0 0 0 0 255 255 255 0 0 0 0 0 0 0 0 0 255 255
255 0 0 0 0 0 0 0 0 0 255 255 255 0 0 0 0 0 0 0 0 0 255 255 255 0 0 0
0 0 0 0 0 0 255 255 255 0 0 0 0 0 0 0 0 0 255 255 255 0 0 0 0 0 0 0 0
0 255 255 255 0 0 0 0 0 0 0 0 0 255 255 255 0 0 0 0 0 0 0 0 0 255 255
255 0 0 0 0 0 0 0 0 0 255 255 255 0 0 0 0 0 0 0 0 0 255 255 255 0 0 0
0 0 0 0 0 0 255 255 255 0 0 0 0 0 0 0 0 0 255 255 255 0 0 0 0 0 0 0 0
0 255 255 255 0 0 0 0 0 0 0 0 0 255 255 255 0 0 0 137 137 137 137 137
137 137 137 137 137 137 137 137 137 137 137 137 137 137 137 137 137
137 137 137 137 137 137 137 137 137 137 137 137 137 137 137 137 137
137 137 137 137 137 137 137 137 137 137 137 137 137 137 137 137 137
137 137 137 137 137 137 137 137 137 137 137 137 137 137 137 137 137
137 137 137 137 137 137 137 137 137 137 137 137 137 137 137 137 137
137 137 137 137 137 137 137 137 137 137 137 137 137 137 137 137 137
137 137 137 137 137 137 137 137 137 137 137 137 137 137 137 137 137
137 137 137 137 137 137 137 137 137 137 137 137 137 137 137 137 137
137 137 137 137 137 137 137 137 137 137 137 137 137 137 137 137 137
137 137 137 137 137 137 137 137 137 137 137 137 137 137 137 137 137
137 137 137 137 137 137 137 137 137 137 137 137 137 137 137 137 137
137 137 137 137 137 137 137 137 137 137 137 137 137 137 137 137 137
137 137 137 137 137 137 137 137 137 137 137 137 137 137 137 137 137
137 137 137 137 137 137 137 137 137 137 137 137 137 137 137 137 137
137 137 137 137 137 137 137 137 137 137 137 137 137 137 137 137 137
137 137 137 137 137 137 137 137 137 137 137 137 137 137 137 137 137
137 137 137 137 137 137 137 137 137 137 137 137 137 137 137 137 137
137 137 137 137 137 137
0 0 0 255 255 255 0 0 0 0 0 0 0 0 0 255 255 255 0 0 0 0 0 0 0 0 0 255
255 255 0 0 0 0 0 0 0 0 0 255 255 255 0 0 0 0 0 0 0 0 0 255 255 255 0
0 0 0 0 0 0 0 0 255 255 255 0 0 0 0 0 0 0 0 0 255 255 255 0 0 0 0 0 0
0 0 0 255 255 255 0 0 0 0 0 0 0 0 0 255 255 255 0 0 0 0 0 0 0 0 0 255
255 255 0 0 0 0 0 0 0 0 0 255 255 255 0 0 0 0 0 0 0 0 0 255 255 255 0
0 0 0 0 0 0 0 0 255 255 255 0 0 0 0 0 0 0 0 0 255 255 255 0 0 0 0 0 0
0 0 0 255 255 255 0 0 0 0 0 0 0 0 0 255 255 255 0 0 0 0 0 0 0 0 0 255
255 255 0 0 0 0 0 0 0 0 0 255 255 255 0 0 0 0 0 0 0 0 0 255 255 255 0
0 0 0 0 0 0 0 0 255 255 255 0 0 0 0 0 0 0 0 0 255 255 255 0 0 0 0 0 0
0 0 0 255 255 255 0 0 0 0 0 0 0 0 0 255 255 255 0 0 0 0 0 0 0 0 0 255
255 255 0 0 0 0 0 0 0 0 0 255 255 255 0 0 0 0 0 0 137 137 137 137 137
137 137 137 137 137 137 137 137 137 137 137 137 137 137 137 137 137
137 137 137 137 137 137 137 137 137 137 137 137 137 137 137 137 137
137 137 137 137 137 137 137 137 137 137 137 137 137 137 137 137 137
137 137 137 137 137 137 137 137 137 137 137 137 137 137 137 137 137
137 137 137 137 137 137 137 137 137 137 137 137 137 137 137 137 137
137 137 137 137 137 137 137 137 137 137 137 137 137 137 137 137 137
137 137 137 137 137 137 137 137 137 137 137 137 137 137 137 137 137
137 137 137 137 137 137 137 137 137 137 137 137 137 137 137 137 137
137 137 137 137 137 137 137 137 137 137 137 137 137 137 137 137 137
137 137 137 137 137 137 137 137 137 137 137 137 137 137 137 137 137
137 137 137 137 137 137 137 137 137 137 137 137 137 137 137 137 137
137 137 137 137 137 137 137 137 137 137 137 137 137 137 137 137 137
137 137 137 137 137 137 137 137 137 137 137 137 137 137 137 137 137
137 137 137 137 137 137 137 137 137 137 137 137 137 137 137 137 137
137 137 137 137 137 137 137 137 137 137 137 137 137 137 137 137 137
137 137 137 137 137 137 137 137 137 137 137 137 137 137 137 137 137
137 137 137 137 137 137 137 137 137 137 137 137 137 137 137 137 137
137 137 137 137 137 137
255 255 255 0 0 0 0 0 0 0 0 0 255 255 255 0 0 0 0 0 0 0 0 0 255 255
255 0 0 0 0 0 0 0 0 0 255 255 255 0 0 0 0 0 0 0 0 0 255 255 255 0 0 0
0 0 0 0 0 0 255 255 255 0 0 0 0 0 0 0 0 0 255 255 255 0 0 0 0 0 0 0 0
0 255 255 255 0 0 0 0 0 0 0 0 0 255 255 255 0 0 0 0 0 0 0 0 0 255 255
255 0 0 0 0 0 0 0 0 0 255 255 255 0 0 0 0 0 0 0 0 0 255 255 255 0 0 0
0 0 0 0 0 0 255 255 255 0 0 0 0 0 0 0 0 0 255 255 255 0 0 0 0 0 0 0 0
0 255 255 255 0 0 0 0 0 0 0 0 0 255 255 255 0 0 0 0 0 0 0 0 0 255 255
255 0 0 0 0 0 0 0 0 0 255 255 255 0 0 0 0 0 0 0 0 0 255 255 255 0 0 0
0 0 0 0 0 0 255 255 255 0 0 0 0 0 0 0 0 0 255 255 255 0 0 0 0 0 0 0 0
0 255 255 255 0 0 0 0 0 0 0 0 0 255 255 255 0 0 0 0 0 0 0 0 0 255 255
255 0 0 0 0 0 0 0 0 0 255 255 255 0 0 0 0 0 0 0 0 0 137 137 137 137
137 137 137 137 137 137 137 137 137 137 137 137 137 137 137 137 137
137 137 137 137 137 137 137 137 137 137 137 137 137 137 137 137 137
137 137 137 137 137 137 137 137 137 137 137 137 137 137 137 137 137
137 137 137 137 137 137 137 137 137 137 137 137 137 137 137 137 137
137 137 137 137 137 137 137 137 137 137 137 137 137 137 137 137 137
137 137 137 137 137 137 137 137 137 137 137 137 137 137 137 137 137
137 137 137 137 137 137 137 137 137 137 137 137 137 137 137 137 137
137 137 137 137 137 137 137 137 137 137 137 137 137 137 137 137 137
137 137 137 137 137 137 137 137 137 137 137 137 137 137 137 137 137
137 137 137 137 137 137 137 137 137 137 137 137 137 137 137 137 137
137 137 137 137 137 137 137 137 137 137 137 137 137 137 137 137 137
137 137 137 137 137 137 137 137 137 137 137 137 137 137 137 137 137
137 137 137 137 137 137 137 137 137 137 137 137 137 137 137 137 137
137 137 137 137 137 137 137 137 137 137 137 137 137 137 137 137 137
137 137 137 137 137 137 137 137 137 137 137 137 137 137 137 137 137
137 137 137 137 137 137 137 137 137 137 137 137 137 137 137 137 137
137 137 137 137 137 137 137 137 137 137 137 137 137 137 137 137 137
137 137 137 137 137 137 137
0 0 0 0 0 0 0 0 0 255 255 255 0 0 0 0 0 0 0 0 0 255 255 255 0 0 0 0 0
0 0 0 0 255 255 255 0 0 0 0 0 0 0 0 0 255 255 255 0 0 0 0 0 0 0 0 0
255 255 255 0 0 0 0 0 0 0 0 0 255 255 255 0 0 0 0 0 0 0 0 0 255 255
255 0 0 0 0 0 0 0 0 0 255 255 255 0 0 0 0 0 0 0 0 0 255 255 255 0 0 0
0 0 0 0 0 0 255 255 255 0 0 0 0 0 0 0 0 0 255 255 255 0 0 0 0 0 0 0 0
0 255 255 255 0 0 0 0 0 0 0 0 0 255 255 255 0 0 0 0 0 0 0 0 0 255 255
255 0 0 0 0 0 0 0 0 0 255 255 255 0 0 0 0 0 0 0 0 0 255 255 255 0 0 0
0 0 0 0 0 0 255 255 255 0 0 0 0 0 0 0 0 0 255 255 255 0 0 0 0 0 0 0 0
0 255 255 255 0 0 0 0 0 0 0 0 0 255 255 255 0 0 0 0 0 0 0 0 0 255 255
255 0 0 0 0 0 0 0 0 0 255 255 255 0 0 0 0 0 0 0 0 0 255 255 255 0 0 0
0 0 0 0 0 0 255 255 255 0 0 0 0 0 0 0 0 0 255 255 255 137 137 137 137
137 137 137 137 137 137 137 137 137 137 137 137 137 137 137 137 137
137 137 137 137 137 137 137 137 137 137 137 137 137 137 137 137 137
137 137 137 137 137 137 137 137 137 137 137 137 137 137 137 137 137
137 137 137 137 137 137 137 137 137 137 137 137 137 137 137 137 137
137 137 137 137 137 137 137 137 137 137 137 137 137 137 137 137 137
137 137 137 137 137 137 137 137 137 137 137 137 137 137 137 137 137
137 137 137 137 137 137 137 137 137 137 137 137 137 137 137 137 137
137 137 137 137 137 137 137 137 137 137 137 137 137 137 137 137 137
137 137 137 137 137 137 137 137 137 137 137 137 137 137 137 137 137
137 137 137 137 137 137 137 137 137 137 137 137 137 137 137 137 137
137 137 137 137 137 137 137 137 137 137 137 137 137 137 137 137 137
137 137 137 137 137 137 137 137 137 137 137 137 137 137 137 137 137
137 137 137 137 137 137 137 137 137 137 137 137 137 137 137 137 137
137 137 137 137 137 137 137 137 137 137 137 137 137 137 137 137 137
137 137 137 137 137 137 137 137 137 137 137 137 137 137 137 137 137
137 137 137 137 137 137 137 137 137 137 137 137 137 137 137 137 137
137 137 137 137 137 137 137 137 137 137 137 137 137 137 137 137 137
137 137 137 137 137 137 137
0 0 0 0 0 0 255 255 255 0 0 0 0 0 0 0 0 0 255 255 255 0 0 0 0 0 0 0 0
0 255 255 255 0 0 0 0 0 0 0 0 0 255 255 255 0 0 0 0 0 0 0 0 0 255 255
255 0 0 0 0 0 0 0 0 0 255 255 255 0 0 0 0 0 0 0 0 0 255 255 255 0 0 0
0 0 0 0 0 0 255 255 255 0 0 0 0 0 0 0 0 0 255 255 255 0 0 0 0 0 0 0 0
0 255 255 255 0 0 0 0 0 0 0 0 0 255 255 255 0 0 0 0 0 0 0 0 0 255 255
255 0 0 0 0 0 0 0 0 0 255 255 255 0 0 0 0 0 0 0 0 0 255 255 255 0 0 0
0 0 0 0 0 0 255 255 255 0 0 0 0 0 0 0 0 0 255 255 255 0 0 0 0 0 0 0 0
0 255 255 255 0 0 0 0 0 0 0 0 0 255 255 255 0 0 0 0 0 0 0 0 0 255 255
255 0 0 0 0 0 0 0 0 0 255 255 255 0 0 0 0 0 0 0 0 0 255 255 255 0 0 0
0 0 0 0 0 0 255 255 255 0 0 0 0 0 0 0 0 0 255 255 255 0 0 0 0 0 0 0 0
0 255 255 255 0 0 0 0 0 0 0 0 0 255 255 255 0 0 0 137 137 137 137 137
137 137 137 137 137 137 137 137 137 137 137 137 137 137 137 137 137
137 137 137 137 137 137 137 137 137 137 137 137 137 137 137 137 137
137 137 137 137 137 137 137 137 137 137 137 137 137 137 137 137 137
137 137 137 137 137 137 137 137 137 137 137 137 137 137 137 137 137
137 137 137 137 137 137 137 137 137 137 137 137 137 137 137 137 137
137 137 137 137 137 137 137 137 137 137 137 137 137 137 137 137 137
137 137 137 137 137 137 137 137 137 137 137 137 137 137 137 137 137
137 137 137 137 137 137 137 137 137 137 137 137 137 137 137 137 137
137 137 137 137 137 137 137 137 137 137 137 137 137 137 137 137 137
137 137 137 137 137 137 137 137 137 137 137 137 137 137 137 137 137
137 137 137 137 137 137 137 137 137 137 137 137 137 137 137 137 137
137 137 137 137 137 137 137 137 137 137 137 137 137 137 137 137 137
137 137 137 137 137 137 137 137 137 137 137 137 137 137 137 137 137
137 137 137 137 137 137 137 137 137 137 137 137 137 137 137 137 137
137 137 137 137 137 137 137 137 137 137 137 137 137 137 137 137 137
137 137 137 137 137 137 137 137 137 137 137 137 137 137 137 137 137
137 137 137 137 137 137 137 137 137 137 137 137 137 137 137 137 137
137 137 137 137 137 137
0 0 0 255 255 255 0 0 0 0 0 0 0 0 0 255 255 255 0 0 0 0 0 0 0 0 0 255
255 255 0 0 0 0 0 0 0 0 0 255 255 255 0 0 0 0 0 0 0 0 0 255 255 255 0
0 0 0 0 0 0 0 0 255 255 255 0 0 0 0 0 0 0 0 0 255 255 255 0 0 0 0 0 0
0 0 0 255 255 255 0 0 0 0 0 0 0 0 0 255 255 255 0 0 0 0 0 0 0 0 0 255
255 255 0 0 0 0 0 0 0 0 0 255 255 255 0 0 0 0 0 0 0 0 0 255 255 255 0
0 0 0 0 0 0 0 0 255 255 255 0 0 0 0 0 0 0 0 0 255 255 255 0 0 0 0 0 0
0 0 0 255 255 255 0 0 0 0 0 0 0 0 0 255 255 255 0 0 0 0 0 0 0 0 0 255
255 255 0 0 0 0 0 0 0 0 0 255 255 255 0 0 0 0 0 0 0 0 0 255 255 255 0
0 0 0 0 0 0 0 0 255 255 255 0 0 0 0 0 0 0 0 0 255 255 255 0 0 0 0 0 0
0 0 0 255 255 255 0 0 0 0 0 0 0 0 0 255 255 255 0 0 0 0 0 0 0 0 0 255
255 255 0 0 0 0 0 0 0 0 0 255 255 255 0 0 0 0 0 0 137 137 137 137 137
137 137 137 137 137 137 137 137 137 137 137 137 137 137 137 137 137
137 137 137 137 137 137 137 137 137 137 137 137 137 137 137 137 137
137 137 137 137 137 137 137 137 137 137 137 137 137 137 137 137 137
137 137 137 137 137 137 137 137 137 137 137 137 137 137 137 137 137
137 137 137 137 137 137 137 137 137 137 137 137 137 137 137 137 137
137 137 137 137 137 137 137 137 137 137 137 137 137 137 137 137 137
137 137 137 137 137 137 137 137 137 137 137 137 137 137 137 137 137
137 137 137 137 137 137 137 137 137 137 137 137 137 137 137 137 137
137 137 137 137 137 137 137 137 137 137 137 137 137 137 137 137 137
137 137 137 137 137 137 137 137 137 137 137 137 137 137 137 137 137
137 137 137 137 137 137 137 137 137 137 137 137 137 137 137 137 137
137 137 137 137 137 137 137 137 137 137 137 137 137 137 137 137 137
137 137 137 137 137 137 137 137 137 137 137 137 137 137 137 137 137
137 137 137 137 137 137 137 137 137 137 137 137 137 137 137 137 137
137 137 137 137 137 137 137 137 137 137 137 137 137 137 137 137 137
137 137 137 137 137 137 137 137 137 137 137 137 137 137 137 137 137
137 137 137 137 137 137 137 137 137 137 137 137 137 137 137 137 137
137 137 137 137 137 137
255 255 255 0 0 0 0 0 0 0 0 0 255 255 255 0 0 0 0 0 0 0 0 0 255 255
255 0 0 0 0 0 0 0 0 0 255 255 255 0 0 0 0 0 0 0 0 0 255 255 255 0 0 0
0 0 0 0 0 0 255 255 255 0 0 0 0 0 0 0 0 0 255 255 255 0 0 0 0 0 0 0 0
0 255 255 255 0 0 0 0 0 0 0 0 0 255 255 255 0 0 0 0 0 0 0 0 0 255 255
255 0 0 0 0 0 0 0 0 0 255 255 255 0 0 0 0 0 0 0 0 0 255 255 255 0 0 0
0 0 0 0 0 0 255 255 255 0 0 0 0 0 0 0 0 0 255 255 255 0 0 0 0 0 0 0 0
0 255 255 255 0 0 0 0 0 0 0 0 0 255 255 255 0 0 0 0 0 0 0 0 0 255 255
255 0 0 0 0 0 0 0 0 0 255 255 255 0 0 0 0 0 0 0 0 0 255 255 255 0 0 0
0 0 0 0 0 0 255 255 255 0 0 0 0 0 0 0 0 0 255 255 255 0 0 0 0 0 0 0 0
0 255 255 255 0 0 0 0 0 0 0 0 0 255 255 255 0 0 0 0 0 0 0 0 0 255 255
255 0 0 0 0 0 0 0 0 0 255 255 255 0 0 0 0 0 0 0 0 0 137 137 137 137
137 137 137 137 137 137 137 137 137 137 137 137 137 137 137 137 137
137 137 137 137 137 137 137 137 137 137 137 137 137 137 137 137 137
137 137 137 137 137 137 137 137 137 137 137 137 137 137 137 137 137
137 137 137 137 137 137 137 137 137 137 137 137 137 137 137 137 137
137 137 137 137 137 137 137 137 137 137 137 137 137 137 137 137 137
137 137 137 137 137 137 137 137 137 137 137 137 137 137 137 137 137
137 137 137 137 137 137 137 137 137 137 137 137 137 137 137 137 137
137 137 137 137 137 137 137 137 137 137 137 137 137 137 137 137 137
137 137 137 137 137 137 137 137 137 137 137 137 137 137 137 137 137
137 137 137 137 137 137 137 137 137 137 137 137 137 137 137 137 137
137 137 137 137 137 137 137 137 137 137 137 137 137 137 137 137 137
137 137 137 137 137 137 137 137 137 137 137 137 137 137 137 137 137
137 137 137 137 137 137 137 137 137 137 137 137 137 137 137 137 137
137 137 137 137 137 137 137 137 137 137 137 137 137 137 137 137 137
137 137 137 137 137 137 137 137 137 137 137 137 137 137 137 137 137
137 137 137 137 137 137 137 137 137 137 137 137 137 137 137 137 137
137 137 137 137 137 137 137 137 137 137 137 137 137 137 137 137 137
137 137 137 137 137 137 137
0 0 0 0 0 0 0 0 0 255 255 255 0 0 0 0 0 0 0 0 0 255 255 255 0 0 0 0 0
0 0 0 0 255 255 255 0 0 0 0 0 0 0 0 0 255 255 255 0 0 0 0 0 0 0 0 0
255 255 255 0 0 0 0 0 0 0 0 0 255 255 255 0 0 0 0 0 0 0 0 0 255 255
255 0 0 0 0 0 0 0 0 0 255 255 255 0 0 0 0 0 0 0 0 0 255 255 255 0 0 0
0 0 0 0 0 0 255 255 255 0 0 0 0 0 0 0 0 0 255 255 255 0 0 0 0 0 0 0 0
0 255 255 255 0 0 0 0 0 0 0 0 0 255 255 255 0 0 0 0 0 0 0 0 0 255 255
255 0 0 0 0 0 0 0 0 0 255 255 255 0 0 0 0 0 0 0 0 0 255 255 255 0 0 0
0 0 0 0 0 0 255 255 255 0 0 0 0 0 0 0 0 0 255 255 255 0 0 0 0 0 0 0 0
0 255 255 255 0 0 0 0 0 0 0 0 0 255 255 255 0 0 0 0 0 0 0 0 0 255 255
255 0 0 0 0 0 0 0 0 0 255 255 255 0 0 0 0 0 0 0 0 0 255 255 255 0 0 0
0 0 0 0 0 0 255 255 255 0 0 0 0 0 0 0 0 0 255 255 255 137 137 137 137
137 137 137 137 137 137 137 137 137 137 137 137 137 137 137 137 137
137 137 137 137 137 137 137 137 137 137 137 137 137 137 137 137 137
137 137 137 137 137 137 137 137 137 137 137 137 137 137 137 137 137
137 137 137 137 137 137 137 137 137 137 137 137 137 137 137 137 137
137 137 137 137 137 137 137 137 137 137 137 137 137 137 137 137 137
137 137 137 137 137 137 137 137 137 137 137 137 137 137 137 137 137
137 137 137 137 137 137 137 137 137 137 137 137 137 137 137 137 137
137 137 137 137 137 137 137 137 137 137 137 137 137 137 137 137 137
137 137 137 137 137 137 137 137 137 137 137 137 137 137 137 137 137
137 137 137 137 137 137 137 137 137 137 137 137 137 137 137 137 137
137 137 137 137 137 137 137 137 137 137 137 137 137 137 137 137 137
137 137 137 137 137 137 137 137 137 137 137 137 137 137 137 137 137
137 137 137 137 137 137 137 137 137 137 137 137 137 137 137 137 137
137 137 137 137 137 137 137 137 137 137 137 137 137 137 137 137 137
137 137 137 137 137 137 137 137 137 137 137 137 137 137 137 137 137
137 137 137 137 137 137 137 137 137 137 137 137 137 137 137 137 137
137 137 137 137 137 137 137 137 137 137 137 137 137 137 137 137 137
137 137 137 137 137 137 137
0 0 0 0 0 0 255 255 255 0 0 0 0 0 0 0 0 0 255 255 255 0 0 0 0 0 0 0 0
0 255 255 255 0 0 0 0 0 0 0 0 0 255 255 255 0 0 0 0 0 0 0 0 0 255 255
255 0 0 0 0 0 0 0 0 0 255 255 255 0 0 0 0 0 0 0 0 0 255 255 255 0 0 0
0 0 0 0 0 0 255 255 255 0 0 0 0 0 0 0 0 0 255 255 255 0 0 0 0 0 0 0 0
0 255 255 255 0 0 0 0 0 0 0 0 0 255 255 255 0 0 0 0 0 0 0 0 0 255 255
255 0 0 0 0 0 0 0 0 0 255 255 255 0 0 0 0 0 0 0 0 0 255 255 255 0 0 0
0 0 0 0 0 0 255 255 255 0 0 0 0 0 0 0 0 0 255 255 255 0 0 0 0 0 0 0 0
0 255 255 255 0 0 0 0 0 0 0 0 0 255 255 255 0 0 0 0 0 0 0 0 0 255 255
255 0 0 0 0 0 0 0 0 0 255 255 255 0 0 0 0 0 0 0 0 0 255 255 255 0 0 0
0 0 0 0 0 0 255 255 255 0 0 0 0 0 0 0 0 0 255 255 255 0 0 0 0 0 0 0 0
0 255 255 255 0 0 0 0 0 0 0 0 0 255 255 255 0 0 0 137 137 137 137 137
137 137 137 137 137 137 137 137 137 137 137 137 137 137 137 137 137
137 137 137 137 137 137 137 137 137 137 137 137 137 137 137 137 137
137 137 137 137 137 137 137 137 137 137 137 137 137 137 137 137 137
137 137 137 137 137 137 137 137 137 137 137 137 137 137 137 137 137
137 137 137 137 137 137 137 137 137 137 137 137 137 137 137 137 137
137 137 137 137 137 137 137 137 137 137 137 137 137 137 137 137 137
137 137 137 137 137 137 137 137 137 137 137 137 137 137 137 137 137
137 137 137 137 137 137 137 137 137 137 137 137 137 137 137 137 137
137 137 137 137 137 137 137 137 137 137 137 137 137 137 137 137 137
137 137 137 137 137 137 137 137 137 137 137 137 137 137 137 137 137
137 137 137 137 137 137 137 137 137 137 137 137 137 137 137 137 137
137 137 137 137 137 137 137 137 137 137 137 137 137 137 137 137 137
137 137 137 137 137 137 137 137 137 137 137 137 137 137 137 137 137
137 137 137 137 137 137 137 137 137 137 137 137 137 137 137 137 137
137 137 137 137 137 137 137 137 137 137 137 137 137 137 137 137 137
137 137 137 137 137 137 137 137 137 137 137 137 137 137 137 137 137
137 137 137 137 137 137 137 137 137 137 137 137 137 137 137 137 137
137 137 137 137 137 137
0 0 0 255 255 255 0 0 0 0 0 0 0 0 0 255 255 255 0 0 0 0 0 0 0 0 0 255
255 255 0 0 0 0 0 0 0 0 0 255 255 255 0 0 0 0 0 0 0 0 0 255 255 255 0
0 0 0 0 0 0 0 0 255 255 255 0 0 0 0 0 0 0 0 0 255 255 255 0 0 0 0 0 0
0 0 0 255 255 255 0 0 0 0 0 0 0 0 0 255 255 255 0 0 0 0 0 0 0 0 0 255
255 255 0 0 0 0 0 0 0 0 0 255 255 255 0 0 0 0 0 0 0 0 0 255 255 255 0
0 0 0 0 0 0 0 0 255 255 255 0 0 0 0 0 0 0 0 0 255 255 255 0 0 0 0 0 0
0 0 0 255 255 255 0 0 0 0 0 0 0 0 0 255 255 255 0 0 0 0 0 0 0 0 0 255
255 255 0 0 0 0 0 0 0 0 0 255 255 255 0 0 0 0 0 0 0 0 0 255 255 255 0
0 0 0 0 0 0 0 0 255 255 255 0 0 0 0 0 0 0 0 0 255 255 255 0 0 0 0 0 0
0 0 0 255 255 255 0 0 0 0 0 0 0 0 0 255 255 255 0 0 0 0 0 0 0 0 0 255
255 255 0 0 0 0 0 0 0 0 0 255 255 255 0 0 0 0 0 0 137 137 137 137 137
137 137 137 137 137 137 137 137 137 137 137 137 137 137 137 137 137
137 137 137 137 137 137 137 137 137 137 137 137 137 137 137 137 137
137 137 137 137 137 137 137 137 137 137 137 137 137 137 137 137 137
137 137 137 137 137 137 137 137 137 137 137 137 137 137 137 137 137
137 137 137 137 137 137 137 137 137 137 137 137 137 137 137 137 137
137 137 137 137 137 137 137 137 137 137 137 137 137 137 137 137 137
137 137 137 137 137 137 137 137 137 137 137 137 137 137 137 137 137
137 137 137 137 137 137 137 137 137 137 137 137 137 137 137 137 137
137 137 137 137 137 137 137 137 137 137 137 137 137 137 137 137 137
137 137 137 137 137 137 137 137 137 137 137 137 137 137 137 137 137
137 137 137 137 137 137 137 137 137 137 137 137 137 137 137 137 137
137 137 137 137 137 137 137 137 137 137 137 137 137 137 137 137 137
137 137 137 137 137 137 137 137 137 137 137 137 137 137 137 137 137
137 137 137 137 137 137 137 137 137 137 137 137 137 137 137 137 137
137 137 137 137 137 137 137 137 137 137 137 137 137 137 137 137 137
137 137 137 137 137 137 137 137 137 137 137 137 137 137 137 137 137
137 137 137 137 137 137 137 137 137 137 137 137 137 137 137 137 137
137 137 137 137 137 137
